seo-minseok/DOB-RL/cycles/Cycle_4/results/mbrl_real_ratio=0.2/seed_3_progress.csv
seed,episode,total_steps,reward,episode_length,td_loss_avg,model_loss_avg,horizon_length,real_buffer_size,model_buffer_size,q1_avg,q2_avg,target_q_avg
3,1,88,-99.16091541852802,88,nan,nan,0,88,0,nan,nan,nan
3,2,1688,-76.83177960268222,1600,nan,nan,0,1688,0,nan,nan,nan
3,3,1748,-101.96192111540586,60,nan,nan,0,1748,0,nan,nan,nan
3,4,1833,-100.6342010376975,85,nan,nan,0,1833,0,nan,nan,nan
3,5,1915,-115.47865968942642,82,nan,nan,0,1915,0,nan,nan,nan
3,6,2044,-100.75177921447903,129,nan,nan,0,2044,0,nan,nan,nan
3,7,3644,-95.72169640264474,1600,nan,nan,0,3644,0,nan,nan,nan
3,8,3752,-98.27491996064782,108,nan,nan,0,3752,0,nan,nan,nan
3,9,3818,-103.14254142297432,66,nan,nan,0,3818,0,nan,nan,nan
3,10,3913,-100.55647067492828,95,nan,nan,0,3913,0,nan,nan,nan
3,11,4001,-117.17265662178397,88,nan,nan,0,4001,0,nan,nan,nan
3,12,5601,-85.4414638436865,1600,nan,nan,0,5601,0,nan,nan,nan
3,13,5654,-112.8764607924968,53,nan,nan,0,5654,0,nan,nan,nan
3,14,5736,-105.30822565453127,82,nan,nan,0,5736,0,nan,nan,nan
3,15,5826,-100.84065054729581,90,nan,nan,0,5826,0,nan,nan,nan
3,16,5915,-125.43535425513983,89,nan,nan,0,5915,0,nan,nan,nan
3,17,5966,-106.77344544790685,51,nan,nan,0,5966,0,nan,nan,nan
3,18,6032,-104.7224500020966,66,nan,nan,0,6032,0,nan,nan,nan
3,19,7632,-84.69999424088746,1600,nan,nan,0,7632,0,nan,nan,nan
3,20,7717,-112.87789925839752,85,nan,nan,0,7717,0,nan,nan,nan
3,21,7784,-115.20742836780846,67,nan,nan,0,7784,0,nan,nan,nan
3,22,9384,-77.18898292141967,1600,nan,nan,0,9384,0,nan,nan,nan
3,23,9461,-105.38557129632682,77,nan,nan,0,9461,0,nan,nan,nan
3,24,9532,-100.79856835491955,71,nan,nan,0,9532,0,nan,nan,nan
3,25,9615,-104.94231184967794,83,nan,nan,0,9615,0,nan,nan,nan
3,26,11215,-125.15366473793983,1600,17.906433041351008,nan,0,11215,0,-0.26063130662020784,-0.260929343101309,-0.388114208728075
3,27,11394,-127.03376346081495,179,92.62830056526205,0.17840131137722223,1,11394,15360,-1.0919123429585906,-1.1062511558041852,-1.4008663468501148
3,28,11492,-136.39469980075955,98,75.35273726118936,0.12436594542003039,1,11492,30720,-1.270251609881719,-1.2652824997901917,-1.4538003666533363
3,29,11587,-104.76412821281701,95,85.10117568704817,0.09252586990143313,1,11587,46080,-1.6127496308750577,-1.6103318764103784,-1.7907881319522858
3,30,11636,-103.39053557440639,49,78.99261655211448,0.0829831353381828,1,11636,61440,-1.4893198922276496,-1.476440992951393,-1.8337838143110274
3,31,11679,-106.93151610530913,43,76.75468870401383,0.08072488055185036,1,11679,76800,-1.7116446793079376,-1.6829902678728104,-1.823140984773636
3,32,11830,-105.99121000152081,151,69.78061205863952,0.07926315876068893,1,11830,92160,-1.8484373815854391,-1.843172980149587,-1.999524590174357
3,33,11880,-102.66467600502074,50,59.71539335489273,0.0777062484535618,1,11880,107520,-2.0525546002388,-2.0535036230087282,-2.148586390018463
3,34,11964,-102.55626452388242,84,56.44413819909096,0.07653823799413184,1,11964,122880,-2.067996455729008,-2.069907860457897,-2.2037677727639675
3,35,12036,-98.76512170420028,72,48.75896801097053,0.07533499274564825,1,12036,138240,-2.127770673377173,-2.1245372670037406,-2.1634697249957493
3,36,12170,-105.99347008485347,134,41.104940031125,0.07434062903337445,1,12170,153600,-1.9837465272499966,-1.981932513988935,-2.04537256360054
3,37,12255,-99.51205650437623,85,43.44148009121418,0.07332350109697233,1,12255,168960,-2.16854193136096,-2.172937439382076,-2.2304888159036635
3,38,12349,-122.60975211160257,94,34.811108610365125,0.0727608896791935,1,12349,184320,-2.0259001983536615,-2.0133109708627064,-2.065425293975406
3,39,12491,-110.54340757802129,142,30.68941800764629,0.07219619064902266,1,12491,199680,-1.9042016391243253,-1.9001601227692195,-1.974786868052823
3,40,12615,-110.11773346480913,124,30.434836185971896,0.07119285184890031,2,12615,230400,-1.8920081483821074,-1.8881360416611035,-1.9392954776684443
3,41,12733,-124.85715261334553,118,32.14591835412112,0.07034892996354979,2,12733,261120,-1.971185692484406,-1.97112383894961,-2.0139932721853255
3,42,12868,-135.83316090726294,135,30.658258741635542,0.06991426280769361,2,12868,291840,-2.015926124836103,-2.007267801549572,-2.0604922993825032
3,43,13052,-115.97223681584,184,28.036262865861257,0.06938982446491718,2,13052,322560,-2.0719898637798098,-2.0685900597108735,-2.1109260227945117
3,44,13151,-108.94952765200287,99,28.442772195074294,0.06832379964490731,2,13151,353280,-2.235551306605339,-2.223318343692356,-2.303254501024882
3,45,13491,-132.3001326965168,340,25.771908134572648,0.0676658143989401,2,13491,384000,-2.2465910710394383,-2.2395785048604013,-2.2883687376099475
3,46,13816,-120.12862311676145,325,23.33466465510428,0.0664861015879955,2,13816,414720,-2.1225495083490387,-2.1234133897349237,-2.1837274287827313
3,47,15416,-132.2786092166789,1600,15.341567651554943,0.06527764529645817,2,15416,445440,-1.8488114794599824,-1.8510089996829628,-1.8953316790354438
3,48,15600,-113.12886557448655,184,12.7557113190492,0.05946431940628422,2,15600,476160,-1.2657804365787242,-1.2730565825684204,-1.3308895128468672
3,49,15765,-113.89920253679156,165,11.150652007386089,0.058272209072278605,2,15765,506880,-1.4255659974180162,-1.4290575146209448,-1.47343282639049
3,50,15862,-111.99127514008433,97,10.564107560449177,0.05738708980259348,2,15862,537600,-1.2416421703166431,-1.2561130957471,-1.3425936740305688
3,51,15933,-104.51144515303895,71,13.368470088073186,0.05683987354808818,2,15933,568320,-1.5799421169928143,-1.5566148683428764,-1.594039827798094
3,52,16857,-176.4589388356544,924,10.645288255648769,0.05648796385334384,2,16857,599040,-1.303927420678994,-1.3052798967808485,-1.3478114090131028
3,53,16897,-109.96728821843863,40,11.532617120444774,0.05482203668126693,2,16897,629760,-0.6238921545445919,-0.6231789028272032,-0.6659515551291406
3,54,16936,-111.16561305522919,39,10.478102326393127,0.05409416927758491,2,16936,660480,-0.8606809104482332,-0.8737357755502065,-0.8899539416035016
3,55,17059,-110.22903019376099,123,10.174263076484204,0.05361543447531835,2,17059,691200,-0.8889513271550338,-0.8982875384700795,-0.9338891699910163
3,56,17097,-112.06412014365196,38,9.681557738780976,0.05310629600978861,2,17097,721920,-1.2335355559984842,-1.2224342366059622,-1.269538160165151
3,57,17292,-113.05906470771879,195,11.408448972513801,0.05272350990109974,2,17292,752640,-0.6829810721309562,-0.6776789564835398,-0.7272312105878403
3,58,17343,-108.50235895859078,51,7.34698615193367,0.052105568141783055,2,17343,783360,-0.5481077590584755,-0.546370709836483,-0.5837305152416229
3,59,17392,-110.04047491401434,49,11.619442257285119,0.051820255923478754,2,17392,814080,-0.8351459201425314,-0.8282371979206801,-0.8805836249142885
3,60,17450,-110.85437038820237,58,10.217006264925002,0.05146857508601834,3,17450,860160,-0.9182613712549209,-0.9225393283367157,-0.9520047569274902
3,61,17513,-101.55576584674418,63,10.55793302456538,0.05118131514492572,3,17513,906240,-0.6514889065176248,-0.6540065623819828,-0.6573144053419431
3,62,17601,-113.52473706472665,88,9.80965234413743,0.05090464739238515,3,17601,952320,-0.5689791797660291,-0.5905629750341177,-0.6274291904643178
3,63,17653,-105.92634360538796,52,9.74747862458229,0.050589035206711756,3,17653,998400,-0.6682535472512245,-0.6493416947126388,-0.7136059808731079
3,64,17691,-106.91900773858652,38,10.19933686653773,0.050356924851589345,3,17691,1000000,-0.7609568109114965,-0.7877173140645027,-0.8513008549809455
3,65,17739,-104.43735831417143,48,10.318401837348938,0.050154542516251115,3,17739,1000000,-0.26046138219535353,-0.25415256395936014,-0.2697586167603731
3,66,17780,-106.27509830053896,41,9.498174704611301,0.0499198737675729,3,17780,1000000,-0.6562597814947366,-0.6685564678162337,-0.6896626338362694
3,67,17851,-114.71736057661474,71,10.962250433649336,0.04969237587158231,3,17851,1000000,-0.762753845431975,-0.7603937437491758,-0.8071517714432308
3,68,17922,-115.59932811744511,71,10.237229642697743,0.04948442251497997,3,17922,1000000,-0.8114219639982496,-0.8088916609329837,-0.8254869010831628
3,69,17986,-116.70822275988758,64,12.411536583304406,0.049234554838566556,3,17986,1000000,-0.9411006862918536,-0.9421451956033706,-0.9959220193326473
3,70,18061,-116.61122471373528,75,11.205140607697624,0.04901017339456649,3,18061,1000000,-0.8889733073966843,-0.889054881462029,-0.9507294165236609
3,71,18150,-111.61781611177139,89,12.231742103397846,0.048742364389555794,3,18150,1000000,-0.9664143147878349,-0.953144590370357,-0.9703535122796894
3,72,18258,-105.54649438196793,108,12.249838372468949,0.04850011001030604,3,18258,1000000,-0.7576932688057423,-0.7648091338574886,-0.804392804056406
3,73,18338,-109.90259782690555,80,10.967696173489093,0.04825837855257899,3,18338,1000000,-0.7191676026210189,-0.7192262530326843,-0.7506635092198849
3,74,18376,-109.3012775927782,38,12.939524036645889,0.04796061350706038,3,18376,1000000,-1.2961766739686331,-1.3007373660802841,-1.3547436813513438
3,75,19976,-120.64568854845129,1600,9.353006813414394,0.04772284087230902,3,19976,1000000,0.048265453060157594,0.04686851512873545,0.018950133475009352
3,76,20678,-158.0701116793789,702,7.065747051664761,0.04475747782768857,3,20678,1000000,1.2700644634025438,1.2705645361755575,1.2489014127424785
3,77,20795,-112.54008268518373,117,6.668777657638897,0.044116076383118825,3,20795,1000000,1.8540067225694656,1.849519596993923,1.8211101507598704
3,78,22395,-126.605129561387,1600,6.192001603543758,0.043757117377141865,3,22395,1000000,2.3489212798466905,2.3524828912178055,2.33188342226902
3,79,22445,-106.44813339179382,50,5.255480690002441,0.04135194224986993,3,22445,1000000,2.990953369140625,3.01520648509264,2.9906173115968704
3,80,22598,-123.45641535008326,153,5.338295657237371,0.04090984862911518,4,22598,1000000,2.95597158630689,2.944710973302523,2.9230586292346317
3,81,22674,-98.15420015435666,76,5.452543036426817,0.0406505207573487,4,22674,1000000,3.182249479634421,3.156234235422952,3.1271950142724174
3,82,22784,-116.66865797201172,110,5.298629967191003,0.04050802622611324,4,22784,1000000,2.9721644775433975,2.971620264378461,2.96015187014233
3,83,23804,-193.03023565374315,1020,4.631519984264,0.04033045018935918,4,23804,1000000,3.0592970427637005,3.0518849132399932,3.041237720584168
3,84,23962,-128.97358799539506,158,4.489975456794103,0.04021416487631158,4,23962,1000000,3.5463902799288434,3.547467534939448,3.525086474021276
3,85,24151,-132.90918773785233,189,4.325108561913172,0.03995671086547409,4,24151,1000000,3.4329790126946236,3.4364477834767766,3.411422935790486
3,86,24213,-100.50266831181943,62,5.157006935278575,0.039694827983935255,4,24213,1000000,3.689230861266454,3.6823901424805325,3.643404942750931
3,87,24293,-99.69277402572334,80,3.6250512421131136,0.03961341702082056,4,24293,1000000,3.4380542293190954,3.4248236939311028,3.404478698596358
3,88,24429,-93.69176700245589,136,3.6956867208847632,0.039462398674259797,4,24429,1000000,3.6402998306430305,3.6462094861727494,3.620992799447133
3,89,24520,-99.62372343894094,91,3.596469302309884,0.039434546904082886,4,24520,1000000,3.7123138214151066,3.6921166376935113,3.687523569994503
3,90,24578,-109.71661296673119,58,2.698971546292305,0.039381435959224116,4,24578,1000000,3.6814595794677736,3.682399339675903,3.677328701019287
3,91,24721,-105.24576495494694,143,3.684687056498868,0.03922906286315993,4,24721,1000000,3.8451181584170886,3.8455688200891016,3.837724951335362
3,92,24847,-95.21374296024442,126,3.8821491964161394,0.039096253439007946,4,24847,1000000,4.010368094344934,4.008759778241316,4.012040306131045
3,93,24985,-107.0645838920027,138,3.510840580555109,0.03902362926872735,4,24985,1000000,3.946616599995356,3.9517978637264326,3.954915085205665
3,94,25130,-98.45264446595684,145,4.062176031087126,0.038914989205109295,4,25130,1000000,3.8574329333645956,3.8548406645655633,3.8422818304172583
3,95,25286,-99.57111943140626,156,2.866748190522194,0.038827594099756405,4,25286,1000000,4.276870585481325,4.255984508991242,4.255221037666003
3,96,25414,-98.58035122626461,128,3.228154163310925,0.038659452138861426,4,25414,1000000,4.14680727571249,4.144835697611173,4.133658243219058
3,97,25518,-94.69250675663352,104,3.014380319714546,0.038501081221834176,4,25518,1000000,3.8446554386615754,3.8280178970098495,3.8321316385269166
3,98,25610,-98.30403885152191,92,4.394877001974318,0.038337712109038725,4,25610,1000000,4.2487734231683945,4.26995915306939,4.230861971775691
3,99,25713,-96.88393406011164,103,3.6177263936400412,0.03818859444434444,4,25713,1000000,4.194128763079643,4.185562312602997,4.176588307619095
3,100,25787,-109.60117150098085,74,2.627023590888296,0.03802428728962938,5,25787,1000000,4.505463300432478,4.500172766617366,4.509367396150316
3,101,25900,-101.68808844033629,113,4.398986130681905,0.037862575465192394,5,25900,1000000,4.6864363258535215,4.689853035319935,4.6606450536034325
3,102,25968,-113.28153829276562,68,4.537596762180328,0.037720502282280736,5,25968,1000000,4.047057873010635,4.062938253084819,4.0490396320819855
3,103,26064,-102.18723672628403,96,3.1520720922284657,0.03759719952080313,5,26064,1000000,4.313725635740492,4.315785082181295,4.312119440237681
3,104,26125,-112.1275929287076,61,4.661827347675959,0.03743054569013441,5,26125,1000000,4.161932070056597,4.198862275481224,4.162027925252914
3,105,26181,-112.06895536184311,56,3.380313121676445,0.037285312766732734,5,26181,1000000,4.335643949508667,4.334151856899261,4.316308805942535
3,106,26227,-110.62624826282263,46,2.7381175927817822,0.03713431947322842,5,26227,1000000,4.716746366024017,4.708678418397904,4.700503247976303
3,107,26276,-110.63266176357865,49,5.377045337110758,0.03698652541277066,5,26276,1000000,4.591143921017647,4.609431517124176,4.57273878455162
3,108,26322,-110.5381085947156,46,4.9706746026873585,0.0368482831536847,5,26322,1000000,4.91648017168045,4.891601169109345,4.894790929555893
3,109,26371,-110.18648970127106,49,2.4967697478830813,0.0367241343093756,5,26371,1000000,4.677485808730125,4.673378983139992,4.638551366329193
3,110,26423,-110.87508993595839,52,4.287181535959244,0.036579343622315276,5,26423,1000000,4.726746411323547,4.73945692896843,4.712621830701828
3,111,26469,-110.12940368056297,46,6.785460857301951,0.0364379823810653,5,26469,1000000,4.514966806769371,4.585258880257607,4.553728288412094
3,112,26509,-109.55686887353659,40,3.1523001067340375,0.03629941671459806,5,26509,1000000,4.607667768001557,4.592320847511291,4.580855792760849
3,113,26543,-107.358631901443,34,5.481074640154839,0.03615241046018392,5,26543,1000000,4.739890511830648,4.757751043637594,4.714545567830403
3,114,26584,-110.66959407925606,41,3.9055261239409447,0.036029091876446234,5,26584,1000000,4.7541379749774935,4.720451751351357,4.7339022070169445
3,115,26620,-108.13552724570036,36,2.976346667607625,0.03589858311713706,5,26620,1000000,5.314396675427755,5.327575079600016,5.307582847277323
3,116,26654,-107.40967653691769,34,3.5729174951712293,0.03577279224268441,5,26654,1000000,5.07301806807518,5.053322864572207,5.071275967359543
3,117,26698,-111.05944161862135,44,5.014863893389702,0.035637684792089154,5,26698,1000000,4.675318950414658,4.678164255619049,4.622310844063759
3,118,26732,-107.58833707869053,34,1.6908481061458587,0.03548925926264089,5,26732,1000000,5.150273172060649,5.16644188563029,5.144098091125488
3,119,26766,-107.71768149733543,34,2.6271082192659376,0.03537472585359445,5,26766,1000000,5.0167115211486815,4.992592485745748,4.9901874701182045
3,120,26800,-107.63550470024347,34,4.5843436767657595,0.03525237835203417,6,26800,1000000,4.528828191757202,4.602976353963216,4.554969064394633
3,121,26841,-109.78807521611452,41,5.125952295213938,0.0351304524530394,6,26841,1000000,4.424409663677215,4.401290646195411,4.394432705640793
3,122,26875,-107.91729260981083,34,4.055727060635885,0.03498596095312864,6,26875,1000000,5.064757458368937,5.083742642402649,5.055932744344076
3,123,26935,-99.2369945612736,60,3.434512746334076,0.034878117982775736,6,26935,1000000,4.95693602959315,4.969242187341054,4.96383104523023
3,124,26997,-100.34408050402999,62,4.735630985597769,0.034796335057370245,6,26997,1000000,4.820542367299398,4.804704282681147,4.782309818267822
3,125,27065,-105.12902002129704,68,5.243856203556061,0.034713771983035026,6,27065,1000000,4.834935728708903,4.8536643187205,4.833625853061676
3,126,27131,-103.02330376952887,66,2.9862414076924324,0.03462609139108468,6,27131,1000000,5.194624404112498,5.194099493821462,5.1817298571268715
3,127,27165,-107.7628849670291,34,4.4650381863117214,0.0345700503365388,6,27165,1000000,4.615350071589152,4.609133605162302,4.584223318099975
3,128,27198,-107.93382327258587,33,3.7065795987844465,0.03444873882141316,6,27198,1000000,5.256798807779948,5.279301754633585,5.241531109809875
3,129,27231,-107.62448292970657,33,4.713730412721634,0.03434998466861698,6,27231,1000000,5.150742562611898,5.141248504320781,5.126552851994832
3,130,27264,-107.34214040637016,33,4.166856388250987,0.03424215889155115,6,27264,1000000,4.68468763033549,4.718137415250142,4.6722243150075276
3,131,27297,-107.60736163705587,33,3.768796043594678,0.034127816636373036,6,27297,1000000,4.924097961187362,4.920910968383153,4.9008530378341675
3,132,27331,-107.46783017925918,34,4.624226316809654,0.03401722135080856,6,27331,1000000,5.078701933224996,5.096387791633606,5.0785053133964535
3,133,27365,-107.63496544212103,34,4.031973606348037,0.033927739941099155,6,27365,1000000,5.219419757525126,5.210824517409007,5.175701562563578
3,134,27400,-107.83239091932774,35,2.0668632805347444,0.03380640381771439,6,27400,1000000,5.43362086613973,5.449115943908692,5.442681948343913
3,135,27434,-107.33473821729422,34,3.529913980762164,0.03371930547012161,6,27434,1000000,5.083468111356099,5.080352195103964,5.086696934700012
3,136,27468,-107.40382567048073,34,4.1507397294044495,0.03360326129745843,6,27468,1000000,5.472382354736328,5.405017193158468,5.437259833017985
3,137,27501,-107.28321828693151,33,4.283439282576243,0.033505238013521906,6,27501,1000000,4.6654825687408445,4.662857528527578,4.666785685221354
3,138,27549,-109.86413101106882,48,4.476897906512022,0.033402159010463416,6,27549,1000000,5.22122585773468,5.23337869644165,5.192434471845627
3,139,29149,-153.4756283776369,1600,3.751066712923348,0.03331497406058965,6,29149,1000000,5.453895945232362,5.45806440141052,5.440702368915081
3,140,29199,-110.68533531203866,50,3.750347116589546,0.03178446907385261,7,29199,1000000,5.809139018058777,5.778685116767884,5.772757081985474
3,141,29243,-111.45548593252897,44,3.02871425524354,0.031604380797790856,7,29243,1000000,5.689652055501938,5.706256294250489,5.675412142276764
3,142,29372,-119.2539536934346,129,3.111943233013153,0.031509874501859235,7,29372,1000000,6.193812855084738,6.183228373527527,6.168643750747045
3,143,30972,-152.52068998850882,1600,2.829950319463387,0.03138483953253742,7,30972,1000000,5.9535689238458875,5.951331498175859,5.9376857366785405
3,144,31817,-183.77810310130008,845,2.7886929264203424,0.030123080064853033,7,31817,1000000,5.9631396390142895,5.96676554463449,5.953132417159421
3,145,32737,-185.9756102275569,920,2.408785671773164,0.03057389054247128,7,32737,1000000,6.161085559039012,6.158544545653074,6.15037917174075
3,146,32788,-110.08752007596195,51,1.9229769271612167,0.03084580208079552,7,32788,1000000,6.183074173927307,6.188563709259033,6.176578030586243
3,147,32859,-113.95949526876211,71,1.5768384944115366,0.030699681733191635,7,32859,1000000,6.630274285588945,6.620288334574018,6.613600768361773
3,148,32932,-118.8514432311058,73,2.272328698847975,0.030590146255174963,7,32932,1000000,6.6015723160335,6.603729711260114,6.585656721251351
3,149,34453,-233.82704952871427,1521,2.3582652795765746,0.03049263278080616,7,34453,1000000,6.379988887788434,6.384049855721624,6.3755191962969935
3,150,34497,-108.22131924610585,44,1.904626077413559,0.031602940933584275,7,34497,1000000,6.4961485981941225,6.513004106283188,6.49876953959465
3,151,34538,-110.95391056127846,41,2.6245216626673935,0.03140323832538442,7,34538,1000000,6.681635725498199,6.654896152019501,6.653294384479523
3,152,34579,-109.63324246369302,41,2.1081131670624016,0.03124375821031,7,34579,1000000,6.2121337950229645,6.174245172739029,6.183206811547279
3,153,34998,-151.87696673278697,419,2.271266740487843,0.03111178618154408,7,34998,1000000,6.662008723980043,6.657177337786046,6.648590581010027
3,154,35217,-136.86761517077684,219,2.1711366686083022,0.031232272606233465,7,35217,1000000,6.7522326174236476,6.747257816223871,6.7478917031061085
3,155,35501,-142.96635948307812,284,2.5264418529612676,0.031213230264447903,7,35501,1000000,6.621016837017876,6.621912663323538,6.6166892775467465
3,156,35773,-142.27788800373673,272,2.4616348732400826,0.031192650086277925,7,35773,1000000,6.314988247553507,6.3180407510863414,6.3051635658299485
3,157,35814,-108.45794736221433,41,3.1846080534160137,0.031177651897358667,7,35814,1000000,6.501376494765282,6.484855595231056,6.47458330988884
3,158,35860,-109.1172150876373,46,3.7740606270730495,0.031065759977562536,7,35860,1000000,6.544861507415772,6.55035315155983,6.506436109542847
3,159,36173,-145.08378863846883,313,3.3335261614091936,0.0309660776527155,7,36173,1000000,6.480867095916502,6.467158800555814,6.47838563073066
3,160,36226,-112.16024150885642,53,2.7310709780454636,0.030911903277074756,8,36226,1000000,7.006660881042481,7.01713451385498,6.999729194641113
3,161,36277,-106.21868767775595,51,2.5186701065301893,0.030799647577406386,8,36277,1000000,6.398125267028808,6.408385691642761,6.376519408226013
3,162,36328,-106.4623787496239,51,2.6056851065158844,0.03071575050658368,8,36328,1000000,6.502253704071045,6.454803643226623,6.475549159049987
3,163,36378,-104.87655959837139,50,2.341232869029045,0.030637895034947574,8,36378,1000000,6.975891962051391,6.988055868148804,6.9932834434509275
3,164,36421,-107.13338700961322,43,1.8388367414474487,0.030557268298287907,8,36421,1000000,7.1726168394088745,7.136509621143341,7.123040568828583
3,165,36558,-124.45583621272817,137,1.9823463907608618,0.030465042435437302,8,36558,1000000,6.502178907394409,6.502339440125685,6.485976817974677
3,166,36632,-121.13529704883695,74,1.5022022306919098,0.030388776333609098,8,36632,1000000,6.785227189745222,6.76346686226981,6.793094941547939
3,167,38232,-135.60798902763054,1600,2.410351215796545,0.030298427202345886,8,38232,1000000,6.575677388422191,6.57283775575459,6.566710017994046
3,168,39832,-118.48576668463647,1600,2.2831892917118966,0.030239421125059694,8,39832,1000000,6.8888495235145095,6.887770926356316,6.88299997959286
3,169,41432,-105.17250043619424,1600,2.394668300850317,0.029459181585779756,8,41432,1000000,7.240410716459155,7.2429548355937,7.233982967361808
3,170,43032,-119.81345469225198,1600,2.4096428786590693,0.028725485708063186,8,43032,1000000,7.532371357828379,7.533104807436466,7.527456201165915
3,171,43075,-113.30512231588364,43,3.3905251078307628,0.027884867666880527,8,43075,1000000,7.552182918787002,7.573749566078186,7.5410931468009945
3,172,43117,-113.270274117589,42,1.6980481859296561,0.02776261115712779,8,43117,1000000,7.888433474302292,7.8521232306957245,7.86362327337265
3,173,43161,-114.42150342464447,44,1.7852903015911579,0.02766771118585316,8,43161,1000000,7.308516353368759,7.339696764945984,7.333533847332001
3,174,43202,-113.85352702438831,41,1.5225985318422317,0.027578940446532908,8,43202,1000000,7.9129033327102665,7.924173891544342,7.911322462558746
3,175,43244,-113.90012241899967,42,4.051047571003437,0.02749367199158148,8,43244,1000000,8.053748404979705,8.046035957336425,8.032695484161376
3,176,43288,-114.04358936846256,44,1.687388226762414,0.027403977411311297,8,43288,1000000,8.085110425949097,8.078717470169067,8.087067091464997
3,177,43332,-115.11037275195122,44,1.1333856761455536,0.02733621011089526,8,43332,1000000,8.426612520217896,8.41496832370758,8.429659914970397
3,178,43376,-114.25636814534664,44,1.345452382415533,0.027257831402754878,8,43376,1000000,8.328423166275025,8.325731790065765,8.324383330345153
3,179,43418,-113.11627380549908,42,2.7478596031665803,0.027178345616223544,8,43418,1000000,8.256444442272187,8.250575840473175,8.243389916419982
3,180,43460,-113.09482392668724,42,1.2540090069174767,0.027099605139778445,9,43460,1000000,8.034381318092347,8.057662904262543,8.049905502796173
3,181,43501,-112.84732800722122,41,2.0772769793868067,0.027014228161534613,9,43501,1000000,8.304172730445861,8.312793219089508,8.301276445388794
3,182,43541,-113.34295600652695,40,2.6820081122219563,0.0269419458593725,9,43541,1000000,7.956617867946624,7.961317449808121,7.940344494581223
3,183,43582,-112.34892873466015,41,1.2543079182505608,0.026865553914331923,9,43582,1000000,8.06781450510025,8.060649406909942,8.043943250179291
3,184,43625,-112.55845600366592,43,3.672441404312849,0.026797381777535465,9,43625,1000000,8.430926752090453,8.42445330619812,8.435156667232514
3,185,43666,-111.97190491855145,41,1.6159706208854914,0.02673481823547798,9,43666,1000000,8.020150732994079,8.022664630413056,8.020568430423737
3,186,43707,-113.06143087148666,41,1.8623813048005105,0.026670760737330306,9,43707,1000000,8.285772788524628,8.30664620399475,8.286469006538391
3,187,43747,-112.09292910993099,40,1.4004699666053058,0.026599334845794183,9,43747,1000000,8.024464929103852,8.02100030183792,8.033560609817505
3,188,43791,-109.24443267658353,44,2.243382790312171,0.026526556855761538,9,43791,1000000,7.94621559381485,7.951896065473557,7.940524673461914
3,189,43837,-108.70427758991718,46,3.0390379786491395,0.026470057737467117,9,43837,1000000,8.075794863700867,8.062173998355865,8.073243939876557
3,190,43878,-111.49658218026161,41,2.837740892916918,0.026411492538004823,9,43878,1000000,7.268208277225495,7.232327491044998,7.246501219272614
3,191,43918,-111.66889065504074,40,3.158962221443653,0.026336437444153586,9,43918,1000000,7.445648556947708,7.429737138748169,7.415623784065247
3,192,43970,-110.03414446860552,52,3.2977020433545112,0.02627355493024195,9,43970,1000000,7.158183317184449,7.143256778717041,7.1368752241134645
3,193,44056,-115.71673863660544,86,2.3313702683895827,0.026214914852444655,9,44056,1000000,7.0450603574514385,7.06225266456604,7.049850943684578
3,194,44181,-123.88878748007119,125,2.092827486495177,0.02619644014107049,9,44181,1000000,7.261231863498688,7.271653346220652,7.253966977198918
3,195,44258,-109.20055617950857,77,2.4191084597791943,0.02619244866000936,9,44258,1000000,6.7231836523328505,6.71756820338113,6.721118872506278
3,196,44329,-108.48220790596679,71,1.5218039044312068,0.026154831835870133,9,44329,1000000,6.834059003421238,6.824689051083156,6.840498195375715
3,197,44382,-112.56375859351829,53,1.3070364969968795,0.026135827841413044,9,44382,1000000,6.779792771339417,6.771829462051391,6.752074990272522
3,198,44476,-118.43855508510023,94,3.1607572731044558,0.0260636684823932,9,44476,1000000,6.7694879134496055,6.779066491127014,6.7646300845675995
3,199,44525,-108.1670558648184,49,2.258712085336447,0.0260432237131173,9,44525,1000000,6.422132527828216,6.404984039068222,6.421556520462036
3,200,44590,-106.40676967054605,65,1.6409656266371409,0.02600522091924455,10,44590,1000000,6.102106976509094,6.110565074284872,6.087470165888468
3,201,44647,-106.44736765697598,57,1.466723600924015,0.02596579702050065,10,44647,1000000,6.594981737136841,6.608693370819092,6.606448912620545
3,202,44700,-107.697518767789,53,1.2365262576937674,0.025937465545489414,10,44700,1000000,5.954668762683869,5.952338633537292,5.944558808803558
3,203,44781,-112.9212392969057,81,2.1604534931480885,0.025885383482180335,10,44781,1000000,6.011215096712112,6.011099329590797,6.005412541329861
3,204,46381,-118.54175650747493,1600,2.2127839253935964,0.02584403295969141,10,46381,1000000,6.012554287947714,6.015035134479404,6.005599977876991
3,205,47981,-103.7228697220562,1600,2.092649189392105,0.02568571338392314,10,47981,1000000,6.443117242995649,6.439860623031855,6.43594282001257
3,206,49581,-91.25671611074358,1600,2.2574003884661944,0.025755158750051483,10,49581,1000000,6.7290826793015,6.728728712592274,6.721887964196503
3,207,49619,-103.14230699464679,38,3.5984986633062364,0.02593605702418017,10,49619,1000000,7.090232690175374,7.079089426994324,7.074207584063212
3,208,49668,-103.89821878634393,49,1.5011365737766027,0.025807904884450793,10,49668,1000000,7.178021657466888,7.18072817325592,7.179807704687119
3,209,50131,-155.08427732205018,463,2.0403228274506073,0.025703863449445908,10,50131,1000000,7.39758311872897,7.396777985406959,7.391506359369859
3,210,50607,-157.35813952051103,476,2.287996411291843,0.02583303470387418,10,50607,1000000,7.721001862465067,7.717803260620604,7.713898602952349
3,211,50834,-138.49464405700564,227,2.28053983585401,0.02589176710877826,10,50834,1000000,7.927826498855244,7.9200810324062,7.921529556404461
3,212,51947,-203.71934623853303,1113,2.238332257171472,0.02585011973650969,10,51947,1000000,7.9830497342187,7.985058931831841,7.981511643340996
3,213,52277,-145.71566497907043,330,2.221590524053935,0.026095218995198757,10,52277,1000000,7.900283912817637,7.900281672044234,7.894537339788495
3,214,52483,-136.73206645064056,206,2.299665350988507,0.02607471278314692,10,52483,1000000,7.992861613035202,7.989493026733398,7.991104909181595
3,215,52995,-161.33498573955148,512,1.9895035714787594,0.025994775022675352,10,52995,1000000,8.012038023331586,8.004228365655038,8.005988789072223
3,216,53296,-146.05704421643168,301,2.004154979735613,0.026008023529788916,10,53296,1000000,8.044177623589833,8.047623366514841,8.047788978417714
3,217,53641,-147.80044965492561,345,2.124392793590532,0.025959498540928157,10,53641,1000000,8.138854272225323,8.138851340027417,8.131572940069086
3,218,53854,-139.59719964163378,213,2.129170631510871,0.025967034712386282,10,53854,1000000,8.114104037057785,8.114084150677636,8.098930643853688
3,219,54019,-132.94798025488853,165,1.8547486839815974,0.025924623320618317,10,54019,1000000,8.630588695406914,8.625136137008667,8.625257694721222
3,220,54220,-135.63568791467696,201,2.525251774340868,0.025837006158597096,10,54220,1000000,8.581590045690536,8.578418653011322,8.569477372169494
3,221,54358,-131.99794592894614,138,2.884603502314824,0.025785258198730752,10,54358,1000000,8.466738677024841,8.484874277848464,8.476804439838116
3,222,54630,-142.65379843022674,272,2.9594209008194783,0.02570422554634652,10,54630,1000000,8.712743799774735,8.700193249737774,8.694179326516611
3,223,54956,-146.66790962778032,326,2.8214739793911576,0.02566072665656303,10,54956,1000000,8.252237247675657,8.24592977911234,8.244622760266065
3,224,55494,-161.51628958433867,538,2.5524547364914194,0.02559802186881363,10,55494,1000000,8.235431632005943,8.236594561360917,8.225941880693975
3,225,55734,-143.06981405848637,240,2.8668981581926345,0.025490895049922444,10,55734,1000000,8.322805006305376,8.324697209397952,8.310000019272168
3,226,55847,-129.86099161207676,113,2.934470437060703,0.025423950019840453,10,55847,1000000,8.187453373995695,8.18945833119479,8.181608351794155
3,227,55968,-120.59158584289253,121,4.607960795486966,0.025340245166275116,10,55968,1000000,8.14750815629959,8.131485358874004,8.126113879680634
3,228,56167,-134.51659533008933,199,1.7240050641329665,0.025282411014701064,10,56167,1000000,8.328382635116578,8.320237395637914,8.322203445434571
3,229,56348,-135.31362797645852,181,2.7743097675343353,0.02519239112111078,10,56348,1000000,8.05471775399314,8.07105004787445,8.05901215341356
3,230,56496,-132.45485005527735,148,2.9911090621990817,0.025121462197804992,10,56496,1000000,8.437190117154802,8.440274657521929,8.427638382571084
3,231,56598,-116.25969091802835,102,1.6300391325354575,0.025071663772969537,10,56598,1000000,8.272827665805817,8.259587876796722,8.269816963672637
3,232,56706,-123.76114805950783,108,2.6998083628714085,0.02503621957712943,10,56706,1000000,8.310977156162261,8.310926215648651,8.30513884305954
3,233,56831,-131.2460133805871,125,3.468326056872805,0.024999079882514243,10,56831,1000000,8.096183941761653,8.080675242344538,8.078914785385132
3,234,56953,-132.4781028330326,122,2.6460260886698963,0.024931708531704243,10,56953,1000000,8.534220317999521,8.528492824236553,8.514889256159465
3,235,57061,-129.16859090328217,108,1.760341004282236,0.024872736901872687,10,57061,1000000,8.16098795413971,8.163213410377502,8.158566312789917
3,236,57232,-135.04699795227498,171,3.4405975452240773,0.024813729840646812,10,57232,1000000,7.879936599731446,7.879604385880863,7.873675789552577
3,237,57331,-111.14756353385746,99,3.4298196509480476,0.024763033493952365,10,57331,1000000,7.741206889682346,7.7371943447324965,7.737572235531277
3,238,57545,-138.71622894704342,214,2.4667307066775503,0.02472843596452822,10,57545,1000000,7.950059675035023,7.946185071127755,7.933144838469369
3,239,57641,-114.56335482234135,96,1.4826459533638425,0.024667620394445422,10,57641,1000000,7.586867833137513,7.575456510649787,7.573569430245294
3,240,57740,-127.82241733372211,99,1.9425839263531897,0.024633022921504797,10,57740,1000000,8.083040724860297,8.10121578110589,8.077819935480754
3,241,57821,-109.89112898986787,81,2.117373263463378,0.024577617372627612,10,57821,1000000,7.764641317725181,7.77323077917099,7.764590147137642
3,242,57910,-111.90763986017555,89,3.3416873827576636,0.024535526265148763,10,57910,1000000,7.612504953145981,7.617725911736488,7.595117291808128
3,243,57990,-106.50274158455431,80,3.385562181100249,0.024491330892243215,10,57990,1000000,7.658041861653328,7.6503506064414974,7.627733302116394
3,244,58077,-111.72463442571461,87,3.616183823719621,0.024458773653393825,10,58077,1000000,7.840849003195762,7.827226865291595,7.815863820910454
3,245,58156,-122.73518405668437,79,2.025603371432849,0.024420982750357957,10,58156,1000000,7.580850648880005,7.5928621632712225,7.580330351420812
3,246,58306,-130.98383396491408,150,3.557801849941413,0.024390259791006952,10,58306,1000000,7.361204795837402,7.362403494517008,7.35432377020518
3,247,58392,-124.62170831114054,86,2.3144402410835028,0.02432939041838072,10,58392,1000000,7.321513545513153,7.335414057970047,7.334035503864288
3,248,58479,-121.28366202116013,87,1.5192679278552532,0.024269751395638053,10,58479,1000000,7.268508067727089,7.2705589771270756,7.259861218929291
3,249,58734,-139.79339449387044,255,2.4255218206048013,0.02422443397713509,10,58734,1000000,7.166157453536988,7.164477652549744,7.158711750030518
3,250,59048,-142.6870019157359,314,3.1309972174705996,0.024230472275003075,10,59048,1000000,7.016900614769228,7.009770635635622,7.009493289455291
3,251,59206,-134.29353410284966,158,2.5502698283394176,0.02421472604022078,10,59206,1000000,7.066976974805196,7.065367293357849,7.0639739481608075
3,252,59429,-137.7739070309326,223,2.1544409666549074,0.02417820603795038,10,59429,1000000,6.950407412919131,6.9514173410155555,6.951503895629536
3,253,59653,-138.34429337177426,224,1.9249255490573969,0.02414741089257101,10,59653,1000000,6.464764254201542,6.464756968888369,6.466127159920606
3,254,59842,-136.59932537470013,189,3.1986429107685885,0.024115584270551653,10,59842,1000000,6.700498494837019,6.696992503934436,6.696405920717451
3,255,59900,-114.05415925569832,58,1.4680417090654374,0.024065412760569643,10,59900,1000000,6.317241723537445,6.321677786111832,6.323409647643566
3,256,59969,-115.662223322317,69,1.755552772184213,0.02402540383879122,10,59969,1000000,6.821092041333516,6.825056087970734,6.821819055080414
3,257,60328,-149.1453334093094,359,2.1160811419572148,0.023976491125794048,10,60328,1000000,6.673761259828295,6.673794238737651,6.66407814843314
3,258,60381,-113.60319551452994,53,2.989156424999237,0.023922302455027054,10,60381,1000000,6.369232563972473,6.3783210134506225,6.355287783145904
3,259,60442,-115.00373245030642,61,2.540856774399678,0.023880089809391516,10,60442,1000000,6.599653257926305,6.596675664186478,6.594291293621064
3,260,60508,-114.75130043458194,66,1.353622703254223,0.023824311502404133,10,60508,1000000,6.826243086655935,6.824801294008891,6.823846471309662
3,261,60630,-118.75404845923185,122,1.4122643607358139,0.023773773746975396,10,60630,1000000,6.91623716155688,6.909416599075,6.908290167649587
3,262,60685,-114.09723794274032,55,1.2030882334709168,0.023749971760194853,10,60685,1000000,7.026829586029053,7.019849410057068,7.020197811126709
3,263,60745,-114.75305159389973,60,4.2036627595623335,0.02370319204030325,10,60745,1000000,6.707178175449371,6.725212895870209,6.7111723224322
3,264,60805,-114.99540391936898,60,1.692479419708252,0.023648049242260084,10,60805,1000000,6.645400742689769,6.636797022819519,6.638709139823914
3,265,60858,-113.81649999506772,53,1.0514968413114547,0.023585617464722125,10,60858,1000000,6.536846985816956,6.541319756507874,6.53141565322876
3,266,60919,-115.02975042723119,61,3.260388448337714,0.02353723996728868,10,60919,1000000,6.301723198095957,6.297463592886925,6.291616634527842
3,267,60979,-115.08058508485556,60,1.9529973757763703,0.023490427135792462,10,60979,1000000,6.489380043745041,6.488073362906774,6.4688045660654705
3,268,61039,-115.19250553101301,60,2.412271585563819,0.023434077182925547,10,61039,1000000,6.653501919905344,6.6591030836105345,6.663875436782837
3,269,61093,-113.68232780694962,54,2.0469291538000105,0.023378579375915833,10,61093,1000000,5.788112769126892,5.7460001039505,5.740755290985107
3,270,61151,-114.97368530370295,58,1.8686484968662262,0.023343030236536215,10,61151,1000000,5.96968448638916,5.996663851737976,5.991823325157165
3,271,61206,-114.2749258838594,55,1.0594953340291977,0.02329635603734258,10,61206,1000000,5.936042385101318,5.942475132942199,5.930379958152771
3,272,61265,-114.98560969904065,59,2.7823911920189857,0.023252318722599887,10,61265,1000000,5.7763659334182735,5.797325208187103,5.788546342849731
3,273,61327,-115.5926257353276,62,3.0572945694128673,0.023208787658536286,10,61327,1000000,6.014160080750783,5.976945056517919,5.979957147439321
3,274,61385,-114.99045431800187,58,0.9015847569704056,0.023153164662223315,10,61385,1000000,5.976167163848877,5.986896345615387,5.9885325050354
3,275,61447,-115.58975678682327,62,2.8589121078451476,0.023108270245823733,10,61447,1000000,5.698550442854564,5.700431569417318,5.686478122075399
3,276,61505,-114.95125488564372,58,3.6269324803352356,0.023059779744491807,10,61505,1000000,6.060996026992798,6.0058092737197875,6.051250319480896
3,277,61565,-115.57162963040173,60,3.0668744121988616,0.023006788158996237,10,61565,1000000,5.792470757166544,5.8003834625085195,5.787633323669434
3,278,61627,-115.74632206372917,62,2.560447966059049,0.0229650725887364,10,61627,1000000,5.928692535559336,5.919967512289683,5.937748638788859
3,279,61690,-115.67488616518676,63,2.2901855779190856,0.022916524684987963,10,61690,1000000,5.342445063591003,5.3421746055285135,5.33674553434054
3,280,61750,-115.18091130256653,60,2.4004044170180956,0.022865568411846955,10,61750,1000000,5.521196285883586,5.50733729203542,5.506322509050369
3,281,61810,-115.63419602904469,60,2.8173580393195152,0.022821930180694058,10,61810,1000000,5.578556491434574,5.571569983164469,5.568126832942168
3,282,61870,-115.52637694776058,60,1.839959954470396,0.02277584291664809,10,61870,1000000,5.972094259659449,5.9591635664304095,5.9562142809232075
3,283,61924,-114.35774313658476,54,1.6340042179822922,0.022720476738686053,10,61924,1000000,5.692546720504761,5.663077306747437,5.6803230285644535
3,284,61981,-114.35264755319804,57,1.286000281572342,0.022690526563493872,10,61981,1000000,5.315305707454681,5.300941641330719,5.301042363643647
3,285,62045,-115.52594201639295,64,2.6499416415890056,0.02265451202276817,10,62045,1000000,5.343838274478912,5.354752530654271,5.3370625595251715
3,286,62099,-114.29729260317981,54,2.926729452610016,0.02261175598035831,10,62099,1000000,5.753888547420502,5.749718086719513,5.751511144638061
3,287,62159,-115.07307055592537,60,2.78242982874314,0.02257532173403367,10,62159,1000000,4.981295347213745,4.9774550239245094,4.973143424590429
3,288,62210,-112.78501721192151,51,2.4913679459691047,0.02253097461962421,10,62210,1000000,5.394706161022186,5.394190139770508,5.382643928527832
3,289,62264,-113.99384752102196,54,2.679684252142906,0.022495172046564406,10,62264,1000000,5.015221309661865,5.030998587608337,5.005269322395325
3,290,62317,-113.90344221144915,53,2.9241532385349274,0.02245962038503344,10,62317,1000000,4.916883175373077,4.933814132213593,4.90503144979477
3,291,62376,-114.48883981909603,59,1.3718497547507287,0.022426694984176033,10,62376,1000000,5.179052712917328,5.169267063140869,5.1531137323379514
3,292,62431,-113.73410273529589,55,1.9273661288619042,0.02238236861137369,10,62431,1000000,4.960619280338287,4.945760961771011,4.945711433887482
3,293,62481,-112.39713878184557,50,1.182841455936432,0.02234824735349343,10,62481,1000000,5.0206392168998715,5.015335624217987,5.027720360755921
3,294,62534,-113.64878439158201,53,1.3841938588023186,0.022318134614129046,10,62534,1000000,4.981655168533325,4.993881406784058,4.984931976795196
3,295,62593,-114.68049205467105,59,0.9780715984106064,0.02228802485299892,10,62593,1000000,5.014453172683716,5.026700391769409,5.012196753025055
3,296,62654,-115.14557310193777,61,1.2029590710997582,0.022244428859290774,10,62654,1000000,5.372780559460322,5.380032424132029,5.3699999213218685
3,297,62714,-115.13322379812598,60,2.216098452111085,0.022197167343801,10,62714,1000000,5.380064652363459,5.375727514425914,5.373883120218912
3,298,62762,-111.83209336362779,48,3.1151682984083893,0.02216353644616902,10,62762,1000000,4.667862249910831,4.692575991153717,4.6537428721785545
3,299,62810,-111.81212636549026,48,2.0161397479474545,0.02212547916488177,10,62810,1000000,4.645814454555511,4.650624561309814,4.652707490324974
3,300,62862,-112.94352767430246,52,3.4829166409373284,0.022104801713508003,10,62862,1000000,4.463131304979324,4.467966229915619,4.436238176226616
3,301,62914,-113.08896838407964,52,1.609770687520504,0.022062304135994845,10,62914,1000000,5.4829276752471925,5.4903404426574705,5.480629081726074
3,302,62976,-115.18490150291473,62,1.6121341640750566,0.02203684896281382,10,62976,1000000,4.115588464339575,4.1121292447050415,4.10804010728995
3,303,63031,-113.96722592785954,55,2.9060089281201362,0.021995804630482424,10,63031,1000000,4.813398306369781,4.814597735404968,4.811948515176773
3,304,63084,-113.09183171205223,53,3.3247584095597267,0.021965496394490486,10,63084,1000000,4.958031415939331,4.946582186222076,4.934040532112122
3,305,63149,-115.3426606003195,65,1.5890838916103045,0.02193917401215733,10,63149,1000000,4.394161887963613,4.440942231814066,4.432063004374504
3,306,63211,-114.71012368611991,62,2.7505269100268683,0.02189268514887508,10,63211,1000000,4.614643078049024,4.603646696110567,4.609748144447804
3,307,63271,-114.3900928394869,60,4.872622365007798,0.0218594108397762,10,63271,1000000,4.516209382315477,4.5025794113675754,4.471720636884371
3,308,63331,-113.8392779212445,60,3.1570817684133847,0.021821534053476557,10,63331,1000000,4.580476344625155,4.557414373755455,4.5537535637617115
3,309,63386,-113.66784976236522,55,2.2720420682430267,0.02179714362696316,10,63386,1000000,4.567348639965058,4.562831709384918,4.572200084924698
3,310,63442,-113.25079687125981,56,3.2187769749760626,0.021769912853867177,10,63442,1000000,4.417630909085274,4.425971151590347,4.4159307956695555
3,311,63505,-115.59491598792374,63,1.128116209556659,0.02173607623564047,10,63505,1000000,4.481234095493952,4.487702358265718,4.470639401177565
3,312,63567,-114.88616064563394,62,2.654885827501615,0.02170983524817813,10,63567,1000000,4.192929650346438,4.1991321504116055,4.186718342701594
3,313,65167,-95.56798366946168,1600,2.337291286820546,0.021686189951405168,10,65167,1000000,3.979319296842441,3.9790728037664667,3.9720976891741158
3,314,66767,-102.89372257899959,1600,2.4900566562544553,0.022469956000773065,10,66767,1000000,3.53494654070586,3.5339909525029363,3.526455255942419
3,315,68367,-109.47381593566388,1600,2.2067369695194063,0.022346108217174428,10,68367,1000000,3.3456982417963443,3.3457403249200435,3.339363471278921
3,316,69967,-106.5614187719766,1600,2.2188427508436144,0.022168067664131243,10,69967,1000000,3.6999362517893313,3.6995559673383833,3.6914923185668886
3,317,70038,-102.76345258858055,71,2.2358570358582903,0.022455562940447323,10,70038,1000000,4.210162382466453,4.205979043245316,4.193518021277019
3,318,71638,-104.83699563355185,1600,2.2443218903057276,0.022424001062927957,10,71638,1000000,4.583065031953156,4.577161984425038,4.575325890900567
3,319,71711,-103.87476132647134,73,3.169637990849359,0.02269122444289061,10,71711,1000000,5.097335609367915,5.12669665983745,5.090891769954136
3,320,73311,-108.43300372711383,1600,2.3363733648695053,0.022663037388674204,10,73311,1000000,5.62024605685845,5.62085613688454,5.61301548473537
3,321,73400,-99.74695937056094,89,2.048853603750467,0.022414402758793816,10,73400,1000000,6.006664857268333,5.995966991782188,5.999052137136459
3,322,75000,-97.26926100836135,1600,2.2463761382270606,0.022397607609647,10,75000,1000000,6.42313593625091,6.42468612591736,6.4164370174705985
3,323,76600,-37.372139195445925,1600,2.245593282058835,0.02233027364148601,10,76600,1000000,6.986426780335605,6.992295315414667,6.98356215570122
3,324,78200,-76.78796813567169,1600,2.4919901692681012,0.022789726706601704,10,78200,1000000,7.813080880120396,7.810507261455059,7.80043558448553
3,325,78290,-94.64760572090745,90,3.9423765376210214,0.02314703491663998,10,78290,1000000,8.362099928326076,8.359986458884345,8.359360837936402
3,326,79506,-165.819419703912,1216,2.830606955942536,0.023082996500564404,10,79506,1000000,8.592245237590852,8.59814119072985,8.584801000997055
3,327,81106,-113.73025215708185,1600,2.598136629490182,0.023328828461948902,10,81106,1000000,9.361915522068738,9.364498941898345,9.35715365037322
3,328,81169,-98.7793026342988,63,1.829936080177625,0.02306020369533182,10,81169,1000000,9.664186708132426,9.657524387041727,9.64926683108012
3,329,81226,-98.70636590197682,57,1.4679402497410774,0.022987825296560672,10,81226,1000000,10.300893421173095,10.288671627044678,10.29055404663086
3,330,81275,-101.76989581435919,49,1.9498857088387012,0.02293489988654319,10,81275,1000000,9.667473483085633,9.670705091953277,9.658671724796296
3,331,82875,-93.21231754194014,1600,2.772100054146722,0.022879099475707543,10,82875,1000000,10.314271408617497,10.315516178607941,10.306273493468762
3,332,84475,-84.21290455688722,1600,3.1934454105608165,0.022582168508055778,10,84475,1000000,10.8674716681242,10.872548861801624,10.863527254760266
3,333,84554,-94.9603192936629,79,2.253788410765784,0.022417052299078657,10,84554,1000000,11.06376485824585,11.065879494803292,11.061197457994734
3,334,86072,-144.41633315943182,1518,2.9246588533189124,0.02237701153664878,10,86072,1000000,11.455746225647578,11.462118548589038,11.447350423067611
3,335,87672,8.068194297491573,1600,3.082201778870076,0.02252633091106656,10,87672,1000000,11.95821155577898,11.953971428573132,11.942792142927647
3,336,89113,8.537740840110928,1441,3.490098863684883,0.022749316832504543,10,89113,1000000,12.562742301490571,12.568618951241175,12.552797659238179
3,337,89184,-110.68389181047678,71,2.031911338865757,0.02286159260862175,10,89184,1000000,12.712988553728376,12.701458263397218,12.696625859396798
3,338,89340,-120.7524967174977,156,3.546193775733312,0.02279796654419167,10,89340,1000000,13.19687053044637,13.193520342508952,13.17779130299886
3,339,89426,-104.60162897221744,86,4.46193555034697,0.022752803378163967,10,89426,1000000,13.756339764595031,13.754864478111267,13.744510900974273
3,340,91026,153.09707848960534,1600,3.2522479609586297,0.022696569886453515,10,91026,1000000,14.367270031571389,14.365205052495003,14.35419818520546
3,341,92626,104.94641055469401,1600,3.2692906918935476,0.02273102872178588,10,92626,1000000,15.792741075754165,15.792089052796364,15.780291457772256
3,342,92685,-108.07725746370852,59,2.8309075838327407,0.022797927126591115,10,92685,1000000,16.396955642700195,16.39619779586792,16.383759479522706
3,343,92739,-110.40497587621212,54,1.9191426783800125,0.022726895222114483,10,92739,1000000,17.021035060882568,17.022407722473144,17.014942741394044
3,344,94339,77.61899611802073,1600,3.6163284915778786,0.02268184059184614,10,94339,1000000,17.60027295291424,17.60066428184509,17.58778866827488
3,345,95645,16.90446540393168,1306,3.3862562377292376,0.022734527844949153,10,95645,1000000,18.44892207952646,18.449053636697624,18.43394785807683
3,346,95735,-123.57962562143803,90,4.3024296503927975,0.02272377299715809,10,95735,1000000,18.9310451719496,18.896527343326145,18.91785128911336
3,347,95792,-113.56836615409702,57,3.059544885754585,0.022671163836835324,10,95792,1000000,19.028427715301515,19.0223685836792,19.011142559051514
3,348,95840,-109.953260358423,48,2.6588642496615646,0.02262699240303985,10,95840,1000000,19.53112940788269,19.532510900497435,19.51680452823639
3,349,95906,-112.9866119492799,66,3.8945276508728663,0.02258644974201174,10,95906,1000000,19.553626855214436,19.556554492314657,19.526691055297853
3,350,95989,-123.63379820622504,83,5.466023586317897,0.022540601720093832,10,95989,1000000,19.688823652267455,19.675293278694152,19.65094542503357
3,351,97589,178.8411965451669,1600,3.5538029267080127,0.022499550714484565,10,97589,1000000,19.904238362312316,19.90339286327362,19.890736593008043
3,352,97644,-113.57128940336406,55,3.6168796461820603,0.022545911098422185,10,97644,1000000,19.838266944885255,19.85935171127319,19.82754123687744
3,353,97690,-110.87383074313402,46,2.104126772284508,0.022506146654421473,10,97690,1000000,20.118350648880003,20.11143045425415,20.112511348724365
3,354,97725,-107.90650211274624,35,5.69760704835256,0.02246390072920556,10,97725,1000000,20.22579174041748,20.24764986038208,20.22358945210775
3,355,97762,-108.3380848839879,37,2.7374094873666763,0.022422817974552603,10,97762,1000000,20.905726687113443,20.90692481994629,20.880675570170084
3,356,97824,-114.00061312317848,62,2.655806277692318,0.022382416491081396,10,97824,1000000,20.664455795288085,20.64788703918457,20.657555023829143
3,357,97861,-108.4309321641922,37,3.6420142124096553,0.02234534609763774,10,97861,1000000,20.51507434844971,20.48115259806315,20.489418919881185
3,358,97915,-111.14870486408472,54,4.1340104848146435,0.022300876687438492,10,97915,1000000,20.752034187316895,20.74287841796875,20.728779487609863
3,359,97952,-108.08775166422129,37,2.2077072193225225,0.02226570260371317,10,97952,1000000,20.821539942423502,20.765519777933758,20.784769376118977
3,360,98041,-123.59898671507835,89,4.321881491690874,0.022229407783955282,10,98041,1000000,20.680987787246703,20.689320182800294,20.660116028785705
3,361,98087,-110.50979068502784,46,4.913815148919821,0.02218903796064682,10,98087,1000000,20.54761199951172,20.598872327804564,20.51907572746277
3,362,98171,-122.36174722015858,84,2.797935230284929,0.02214946567889034,10,98171,1000000,20.52859492301941,20.53171637058258,20.534706687927248
3,363,98595,-114.6400541763287,424,3.1773867698652403,0.022109004556549124,10,98595,1000000,20.50974589075361,20.510385606402444,20.491354113533383
3,364,100195,50.648687946028076,1600,3.028131513046101,0.022078974933980346,10,100195,1000000,20.833318173885345,20.830517733693124,20.82451385438442
3,365,100254,-109.21030368842185,59,4.652066110372544,0.022257814464101352,10,100254,1000000,20.87817132949829,20.883273601531982,20.870427322387695
3,366,100327,-113.040771484375,73,3.6900162232773646,0.022215013874524795,10,100327,1000000,21.125252750941684,21.134052807944162,21.103913007463728
3,367,100388,-108.39371472597122,61,8.540091845393182,0.022176579847131544,10,100388,1000000,21.10463177363078,21.133779271443686,21.087138621012368
3,368,100491,-114.12690620167996,103,3.378573718369007,0.02214365072475531,10,100491,1000000,21.335173416137696,21.327047748565676,21.31929458618164
3,369,100641,-116.14920314401388,150,3.812225371003151,0.022102541643746046,10,100641,1000000,20.938787492116294,20.920432421366375,20.914763774871826
3,370,100757,-108.11512478254735,116,3.1974806040525436,0.02207656875663485,10,100757,1000000,20.959821146184748,20.96360626220703,20.958362024480646
3,371,100862,-117.9869491327554,105,4.616116573661566,0.022044490834822888,10,100862,1000000,21.185932483673096,21.202660102844238,21.176116828918456
3,372,100900,-107.78326784819365,38,3.225886724392573,0.022007578407573034,10,100900,1000000,21.142735354105632,21.106183815002442,21.11678301493327
3,373,100934,-107.29391492158175,34,1.5783104181289673,0.021975305015236996,10,100934,1000000,21.199769973754883,21.203061612447105,21.179904619852703
3,374,101039,-116.64922554604709,105,3.2254078206419945,0.02195008319539417,10,101039,1000000,20.756854820251466,20.75152618408203,20.751322383880616
3,375,101094,-109.84226096048951,55,4.408446664810181,0.021911693787022592,10,101094,1000000,21.028243255615234,21.02704448699951,21.002533149719238
3,376,101153,-111.9368846938014,59,4.795335069298744,0.021881730304069678,10,101153,1000000,21.13739589691162,21.138462677001954,21.090398864746092
3,377,101212,-110.96847755089402,59,2.790888311266899,0.02185722959899827,10,101212,1000000,20.56453317642212,20.57251293182373,20.559140300750734
3,378,101264,-109.29267824441195,52,4.178767284154892,0.021818907387271713,10,101264,1000000,21.254839630126952,21.278657569885254,21.243413391113283
3,379,101318,-109.09223025850952,54,6.028295748829842,0.02178959754040221,10,101318,1000000,21.00202739715576,20.980304412841797,20.98979190826416
3,380,101369,-109.21316372603178,51,3.9231241101026537,0.02175315631089834,10,101369,1000000,20.805355339050294,20.84134817123413,20.808716373443602
3,381,101465,-121.43289842270315,96,1.784827043281661,0.021720949104566616,10,101465,1000000,20.810439364115396,20.803674528333875,20.81492413414849
3,382,101528,-109.8609018465504,63,3.7537579879164698,0.0216989682629855,10,101528,1000000,21.04467363357544,21.066964276631673,21.060952154795327
3,383,101583,-110.0395965129137,55,1.8898878526687621,0.021668216070906583,10,101583,1000000,20.55023166656494,20.559804725646973,20.546741676330566
3,384,101638,-109.38738586008549,55,1.6979325550794602,0.02163861292188592,10,101638,1000000,20.908830909729005,20.908210906982422,20.91934232711792
3,385,101714,-114.23031834326684,76,2.002445745042392,0.021609535463479615,10,101714,1000000,20.792545209612165,20.790130519866942,20.786344732557023
3,386,101770,-109.61280617490411,56,8.503601576089858,0.0215820850737199,10,101770,1000000,20.699046821594237,20.695472259521484,20.660012664794923
3,387,101826,-111.02416870370507,56,1.4231212216615676,0.021550362679316006,10,101826,1000000,20.927695121765137,20.925159797668456,20.912187156677245
3,388,101881,-109.92566074430943,55,1.4451288384199144,0.021525630547245142,10,101881,1000000,20.786011352539063,20.792989120483398,20.79237075805664
3,389,101937,-110.58678616955876,56,2.532742287516594,0.021495108988283062,10,101937,1000000,21.016620540618895,21.005209655761718,21.004120082855223
3,390,102005,-111.90423341467977,68,1.7588953346014022,0.021467114891544906,10,102005,1000000,21.32688422203064,21.325576734542846,21.333671553929648
3,391,102055,-108.53186492435634,50,2.7966548734903336,0.021435037799104675,10,102055,1000000,21.04526149749756,21.049260940551758,21.045855407714843
3,392,102105,-108.52742013707757,50,1.8033814215660096,0.021403728807547834,10,102105,1000000,20.3767919921875,20.376665954589843,20.3811483001709
3,393,102155,-109.7545924372971,50,3.5306726890802382,0.021374742378647654,10,102155,1000000,21.309754066467285,21.284789962768556,21.29426025390625
3,394,102205,-109.51301427185535,50,3.8423846977949143,0.021356092154537775,10,102205,1000000,20.41000156402588,20.406878089904787,20.400815620422364
3,395,102258,-110.84824927896261,53,4.497504159212112,0.02132121643647489,10,102258,1000000,20.499870891571046,20.514425525665285,20.487010803222656
3,396,102309,-110.86980954743922,51,1.8323506265878677,0.021292014325577563,10,102309,1000000,20.85005153656006,20.85140510559082,20.84621967315674
3,397,102358,-109.68334756232798,49,1.5703257024288177,0.021258094636980154,10,102358,1000000,20.413629484176635,20.443286848068237,20.44851174354553
3,398,102407,-110.24747862294316,49,1.618352723866701,0.02123481637441126,10,102407,1000000,20.88139533996582,20.869842052459717,20.866459608078003
3,399,102452,-108.87482387945056,45,1.850994771718979,0.02120962989826997,10,102452,1000000,20.53305869102478,20.52509264945984,20.5360013961792
3,400,102499,-109.31898092105985,47,1.5702514976263047,0.021184044723709425,10,102499,1000000,20.484930515289307,20.491997504234313,20.483279705047607
3,401,102548,-108.89330622367561,49,1.808672482520342,0.021157703031475347,10,102548,1000000,20.408265018463133,20.405788087844847,20.412742328643798
3,402,102596,-109.2177984714508,48,1.8638812445104123,0.02112935608314971,10,102596,1000000,20.20942187309265,20.1991539478302,20.211737632751465
3,403,102642,-109.22272761911154,46,4.359207715839148,0.021103280447423458,10,102642,1000000,20.613856935501097,20.603043508529662,20.599583768844603
3,404,102685,-109.03219414129853,43,2.753308828920126,0.021082464426911127,10,102685,1000000,20.20816011428833,20.206276178359985,20.20085391998291
3,405,102731,-110.11657760478556,46,3.2635937586426733,0.02106194217237996,10,102731,1000000,20.382981395721437,20.394840288162232,20.376074504852294
3,406,102781,-111.8478362262249,50,2.854765975475311,0.0210385658424456,10,102781,1000000,20.798832893371582,20.79204605102539,20.773961067199707
3,407,102826,-110.562962802127,45,1.638342446833849,0.021009457424741335,10,102826,1000000,20.513349771499634,20.518551635742188,20.518695878982545
3,408,102873,-110.67120047472417,47,2.657767203450203,0.020992535575666927,10,102873,1000000,20.96928505897522,20.970838880538942,20.96151132583618
3,409,102921,-110.90393418632448,48,1.8067728295922278,0.02096608413440653,10,102921,1000000,20.233795356750488,20.239601182937623,20.22032685279846
3,410,102969,-109.98431372269988,48,1.8482604451477527,0.020941136826361045,10,102969,1000000,20.74085865020752,20.745666170120238,20.740081000328065
3,411,103019,-110.26948072016239,50,4.233840468525886,0.020923447319202954,10,103019,1000000,20.498109302520753,20.475717029571534,20.465806732177736
3,412,103060,-109.39746971800923,41,1.4264821909368037,0.020895657044484792,10,103060,1000000,20.54821381568909,20.551642656326294,20.552781581878662
3,413,103107,-110.33168098330498,47,3.5011059388518335,0.020879989880358007,10,103107,1000000,20.52197847366333,20.498257684707642,20.504009628295897
3,414,103157,-110.34812738746405,50,5.845028063058853,0.02086012232399995,10,103157,1000000,19.952839107513427,19.959214630126954,19.992551231384276
3,415,103203,-109.0160956159234,46,1.625575729459524,0.02082591110046576,10,103203,1000000,20.204433298110963,20.179037046432494,20.172201728820802
3,416,103256,-114.06343016587198,53,1.7360158395767211,0.020809355568421145,10,103256,1000000,19.942432403564453,19.962451362609862,19.958547554016114
3,417,103297,-109.20183921605349,41,1.4157634891569615,0.020784601449313194,10,103297,1000000,20.149566841125488,20.167538738250734,20.154913473129273
3,418,103341,-109.78220475837588,44,1.9075274899601937,0.020764561767194566,10,103341,1000000,20.119749546051025,20.100073480606078,20.104748821258546
3,419,103385,-111.67009064741433,44,5.378494302183389,0.02075083320166968,10,103385,1000000,20.211665678024293,20.21296501159668,20.186932468414305
3,420,103433,-111.07585954852402,48,4.671094705909491,0.020731351751837237,10,103433,1000000,20.429696464538573,20.412544536590577,20.410817861557007
3,421,103479,-111.11110550165176,46,4.936854001879692,0.020706662197409832,10,103479,1000000,19.574306869506835,19.571206951141356,19.586896324157713
3,422,103527,-112.48843258619308,48,3.1915940456092358,0.020684305919186755,10,103527,1000000,20.11431486606598,20.134446573257446,20.10854594707489
3,423,103577,-112.69274990819395,50,2.2080379736423494,0.020657221958496095,10,103577,1000000,19.831502952575683,19.838167114257814,19.834377059936525
3,424,103618,-109.0473301038146,41,1.622957918792963,0.020634973290600742,10,103618,1000000,19.679408574104308,19.685127711296083,19.654863691329957
3,425,103659,-110.06958804093301,41,3.3748206794261932,0.02061329135492985,10,103659,1000000,20.301139879226685,20.29959921836853,20.271357679367064
3,426,103702,-109.30220179073513,43,1.7999305464327335,0.020596041409882776,10,103702,1000000,19.63352448940277,19.608759260177614,19.638701677322388
3,427,103748,-110.18435648456216,46,2.009192617237568,0.02057781356996224,10,103748,1000000,20.161374664306642,20.166331386566164,20.15795831680298
3,428,103794,-111.0837877439335,46,1.8379757769405842,0.02055364007827799,10,103794,1000000,20.058315801620484,20.029981088638305,20.037172937393187
3,429,103842,-111.14415237400681,48,3.9360128179192544,0.02053353880106667,10,103842,1000000,20.69227261543274,20.688453435897827,20.696266841888427
3,430,103893,-114.0802416279912,51,2.5599007803201674,0.02051045819825719,10,103893,1000000,19.93692684173584,19.927396240234376,19.901468925476074
3,431,103942,-113.15782095771283,49,3.4069393619894983,0.020495824800811923,10,103942,1000000,20.669583082199097,20.68106880187988,20.68385543823242
3,432,103986,-109.19288213457912,44,1.616855939477682,0.020474404565629066,10,103986,1000000,20.429889130592347,20.43817219734192,20.42767481803894
3,433,104026,-106.64858176931739,40,4.3402515597641464,0.02046040763301631,10,104026,1000000,20.491042017936707,20.470371222496034,20.443658924102785
3,434,104070,-110.82963733840734,44,1.739851278811693,0.020435192470694166,10,104070,1000000,20.05049548149109,20.042443490028383,20.05411422252655
3,435,104112,-109.51104227732867,42,4.435462055355311,0.020417348907156335,10,104112,1000000,19.80587854385376,19.807929110527038,19.77759985923767
3,436,104155,-109.39387885853648,43,1.4771788440644742,0.0204080889383805,10,104155,1000000,20.800007772445678,20.79221875667572,20.801225996017457
3,437,104208,-113.75851703435183,53,1.64354039311409,0.020381717754096675,10,104208,1000000,20.059519577026368,20.063747787475585,20.06670778274536
3,438,104251,-110.73734610155225,43,1.5783082023262978,0.02036493353264972,10,104251,1000000,20.353584575653077,20.353303217887877,20.3338876247406
3,439,104296,-111.88724197819829,45,3.450806994736195,0.020354064769377775,10,104296,1000000,19.95908145904541,19.944379472732543,19.948433303833006
3,440,104347,-113.50782524980605,51,3.6358275032043457,0.02033316478740354,10,104347,1000000,19.999841346740723,19.992977561950685,19.990448608398438
3,441,104389,-107.99391981586814,42,1.7735235027968883,0.02031957980696902,10,104389,1000000,20.40886812210083,20.391000747680664,20.39893651008606
3,442,104429,-109.64374807476997,40,2.1096042692661285,0.020302190942221444,10,104429,1000000,19.24693629741669,19.230011582374573,19.227523922920227
3,443,104473,-110.55117089208215,44,3.0555739708244802,0.020282077517766235,10,104473,1000000,20.03042788505554,20.02559585571289,20.029896640777586
3,444,104513,-108.27974418923259,40,3.0993579305708407,0.020266484889792265,10,104513,1000000,19.250889945030213,19.245815134048463,19.240654706954956
3,445,104561,-112.98660411313176,48,1.7955195866525173,0.020243756935986526,10,104561,1000000,19.526710200309754,19.525072979927064,19.522457814216615
3,446,104607,-107.94238165766001,46,5.798778608441353,0.020229698520220718,10,104607,1000000,19.941184043884277,19.92922263145447,19.903253030776977
3,447,104650,-110.90947136189789,43,1.7877944864332675,0.020210621859786997,10,104650,1000000,20.136676931381224,20.129379177093504,20.136203813552857
3,448,104694,-110.19487557373941,44,2.1921354472637176,0.020195776100568715,10,104694,1000000,19.405641078948975,19.405467796325684,19.403020238876344
3,449,104741,-110.55263414233923,47,2.9584441274404525,0.020176164364880497,10,104741,1000000,19.691201996803283,19.70980923175812,19.70188443660736
3,450,104784,-110.8194126188755,43,1.5488325342535973,0.020162689048241287,10,104784,1000000,19.6419056892395,19.64137179851532,19.63745584487915
3,451,104829,-110.2881792197004,45,2.8216541565954687,0.02014740122119367,10,104829,1000000,19.283423733711242,19.2873854637146,19.27943389415741
3,452,104874,-110.65321529563516,45,1.8600356444716453,0.02013480746291256,10,104874,1000000,19.724170207977295,19.72566361427307,19.732961225509644
3,453,104921,-111.24836119450629,47,1.694670593738556,0.020117834633779457,10,104921,1000000,19.44422059059143,19.438475251197815,19.433839631080627
3,454,104966,-111.51376286149025,45,1.5158138953149318,0.02010856530178997,10,104966,1000000,20.4285786151886,20.431632328033448,20.42836904525757
3,455,105011,-111.01358689460903,45,2.5222910925745965,0.020088352756499034,10,105011,1000000,19.687324571609498,19.680074977874757,19.67704846858978
3,456,105059,-111.94427903881297,48,1.5126742154359818,0.020077726865050997,10,105059,1000000,19.268898916244506,19.26578483581543,19.258169651031494
3,457,105106,-111.38773018307984,47,1.6539703339338303,0.020064289017421442,10,105106,1000000,19.801893448829652,19.80438129901886,19.793419933319093
3,458,105158,-110.01680183783174,52,1.4268648159503936,0.02005233024405997,10,105158,1000000,19.405265941619874,19.40256383895874,19.40483165740967
3,459,105211,-113.47888905159198,53,4.184540994167328,0.020030933273729026,10,105211,1000000,19.272987136840822,19.275658626556396,19.264073791503908
3,460,105263,-109.80817350372672,52,1.5155014276504517,0.020024359733381163,10,105263,1000000,19.239037742614745,19.22930145263672,19.21773784637451
3,461,105309,-110.45635467814282,46,2.971048352867365,0.020005029552168267,10,105309,1000000,19.0530921459198,19.029363250732423,19.051270723342896
3,462,105352,-107.09227081388235,43,1.546391247957945,0.019990516008940636,10,105352,1000000,19.386577939987184,19.410650515556334,19.397911524772645
3,463,105402,-110.9102752553299,50,2.5480533874034883,0.01998202768105346,10,105402,1000000,19.655212078094483,19.63996461868286,19.635415649414064
3,464,105445,-107.72923163697124,43,1.7012953095138073,0.019971664469698194,10,105445,1000000,19.69404525756836,19.696961164474487,19.6964159488678
3,465,105484,-106.70761189609766,39,3.4967767824729283,0.019960098255906084,10,105484,1000000,19.823706245422365,19.806057357788085,19.815169938405354
3,466,105529,-109.83927584439516,45,2.996247851848602,0.019947377920548605,10,105529,1000000,19.118828678131102,19.147218656539916,19.107448148727418
3,467,105588,-110.33771152608097,59,2.7428965920209887,0.01992757441596547,10,105588,1000000,19.62749366760254,19.635397453308105,19.62543352127075
3,468,105629,-106.84646145254374,41,2.7904284972697497,0.019922283201095646,10,105629,1000000,19.27880346775055,19.278427839279175,19.27356104850769
3,469,105676,-111.54209345579147,47,1.641788350045681,0.01991375159264262,10,105676,1000000,19.32995672225952,19.336321592330933,19.330294919013976
3,470,105727,-110.51366360858083,51,1.66862164914608,0.019900122886782806,10,105727,1000000,19.261323928833008,19.246850242614745,19.239670696258546
3,471,105778,-112.33809497952461,51,2.811688094139099,0.019880355743414038,10,105778,1000000,18.937887763977052,18.931876430511476,18.935096530914308
3,472,105830,-109.90441852807999,52,2.853900067806244,0.019866655445097674,10,105830,1000000,19.146483612060546,19.151902713775634,19.15076650619507
3,473,105893,-115.91208654642105,63,2.7194127226869265,0.019851463370752775,10,105893,1000000,19.15476369857788,19.167316484451295,19.152058601379395
3,474,105950,-110.48571169748902,57,4.922247515916824,0.01983899697105162,10,105950,1000000,19.204498653411864,19.194586353302,19.153542938232423
3,475,105993,-106.94825024157763,43,4.505306381732225,0.019829798564976315,10,105993,1000000,19.10547330379486,19.09372408390045,19.104865026474
3,476,106051,-110.44095185399055,58,4.317773670554161,0.019814553825055727,10,106051,1000000,19.187580318450927,19.18114305496216,19.172922954559326
3,477,106098,-111.65500869974494,47,1.3811181053519248,0.019802616232625192,10,106098,1000000,19.27373058795929,19.280589842796324,19.274879693984985
3,478,106143,-110.12581841601059,45,3.4734482154250146,0.019786472546143664,10,106143,1000000,18.87530686855316,18.854118084907533,18.862718725204466
3,479,106183,-110.02395796403289,40,1.4480037584900856,0.01976826075245529,10,106183,1000000,19.497767877578735,19.51356852054596,19.504196691513062
3,480,106225,-110.14416421018541,42,3.0955230168998242,0.019747840458056297,10,106225,1000000,19.29354305267334,19.266095924377442,19.287108278274538
3,481,106283,-115.3855481557548,58,1.6719744473695755,0.019742389534406615,10,106283,1000000,19.083878803253175,19.07822063446045,19.07261344909668
3,482,106337,-112.90602855035104,54,2.4040939354896547,0.019730183137318936,10,106337,1000000,18.90077907562256,18.902713661193847,18.89055374145508
3,483,106380,-111.46683811862022,43,1.3597674176096917,0.01971118622605341,10,106380,1000000,19.074518299102785,19.07336370944977,19.07929711341858
3,484,106422,-110.99161288235337,42,1.695130854099989,0.019698188776472007,10,106422,1000000,19.634950137138368,19.64322452545166,19.65953423976898
3,485,106486,-114.75053373165429,64,3.112690947453181,0.019687832312202117,10,106486,1000000,18.883685557047524,18.898380947113036,18.86864463488261
3,486,106539,-114.40514826681465,53,2.3254265147447586,0.019676079259639285,10,106539,1000000,19.180633811950685,19.16338394165039,19.16748462677002
3,487,106596,-114.10056980326772,57,2.5485253423452376,0.019658144894473924,10,106596,1000000,18.843161277770996,18.86754611968994,18.832133026123046
3,488,106650,-114.44132154248655,54,1.5160692167282104,0.019642330472691892,10,106650,1000000,18.637512607574465,18.63702028274536,18.65401439666748
3,489,106697,-111.0781664531678,47,2.8322686180472374,0.01963045988799049,10,106697,1000000,19.17548625469208,19.173766875267027,19.172524452209473
3,490,106757,-118.96846716571599,60,3.8458713417251906,0.019611575166270948,10,106757,1000000,18.71461073557536,18.71275321642558,18.703098996480307
3,491,106807,-113.2171790767461,50,5.429143531918526,0.01961434955472688,10,106807,1000000,18.797561264038087,18.799256496429443,18.770482692718506
3,492,106862,-113.35308698611334,55,2.641045104265213,0.019599448304941994,10,106862,1000000,18.811989498138427,18.803363075256346,18.79013338088989
3,493,106918,-114.89721944741905,56,2.5115584790706635,0.019585331239187414,10,106918,1000000,18.990495319366456,18.99642618179321,18.988088245391847
3,494,106965,-110.44071390200406,47,5.4482890166342255,0.0195683421952714,10,106965,1000000,18.68031895160675,18.653766298294066,18.653868079185486
3,495,107022,-115.54515212774277,57,3.7845160961151123,0.019555064399900148,10,107022,1000000,18.538622722625732,18.528136291503905,18.516299343109132
3,496,107077,-115.16007794998586,55,1.5269944334030152,0.01955188232380451,10,107077,1000000,18.178049125671386,18.17656240463257,18.187956714630126
3,497,107124,-109.84706573234871,47,1.7186720430850984,0.019536296585411356,10,107124,1000000,18.825280332565306,18.834021759033202,18.823982620239256
3,498,107179,-114.47105247713625,55,2.8238083690404894,0.019519608287939853,10,107179,1000000,17.912124881744386,17.894902324676515,17.915890731811523
3,499,107222,-110.26320846565068,43,5.1138846285641195,0.019510967639591276,10,107222,1000000,18.077106833457947,18.069238829612733,18.053995728492737
3,500,107262,-109.46953873895109,40,1.6426123902201653,0.019500431958942466,10,107262,1000000,18.51159539222717,18.492979836463928,18.485781860351562
3,501,107319,-114.44143342692405,57,2.640919836163521,0.019488584732211996,10,107319,1000000,18.667457618713378,18.678489933013918,18.654482231140136
3,502,107377,-113.90237064938992,58,2.7387413239479064,0.019469305168757292,10,107377,1000000,18.54707317352295,18.540918006896973,18.53340166091919
3,503,107434,-114.38889257702976,57,1.696977756023407,0.019452742796892103,10,107434,1000000,18.649898624420167,18.642175941467286,18.651739521026613
3,504,107488,-113.92040660977364,54,1.5118052124977113,0.019434397885473645,10,107488,1000000,18.341374855041504,18.341066436767576,18.343428897857667
3,505,107542,-112.71605311986059,54,1.4243818402290345,0.0194284904718565,10,107542,1000000,18.132937831878664,18.1117342376709,18.128383598327638
3,506,107584,-109.91854115575552,42,1.5138571687042712,0.019399801183137156,10,107584,1000000,18.09459991455078,18.095539927482605,18.064126563072204
3,507,107665,-117.16566683491692,81,1.4434922067448497,0.019392475999211744,10,107665,1000000,18.32302757501602,18.3158597946167,18.315042233467103
3,508,107719,-115.07519529480487,54,4.727596903443336,0.019384896913247684,10,107719,1000000,18.02040090560913,17.982767868041993,17.98188995361328
3,509,107788,-124.86627745069563,69,3.5202030037840206,0.019366731041569323,10,107788,1000000,18.47761189142863,18.488855600357056,18.480030870437623
3,510,107844,-116.36333497357555,56,4.765916795730591,0.01937423747855807,10,107844,1000000,17.98498628616333,17.992690105438232,17.960684299468994
3,511,107912,-124.31396343559027,68,2.7319450507561367,0.019356697710763343,10,107912,1000000,17.798193566004436,17.78417461713155,17.79816460609436
3,512,107980,-117.54931641370058,68,1.6173149282733599,0.019341124116530845,10,107980,1000000,18.222396993637084,18.219377168019612,18.219215854008993
3,513,108051,-118.61491328198463,71,2.4556248260395868,0.01931795036126745,10,108051,1000000,17.513632924216136,17.523816844395228,17.516345855167934
3,514,108190,-129.71315118763596,139,2.9722308789308256,0.019308219771349645,10,108190,1000000,17.769200266324557,17.756126535855806,17.75973764566275
3,515,108280,-124.02981493575498,90,2.0702978601058324,0.019294518874266656,10,108280,1000000,17.588841470082603,17.593317582872178,17.587752532958984
3,516,108340,-116.84273312054574,60,1.962994776169459,0.019274423610989893,10,108340,1000000,17.768378973007202,17.756450160344443,17.77070077260335
3,517,108590,-108.37752799759619,250,3.163821881532669,0.01926556024979286,10,108590,1000000,17.351783477783204,17.352807060241698,17.346586616516113
3,518,108678,-125.41554163768888,88,2.640200304985046,0.019262060486717417,10,108678,1000000,17.262116503715514,17.262713813781737,17.25138795375824
3,519,108782,-123.50987442489713,104,2.6406893262267115,0.019244740200639005,10,108782,1000000,17.514423532485964,17.509033298492433,17.504585399627686
3,520,108910,-130.05872499383986,128,1.9311684280633927,0.019234796401124986,10,108910,1000000,17.357464702924094,17.355960472424826,17.35897274017334
3,521,109062,-134.3154536569491,152,2.3269095037380856,0.01922374798079916,10,109062,1000000,17.21818049112956,17.211375261942546,17.209163500467938
3,522,109220,-135.07250445429236,158,2.5235387452443443,0.019200649578124285,10,109220,1000000,16.992651596069337,17.003061389923097,16.994035886128742
3,523,109406,-133.77766054309905,186,2.681869503690137,0.01919627860479978,10,109406,1000000,17.28461462126838,17.28533229298062,17.28530110253228
3,524,109550,-132.15132430195808,144,4.728693005016872,0.019196628461316357,10,109550,1000000,17.245628690719606,17.24675429889134,17.232859591075353
3,525,109694,-132.7632349487394,144,3.192549710614341,0.019182055636187672,10,109694,1000000,16.96540057999747,16.956529903411866,16.949995865140643
3,526,109986,-144.84444182086736,292,2.51206464099473,0.01918206362001528,10,109986,1000000,16.960204417130043,16.963213664087757,16.957871127950735
3,527,110130,-132.81095533072948,144,2.575970749557018,0.019202536877270762,10,110130,1000000,16.802354390280588,16.822296476364137,16.80402957371303
3,528,110344,-136.28183591738343,214,3.4588801032020933,0.019188675731420517,10,110344,1000000,16.894112455277217,16.885379051026845,16.881646179017565
3,529,110826,-156.8748003123328,482,2.5661870033790666,0.019188953767842503,10,110826,1000000,16.58194133043289,16.582004646460216,16.57629801630974
3,530,111405,-167.23671891749837,579,2.8657790071347304,0.019221819796093543,10,111405,1000000,16.286031437756723,16.286129819301138,16.280164107941744
3,531,111588,-129.16144466772676,183,2.050560104846954,0.01925330693523089,10,111588,1000000,15.945062520768907,15.945219532648723,15.938247940275405
3,532,112155,-138.81011320278049,567,3.208834549944316,0.019244388968066465,10,112155,1000000,16.024753381524768,16.028252851963043,16.021927264758517
3,533,112440,-97.45244286349043,285,2.832309030209269,0.01925728738271097,10,112440,1000000,15.856014588900974,15.852393647602627,15.846444385392326
3,534,113740,-199.9433345226571,1300,2.5068854640768126,0.019275165959095175,10,113740,1000000,15.688592616594756,15.689542420460628,15.684818136508648
3,535,114335,-107.72275516740046,595,2.076616415532969,0.019470445714980453,10,114335,1000000,15.449105875370867,15.445777954489499,15.442191301766089
3,536,114550,-119.6261958219111,215,3.182998633810452,0.01946238800744082,10,114550,1000000,15.23497641881307,15.240175029209682,15.229129187266032
3,537,114968,-101.40423910412937,418,2.0189687856450313,0.019437853370409108,10,114968,1000000,15.565252597157547,15.569243158945223,15.560618074928842
3,538,116055,-60.95447853952646,1087,2.395937863806332,0.019441546470966707,10,116055,1000000,15.193431483816218,15.189672260814243,15.188172728044016
3,539,116151,-110.06877768784761,96,2.183928162521786,0.0194482364778827,10,116151,1000000,15.148375500573053,15.12085051006741,15.129592778947618
3,540,116237,-114.68119217082858,86,3.714576317742467,0.019423453829157344,10,116237,1000000,15.225812542438508,15.22225171327591,15.205851709842682
3,541,116620,-37.97537751030177,383,2.5025677818216776,0.019393482120644723,10,116620,1000000,15.152667391927618,15.157734158164576,15.148765187514456
3,542,116705,-114.01246571354568,85,2.893890317156911,0.019385422039299438,10,116705,1000000,15.178018510341644,15.200529980659486,15.173370063304901
3,543,116804,-119.28174233995378,99,3.672797264324294,0.019357754227879283,10,116804,1000000,15.560743056403266,15.552120293511285,15.544453758663602
3,544,116893,-113.12621375080198,89,1.8554364452138543,0.019340794626351077,10,116893,1000000,15.335789501667023,15.32714581489563,15.33713915348053
3,545,116970,-107.82308985851705,77,3.8281356266566684,0.01931836836105376,10,116970,1000000,14.86479422705514,14.886886637551443,14.841851139068604
3,546,117078,-115.55379714420997,108,2.777434768974781,0.019304155999772817,10,117078,1000000,15.554385814666748,15.554609937667847,15.54637840270996
3,547,117301,-96.502124147024,223,1.9935209094123407,0.019282986039471053,10,117301,1000000,15.5924758347598,15.595120586048473,15.592663049697876
3,548,117368,-105.9609601572156,67,2.192210239171982,0.019268608071842656,10,117368,1000000,15.213263479868571,15.22210790316264,15.21906722386678
3,549,117452,-112.63730373606086,84,2.2383023358881475,0.01924231978054694,10,117452,1000000,15.66211894750595,15.657716155052185,15.659790933132172
3,550,117634,-118.28092536143959,182,2.653466637349791,0.019231036122145436,10,117634,1000000,15.337356758117675,15.34409319029914,15.33184265030755
3,551,117928,-107.67538194614463,294,2.3863516189414877,0.019214422395351406,10,117928,1000000,15.470817602091822,15.477976433984164,15.470788238788472
3,552,118236,-95.06570735224523,308,2.6294635775188606,0.01920067742736875,10,118236,1000000,15.167468039194743,15.162936550776164,15.163044214248657
3,553,118434,-112.43681110721081,198,2.774401081706348,0.019193856297592838,10,118434,1000000,15.339316227561548,15.351843567898399,15.337280604713841
3,554,118894,-105.19885879056528,460,2.545940614718458,0.01917860178763388,10,118894,1000000,15.250103556591531,15.248773012990537,15.244422429540883
3,555,119087,-104.47084217052907,193,3.2746866089733024,0.019186693918222197,10,119087,1000000,15.244199436589291,15.241977551108912,15.228058699557655
3,556,120687,-74.61430378770456,1600,2.404568864153698,0.019164305961553982,10,120687,1000000,14.7427354824543,14.7423778039217,14.736728185415268
3,557,122287,150.83626220852602,1600,2.4933922793436794,0.019064032066526432,10,122287,1000000,14.468033351898193,14.47210826933384,14.465237480700017
3,558,123887,129.14904850564199,1600,2.4576792366057636,0.019170291814107024,10,123887,1000000,14.177271963953972,14.177146097421646,14.168000579476356
3,559,125487,134.99043005891144,1600,2.2895596618391574,0.01934350940049867,10,125487,1000000,13.973497782349586,13.973676857054233,13.967412956655025
3,560,127087,16.886011869995855,1600,2.3263976602163168,0.01949588931387379,10,127087,1000000,13.894433182775975,13.898882917165757,13.891090793013573
3,561,128499,37.40751464664936,1412,2.2048250866908554,0.019678131485187638,10,128499,1000000,13.79294934543312,13.791234308269852,13.7890027384386
3,562,130099,37.17423024540767,1600,2.483983973264694,0.01980964686233285,10,130099,1000000,14.052775206565856,14.056442187726498,14.0462451505661
3,563,131699,120.50984382489696,1600,2.148462066529319,0.019984125393855915,10,131699,1000000,14.045602011084556,14.047571266293525,14.03980419933796
3,564,133299,187.65453680837527,1600,2.125986965969205,0.020124978389368716,10,133299,1000000,14.213113677501678,14.216829301118851,14.207885057330131
3,565,134899,132.42320435494184,1600,2.045947536174208,0.02024899816319633,10,134899,1000000,14.41766753077507,14.41709609746933,14.410439479351044
3,566,136499,-23.16967691190075,1600,2.0900411206576974,0.020377876341616776,10,136499,1000000,14.647062894105911,14.646075865626335,14.639914892315865
3,567,138099,-19.08409459143877,1600,2.2798817354626952,0.02046964167174024,10,138099,1000000,14.745797237753868,14.747549964785575,14.737340291142464
3,568,139699,-108.56345361203421,1600,2.50023418600671,0.02049225558404135,10,139699,1000000,14.877010416388512,14.87603759586811,14.86507292509079
3,569,141299,-105.7623221745016,1600,2.5426231540320443,0.020494521540512733,10,141299,1000000,14.924481362700462,14.9299110019207,14.917350617051124
3,570,142899,-88.4596331641078,1600,2.706817369442433,0.02046771016506015,10,142899,1000000,15.099193034172059,15.100791684985161,15.08572605073452
3,571,144499,-113.88475560676306,1600,2.669528031470254,0.020547417227819723,10,144499,1000000,15.200026419758796,15.200379029512405,15.184471517205239
3,572,146099,-121.74511233880185,1600,2.4302069882676007,0.020556123773886627,10,146099,1000000,15.280528935194015,15.279827312231063,15.267155016064644
3,573,147699,-132.7566557440441,1600,2.9293511652294546,0.0205491499035287,10,147699,1000000,15.340897879600526,15.340022563934326,15.326202253103256
3,574,149299,-135.1622014157474,1600,2.527460296386853,0.020594847595202737,10,149299,1000000,15.569242585897445,15.568559475541115,15.55629079401493
3,575,150899,-147.48461346677504,1600,2.8870083010429517,0.020660109982733696,10,150899,1000000,15.72404922068119,15.725055385828018,15.710469814538955
3,576,152499,-146.30803125724196,1600,2.6505000303639097,0.020738754384050987,10,152499,1000000,15.976193749308585,15.975732602477073,15.965825679898263
3,577,154099,-110.12330165831372,1600,2.2923030232824386,0.02090404297290396,10,154099,1000000,16.235782388448715,16.23470330119133,16.223821610212326
3,578,155699,-98.10334919969318,1600,2.90295799031388,0.02107973280535826,10,155699,1000000,16.57822654187679,16.58112087905407,16.566667788624763
3,579,157299,-95.46421587455552,1600,3.018538830974139,0.021225198590208924,10,157299,1000000,16.948548250198364,16.94635561943054,16.934433562159537
3,580,158899,-72.16438615182415,1600,2.8861779180448504,0.021293279505966798,10,158899,1000000,17.454032386541368,17.455634118914602,17.44270386636257
3,581,160499,-57.7557395248441,1600,3.0697552788443865,0.021372956647387434,10,160499,1000000,17.900975159406663,17.902301647663116,17.883178538680077
3,582,162099,-85.12657914310694,1600,3.2057008794462307,0.021510882287646253,10,162099,1000000,18.346217325329782,18.343641347289086,18.327095277309418
3,583,163699,-73.52789790090173,1600,2.9333033437933773,0.02159543307846301,10,163699,1000000,18.658041479587556,18.656000462174415,18.64229753255844
3,584,165299,88.97839804296382,1600,2.7676823591673747,0.02174477478334788,10,165299,1000000,18.958716844320296,18.960539435148238,18.945037281513216
3,585,166279,-31.916638874914497,980,2.9355178415243115,0.021933821151538413,10,166279,1000000,19.267074143156712,19.263918622659176,19.24921389599236
3,586,166758,-76.51918825600296,479,3.859300555716804,0.022017566788354224,10,166758,1000000,19.409745896116217,19.408162080480697,19.39057639913356
3,587,168358,137.73317977739498,1600,3.189108049198985,0.022035252313948386,10,168358,1000000,19.515283830165863,19.519921931624413,19.50166855633259
3,588,168943,-63.737747366772965,585,3.3371318036626123,0.02216000523085539,10,168943,1000000,19.526387201506516,19.525881484459187,19.50397191705375
3,589,169185,-94.37766253529117,242,3.2799705505991974,0.022180351391943433,10,169185,1000000,19.651686342557273,19.667739645640054,19.651208837827046
3,590,170785,107.71034434484318,1600,3.271709385900758,0.02215721490350787,10,170785,1000000,19.69728438735008,19.695228343605994,19.678728587031365
3,591,171296,-87.68652743450366,511,2.671400959190785,0.02228610132891184,10,171296,1000000,19.60774991652545,19.614366189171285,19.602152923509188
3,592,172052,-69.51503861276433,756,3.179559024175008,0.02227316791266871,10,172052,1000000,19.744212771097818,19.741012435913085,19.72347946548462
3,593,172206,-101.84010166302323,154,2.6153641487658024,0.022267350516677463,10,172206,1000000,19.90908925374349,19.90545081456502,19.883578809102378
3,594,172394,-101.23785091703758,188,3.283521229897936,0.022229665342260094,10,172394,1000000,19.889463498857285,19.880955097410414,19.86675222714742
3,595,172535,-103.3441589041613,141,3.041463163388627,0.02219553815515517,10,172535,1000000,20.147088418688092,20.1554242679051,20.13070787702288
3,596,174135,151.52217514568474,1600,3.0779811630910263,0.022156635568896518,10,174135,1000000,20.013142780661582,20.00960635781288,19.993188273906707
3,597,175349,2.7197924631182104,1214,2.958221003628713,0.022193205503692085,10,175349,1000000,20.05673720304631,20.058291600755425,20.044645474961968
3,598,176160,-33.87693119700998,811,2.7093843438927037,0.022211963849479866,10,176160,1000000,20.10969396167331,20.10925367967582,20.090816634378317
3,599,176386,-91.94784324243665,226,2.5437774236567994,0.022203693670390334,10,176386,1000000,20.1698731769215,20.167227112163197,20.15715771588412
3,600,177502,39.63600385095924,1116,3.0445016796927193,0.022173901903972455,10,177502,1000000,20.102807335381037,20.105317806553195,20.087134594960254
3,601,177756,-81.44279946852475,254,3.4886188905239104,0.022189999325178518,10,177756,1000000,19.96738377380371,19.970590629577636,19.945645446777345
3,602,178732,48.57398544810712,976,3.232765326249538,0.022164025157421656,10,178732,1000000,19.97179473011764,19.962576777664655,19.94919449914362
3,603,179384,-15.037081417860463,652,3.303010570120353,0.022171792359853656,10,179384,1000000,19.908006046001727,19.91398133938129,19.89044508420504
3,604,180196,-8.32569601899013,812,2.688899098640239,0.022143026347139053,10,180196,1000000,19.868789597499518,19.863625385143138,19.853715867172053
3,605,181081,-8.120689438655972,885,2.9938198318112303,0.02214023940434751,10,181081,1000000,19.847614382613788,19.85282235253941,19.835720759088343
3,606,181554,-62.59014921449125,473,3.001076516620022,0.02211660775797286,10,181554,1000000,19.693732251512245,19.695419017304765,19.676676474226284
3,607,182552,55.311643375083804,998,2.731692201034589,0.022082254983446212,10,182552,1000000,19.772503010913578,19.769904912120165,19.755207870945785
3,608,182723,-87.6243262803182,171,3.5855291689143463,0.022082808104793482,10,182723,1000000,19.717792550255272,19.71510248745189,19.688726806640624
3,609,183299,-41.237134664319456,576,2.850840229475707,0.022049369326783513,10,183299,1000000,19.76471666034899,19.76251194267942,19.750282275885866
3,610,184391,50.18283010041341,1092,3.3416994635733444,0.022025753622458386,10,184391,1000000,19.765445815970043,19.77224151803813,19.748617110121142
3,611,184780,-52.52106010122225,389,3.4385225306608174,0.02200965921730838,10,184780,1000000,19.634354832297877,19.631824071783768,19.61438277646115
3,612,184901,-100.85810252651572,121,3.3346097823232412,0.021988740981820413,10,184901,1000000,19.678139686584473,19.67492438952128,19.65169997215271
3,613,185408,-18.035679928492755,507,2.8707350298166276,0.02194995932007554,10,185408,1000000,19.726728929519652,19.727055850982666,19.710608711242674
3,614,186083,-2.348232596181333,675,2.860360768381784,0.021936419102900128,10,186083,1000000,19.736975621465426,19.730443752345753,19.724212919776118
3,615,186301,-85.39092560834251,218,2.3990296572446823,0.021908319052531152,10,186301,1000000,19.747987438383557,19.74007145109631,19.730302983238584
3,616,187584,250.06668523326516,1283,2.863237560680136,0.02188477421795171,10,187584,1000000,19.612496899813415,19.615581565350293,19.599900845438242
3,617,188636,107.64162320178002,1052,3.216184449898345,0.02185196829942786,10,188636,1000000,19.52588993254162,19.526597716921852,19.505713532765707
3,618,189976,244.356105057057,1340,2.8951881467128424,0.02181643966030316,10,189976,1000000,19.451886368509548,19.455266112711893,19.439052623777247
3,619,191576,175.11022338457406,1600,2.971800970318727,0.021802800177008263,10,191576,1000000,19.338923256397248,19.33979369223118,19.3249943703413
3,620,193176,-11.558702440233901,1600,2.7611003555194475,0.02179654028487463,10,193176,1000000,19.316776661872865,19.31775862634182,19.299409226179122
3,621,194620,243.2031803401187,1444,2.8888133172928874,0.021776608047820792,10,194620,1000000,19.28290868666437,19.280104559659957,19.266215877400505
3,622,196006,250.0811943046283,1386,2.664918045351363,0.02176449156194729,10,196006,1000000,19.26008668775144,19.261365428178205,19.239287636245507
3,623,197463,243.45522239780985,1457,3.0958598269419424,0.021748769641701693,10,197463,1000000,19.273722162575556,19.27202951299733,19.25430093699488
3,624,199063,76.93330352101475,1600,2.6230873677809723,0.02172511631177583,10,199063,1000000,19.328757327795028,19.329564513564108,19.3116227799654
3,625,200332,134.82154060574248,1269,2.877066975160842,0.02167313231945562,10,200332,1000000,19.25699415736728,19.25535676668561,19.23861033878629
3,626,201932,-90.51528973388486,1600,3.2006620081281287,0.02164734377281999,10,201932,1000000,19.140070036649703,19.14360885798931,19.114983052015305
3,627,203005,102.2543035398703,1073,2.475369989482042,0.021565789160871793,10,203005,1000000,19.14252331011763,19.142324745320828,19.123282198148353
3,628,204605,202.81679711083416,1600,3.0438441821956075,0.02154429028522512,10,204605,1000000,19.026134147047998,19.03278768837452,19.005678718090056
3,629,205842,259.9046183573082,1237,3.0564676742728163,0.021569114235534013,10,205842,1000000,18.94524430298224,18.944673236598813,18.923895478442432
3,630,207110,257.0665680579841,1268,2.6182467920646544,0.021549993756676638,10,207110,1000000,18.89537334139385,18.897059970431858,18.877935366403488
3,631,208400,256.37685220409185,1290,2.608868325420821,0.021534903645039613,10,208400,1000000,18.797877924571665,18.801005752326905,18.779985966054046
3,632,209705,255.4660046333447,1305,2.73582540842203,0.021529609147904718,10,209705,1000000,18.725856007796068,18.719993179761445,18.704960911090556
3,633,210960,264.76633025705814,1255,2.7713323105573653,0.02151441178430519,10,210960,1000000,18.699926329803468,18.70357731704712,18.67895920333862
3,634,212227,264.79868074599653,1267,2.5670644278800676,0.02150069284644641,10,212227,1000000,18.532643988018943,18.534887471274725,18.517594064985
3,635,213486,266.22199628688395,1259,2.4383657864660027,0.021487509810590798,10,213486,1000000,18.509990185546876,18.511886553192138,18.49845527496338
3,636,214285,87.0258251579944,799,2.4300401057765075,0.02148765885167155,10,214285,1000000,18.529909311366985,18.52782650356051,18.513777315163914
3,637,215026,65.61056317575276,741,2.8902927212568152,0.021493105404375677,10,215026,1000000,18.482431518709337,18.49168735839225,18.469275145917326
3,638,216280,263.9272905085236,1254,2.40660906431973,0.021499938220688523,10,216280,1000000,18.421864471435548,18.43227241821289,18.408920598602293
3,639,217479,269.8936439855024,1199,2.9657227947400147,0.02152824794938332,10,217479,1000000,18.353309386117118,18.354079593530223,18.33604267745459
3,640,218435,100.16897956468165,956,2.466425965863623,0.021530842055388535,10,218435,1000000,18.461477317810058,18.45472314834595,18.4424049638447
3,641,218965,9.280257150530815,530,1.6538572533091285,0.02152858398747006,10,218965,1000000,18.40989847363166,18.4093893483,18.39638491756511
3,642,219265,-57.271288075484335,300,2.386521174237132,0.021524077671240528,10,219265,1000000,18.443287022908528,18.44541568438212,18.417001892725626
3,643,219781,16.188500175252557,516,1.9939830760014992,0.021502929081345365,10,219781,1000000,18.428227009492762,18.428710754244936,18.41025659336763
3,644,220095,-56.651573088020086,314,2.130813389704112,0.021495236307686513,10,220095,1000000,18.40781672693068,18.415659390726397,18.39752214800927
3,645,220350,-63.46426262380555,255,1.9720975644141436,0.021473603414680242,10,220350,1000000,18.450074871063233,18.447107231140137,18.430755897521973
3,646,220698,-42.98100382974371,348,1.4919777155689458,0.021451380956455948,10,220698,1000000,18.43713395735797,18.430274048973533,18.43028366425458
3,647,221310,28.605057700537145,612,2.639392283986338,0.0214401375882656,10,221310,1000000,18.467391442470863,18.46778425623159,18.450195262471183
3,648,221819,13.295068073552102,509,2.8090068995431063,0.02142992054750384,10,221819,1000000,18.463776697158814,18.470056827545164,18.449893352508546
3,649,222392,26.01738423621282,573,2.3364367401325388,0.021425939466964864,10,222392,1000000,18.32502137568959,18.326033824786805,18.317168182239197
3,650,222797,-14.377989005297422,405,2.2331049593724313,0.021414006997783955,10,222797,1000000,18.350466079711914,18.350212993621827,18.340413177013396
3,651,223121,-44.16821577819064,324,2.079589936591219,0.021400223624789053,10,223121,1000000,18.353582501411438,18.358947053551674,18.348932501673698
3,652,223319,-78.02492904965766,198,2.336563221600495,0.021385649958439387,10,223319,1000000,18.493991304698742,18.502433530907883,18.472587705913345
3,653,223730,-0.6853559743613005,411,1.6567202408593602,0.02136256256253268,10,223730,1000000,18.371629849875845,18.36914911502745,18.360711467556836
3,654,224322,9.093313568271697,592,2.2390662779242305,0.021352926699096872,10,224322,1000000,18.34396886017363,18.346741341736358,18.326932066577974
3,655,224700,-15.512358817271888,378,2.5281546641342545,0.021336803211273465,10,224700,1000000,18.296269133284284,18.29625229964385,18.28946941994332
3,656,225016,-35.66107296315022,316,2.2356400540759487,0.02131601722697904,10,225016,1000000,18.39681737038397,18.397234378322477,18.373403321543048
3,657,225384,-40.15983354952186,368,2.26271345410496,0.02130756572004897,10,225384,1000000,18.24301189051734,18.249714753362866,18.231984085506863
3,658,225780,-9.67011293862015,396,2.2782461886509107,0.02128082771305785,10,225780,1000000,18.185261229979687,18.181690546182487,18.179501489492562
3,659,226112,-54.86487509403378,332,2.7394758469340474,0.02127274440674057,10,226112,1000000,18.21435710444595,18.216131432851157,18.192311645276618
3,660,226462,-23.56350906100124,350,3.020797738581896,0.021261303363843947,10,226462,1000000,18.189260300227573,18.194355455126082,18.174460966927665
3,661,226741,-52.8544190460816,279,2.2480415237722573,0.021246682569387384,10,226741,1000000,18.20385271001745,18.203693209754096,18.189507134755452
3,662,227500,31.27518373518251,759,2.3704301189929247,0.02123587021123611,10,227500,1000000,18.18863401667277,18.189709851582844,18.17635988108317
3,663,227887,-29.514044700888917,387,1.6386243206890005,0.021224261293335964,10,227887,1000000,18.239923223696255,18.242353612498235,18.23318362236023
3,664,228570,50.94382080249488,683,1.8939076033475644,0.021200803082561896,10,228570,1000000,18.15727197001962,18.152676979233238,18.144418107762057
3,665,229047,-2.399498631595634,477,1.996233571883529,0.021195263653486878,10,229047,1000000,18.027481024316018,18.03540646370421,18.024380645346135
3,666,229741,31.86666722409427,694,2.249304044138694,0.02118238962708926,10,229741,1000000,17.993545818328858,17.989204300313755,17.978173637390135
3,667,230015,-52.311208811588585,274,2.004959987324697,0.021177662076966353,10,230015,1000000,18.040436850653755,18.042705327493174,18.031736631746647
3,668,230692,89.68978285742924,677,2.612525935298694,0.02116018870918726,10,230692,1000000,17.99627875285362,18.004366353732436,17.985636635680695
3,669,231211,-8.40116931940429,519,2.189123728893259,0.021156885858543858,10,231211,1000000,18.129468906626983,18.134151230606378,18.124897809122125
3,670,231735,1.6374289114028215,524,2.5879454240059623,0.021145181715056634,10,231735,1000000,18.142429049198444,18.143852481475243,18.12662044488467
3,671,232108,-17.18007760401815,373,2.64114419271213,0.02112992218549794,10,232108,1000000,18.078777132807552,18.077830319791225,18.060296886031693
3,672,233218,68.17176724597812,1110,2.3207282525227146,0.02111732793952708,10,233218,1000000,18.016796386993683,18.012144984855308,18.002582484752207
3,673,234747,248.56534200999886,1529,2.1914682491559927,0.021111892587670555,10,234747,1000000,17.965087382416975,17.964525968777505,17.947479283182243
3,674,235635,69.86370444530621,888,2.4275311191650952,0.02110171823625438,10,235635,1000000,17.999351785399696,17.998301347819243,17.979829349301077
3,675,236476,102.86600875575095,841,2.208377530461266,0.021111089746211318,10,236476,1000000,17.972939365250724,17.967181754112243,17.95613379932585
3,676,236999,26.563516160473228,523,2.4086084675473662,0.02109777804386071,10,236999,1000000,17.906255258046663,17.901595209195065,17.886022466879623
3,677,237530,6.860244547948241,531,2.2064060871963793,0.021082288764551416,10,237530,1000000,17.975048678776,17.97250482451241,17.9587688931879
3,678,237957,-3.694559605792165,427,2.7253152841436012,0.021068958273972593,10,237957,1000000,18.041380577995664,18.041709684190295,18.025322319212414
3,679,239168,272.6447164537385,1211,2.31403176792828,0.021048194227742175,10,239168,1000000,17.92235048625095,17.92332023589079,17.90666121963627
3,680,240354,271.019362449646,1186,2.428548406664345,0.021055206893108983,10,240354,1000000,17.91575960466417,17.913068856223155,17.897929315243736
3,681,241694,256.1534194359556,1340,2.1970782739652406,0.02106075291631064,10,241694,1000000,17.87744973808972,17.880606207207066,17.86577021328371
3,682,243211,235.06111148698255,1517,2.4059058506929913,0.02107812612610843,10,243211,1000000,17.95281530721298,17.952116733828916,17.93763073611733
3,683,244623,241.2843455192633,1412,2.530566879324879,0.02111301293165276,10,244623,1000000,17.901231384277345,17.905421659456078,17.88631701435603
3,684,246113,236.54876202903688,1490,2.738463229010969,0.021120784447819358,10,246113,1000000,17.932228242630927,17.933383093584304,17.917631340026855
3,685,247425,250.15966633800417,1312,2.757075103335367,0.02111311296283413,10,247425,1000000,17.964984033307957,17.961655995317997,17.94384019138249
3,686,248845,241.4175755577162,1420,2.7006179911438637,0.021098473518855455,10,248845,1000000,18.039027110623643,18.03766858476988,18.02136555322459
3,687,249620,-3.0264166155830026,775,2.108724365697859,0.021097753059492026,10,249620,1000000,18.019686963960723,18.01294002409105,18.006338654555282
3,688,250537,79.0679021095857,917,2.611744489135978,0.021080244898605043,10,250537,1000000,18.143052483652973,18.145858011140927,18.124073579809167
3,689,251966,241.01236344361678,1429,2.1079812439840655,0.021053433196394418,10,251966,1000000,18.155911016464234,18.153313660957444,18.13985312488717
3,690,252393,-5.57903744187206,427,2.8616849461570384,0.02104733347341287,10,252393,1000000,18.259021874836513,18.26459046772548,18.244925691967918
3,691,253156,45.59522408992052,763,2.4492042814479453,0.021019014767835992,10,253156,1000000,18.12631435645254,18.12597914243999,18.104930326813147
3,692,253627,-13.221455181017518,471,2.173161989957728,0.021007075942688285,10,253627,1000000,18.184636789687136,18.184223660002363,18.164878504327003
