seo-minseok/DOB-RL/cycles/Cycle_4/results/mbrl_real_ratio=0.2/seed_4_progress.csv
seed,episode,total_steps,reward,episode_length,td_loss_avg,model_loss_avg,horizon_length,real_buffer_size,model_buffer_size,q1_avg,q2_avg,target_q_avg
4,1,168,-127.75598721602,168,nan,nan,0,168,0,nan,nan,nan
4,2,1768,-79.68974615656771,1600,nan,nan,0,1768,0,nan,nan,nan
4,3,1837,-100.41751839220524,69,nan,nan,0,1837,0,nan,nan,nan
4,4,1904,-100.46191884367727,67,nan,nan,0,1904,0,nan,nan,nan
4,5,3504,-82.35635857039597,1600,nan,nan,0,3504,0,nan,nan,nan
4,6,3584,-101.39318507816643,80,nan,nan,0,3584,0,nan,nan,nan
4,7,3692,-119.86752182617784,108,nan,nan,0,3692,0,nan,nan,nan
4,8,3775,-113.02963149826974,83,nan,nan,0,3775,0,nan,nan,nan
4,9,3834,-114.5396513948217,59,nan,nan,0,3834,0,nan,nan,nan
4,10,3944,-117.22957471199334,110,nan,nan,0,3944,0,nan,nan,nan
4,11,4007,-101.77715124096721,63,nan,nan,0,4007,0,nan,nan,nan
4,12,4080,-103.73999618086964,73,nan,nan,0,4080,0,nan,nan,nan
4,13,4179,-121.25496356375515,99,nan,nan,0,4179,0,nan,nan,nan
4,14,5779,-88.02977999520954,1600,nan,nan,0,5779,0,nan,nan,nan
4,15,7379,-79.42311950039584,1600,nan,nan,0,7379,0,nan,nan,nan
4,16,7443,-112.88519654236734,64,nan,nan,0,7443,0,nan,nan,nan
4,17,7518,-99.27138383872807,75,nan,nan,0,7518,0,nan,nan,nan
4,18,7702,-123.2001303578727,184,nan,nan,0,7702,0,nan,nan,nan
4,19,9146,-198.4824479224626,1444,nan,nan,0,9146,0,nan,nan,nan
4,20,10196,-174.69325292506255,1050,12.61332093671197,nan,0,10196,0,-0.1531323222629726,-0.15490532835014165,-0.2248641351237893
4,21,10237,-122.9719310849905,41,151.497081784904,0.19723221382014772,1,10237,15360,-1.0708636414143258,-1.0369426948949694,-1.6516224965453148
4,22,10326,-111.60573494806886,89,155.16737549304963,0.13612345257121275,1,10326,30720,-1.4716820508241653,-1.4721019119024277,-1.8333227284252644
4,23,10479,-128.10748909134418,153,158.84565700531004,0.09982871713737647,1,10479,46080,-1.9163441189130148,-1.9204024831453959,-2.218342362244924
4,24,10546,-99.02794006839395,67,149.84525872866314,0.08982874192297459,1,10546,61440,-2.0283659199873605,-1.9860560456911722,-2.464930162827174
4,25,10600,-100.16896302998066,54,141.501524810791,0.08748235471122633,1,10600,76800,-2.231212484836578,-2.198295164108276,-2.502911536693573
4,26,10761,-107.86300227942411,161,132.53417379260063,0.08588910377849408,1,10761,92160,-2.6540685065090655,-2.61120787486434,-2.867897232621908
4,27,10943,-115.89655504468828,182,108.57784872584872,0.08411656536516689,1,10943,107520,-3.1539742999606664,-3.116716358396742,-3.2256733960575525
4,28,10987,-120.54053230583668,44,99.54043035507202,0.0821890989466319,1,10987,122880,-3.3646829426288605,-3.3700451135635374,-3.497873729467392
4,29,11030,-120.93565872311592,43,96.19090886116028,0.0810333370807625,1,11030,138240,-3.6144917249679565,-3.6132046282291412,-3.6476923167705535
4,30,11072,-121.7349164634943,42,100.43843865394592,0.08013102158095485,1,11072,153600,-3.8533846616744993,-3.8357272803783418,-4.00710695385933
4,31,11114,-121.25188843905926,42,85.42463228702545,0.07938591623029044,1,11114,168960,-3.6192948043346407,-3.6034839034080504,-3.5937462210655213
4,32,11156,-108.94880949705839,42,89.16206250190734,0.0787438778336658,1,11156,184320,-4.206304222345352,-4.2008496701717375,-4.282363647222519
4,33,11265,-112.38663851097226,109,78.0272122001648,0.07809081856132477,1,11265,199680,-4.174548590183258,-4.17803771018982,-4.289751951694488
4,34,11308,-119.63063858449459,43,76.04311196804046,0.07714349843110099,1,11308,215040,-4.56104102730751,-4.575448685884476,-4.616140282154083
4,35,11398,-108.93209040537477,90,66.84047583474053,0.07648283601032965,1,11398,230400,-4.558208211263021,-4.5697193172242905,-4.55442308584849
4,36,11473,-111.79142388887703,75,62.63449186597552,0.0757648823387695,1,11473,245760,-4.609619244507381,-4.637150590760367,-4.728379809856415
4,37,11512,-116.39468781650066,39,67.12017532984416,0.0751472091471607,1,11512,261120,-5.077993130683899,-5.063720790545146,-5.10523689587911
4,38,11555,-120.10266903042793,43,57.055513978004456,0.07466789182614196,1,11555,276480,-4.952120727300644,-4.940606111288071,-4.932558846473694
4,39,11599,-119.75580090284348,44,60.848345160484314,0.07419464375133868,1,11599,291840,-4.970305526256562,-5.008417522907257,-5.1201558113098145
4,40,11642,-122.09783262014389,43,62.646321499347685,0.07379355087324425,2,11642,322560,-5.474330413341522,-5.472440934181213,-5.407164824008942
4,41,11684,-121.65749102830887,42,66.21984477043152,0.07335957180570674,2,11684,353280,-5.925717633962631,-5.914597487449646,-5.985404044389725
4,42,11725,-118.02637457847595,41,56.798592114448546,0.07293746727484243,2,11725,384000,-5.74478725194931,-5.734037536382675,-5.751277840137481
4,43,11804,-111.7069038656773,79,59.24252409253802,0.07250754077125479,2,11804,414720,-6.1977873802185055,-6.203255987167358,-6.17483628817967
4,44,11894,-112.78679435886443,90,52.27306742138333,0.07186195580423742,2,11894,445440,-6.538913493686252,-6.535477081934611,-6.563749848471748
4,45,11971,-113.24964283592999,77,48.74510819571359,0.07122700987518697,2,11971,476160,-6.75085756778717,-6.745140726225717,-6.757491397857666
4,46,12061,-120.20207845419645,90,47.00897618929545,0.07062745702223501,2,12061,506880,-7.165124320983887,-7.1662356641557485,-7.200984610451592
4,47,12168,-121.91213832050562,107,41.75322162151337,0.07001285263409851,2,12168,537600,-7.417495584487915,-7.443392100334168,-7.428718242645264
4,48,12255,-119.57442352175713,87,34.635350131988524,0.06937097560957814,2,12255,568320,-7.07183455824852,-7.066902077198028,-7.085854125022888
4,49,12435,-118.78223783150315,180,31.534020845095316,0.06889409050345421,2,12435,599040,-7.9395298375023735,-7.942999948395623,-7.997743283377753
4,50,12599,-135.01838010549545,164,28.37666991353035,0.06784700363770955,2,12599,629760,-8.287309455871583,-8.292427942156792,-8.32302722632885
4,51,12690,-126.13397835195065,91,23.67533174355825,0.06697381175801057,2,12690,660480,-8.225298023223877,-8.220723432964748,-8.297955926259359
4,52,12735,-124.11696900054812,45,25.019503790140153,0.06643472042213491,2,12735,691200,-8.270727062225342,-8.275035011768342,-8.281258726119995
4,53,12802,-119.00269983708858,67,20.552086428801218,0.06605099197857234,2,12802,721920,-8.792879700660706,-8.777030738194783,-8.841598153114319
4,54,12875,-126.23695378005505,73,23.44242252281734,0.06560870287319025,2,12875,752640,-8.690726402827671,-8.693039328711373,-8.733385665076119
4,55,12956,-126.96744612138718,81,20.187925666570663,0.06525915171702702,2,12956,783360,-8.968337094783783,-8.962825232744217,-9.001588940620422
4,56,13476,-115.06626676546875,520,18.66056338273562,0.06488880288104217,2,13476,814080,-9.351161686273722,-9.35897680429312,-9.396808467461513
4,57,13527,-107.49199850857258,51,16.336295309066774,0.063963825112352,2,13527,844800,-9.39689326286316,-9.401701536178589,-9.405466413497924
4,58,14873,-173.5073168282397,1346,14.236509962846984,0.06367974441307478,2,14873,875520,-8.854627014629877,-8.85438314765247,-8.892930669215188
4,59,15962,-144.38294918995234,1089,10.445465316154339,0.0598677974665302,2,15962,906240,-7.953985962161312,-7.955549316273795,-7.974914108161573
4,60,16119,-114.64481766847894,157,8.535219036738077,0.059385519899347775,3,16119,952320,-7.543476397196452,-7.531681243578593,-7.547690447171529
4,61,16157,-104.81691957078874,38,8.550063967704773,0.05865791918689846,3,16157,998400,-8.027562888463338,-8.073459275563557,-8.081359259287517
4,62,16242,-111.04457607585937,85,8.79639137238264,0.05820937341167813,3,16242,1000000,-7.6191095352172855,-7.624304401874542,-7.6383856445550915
4,63,16310,-108.82535239309072,68,8.306446031729381,0.05795952061969767,3,16310,1000000,-7.515330696105957,-7.516617862383525,-7.540146358807882
4,64,16403,-109.92737890454009,93,7.955628862645891,0.05772834238078859,3,16403,1000000,-7.812097194459703,-7.816434711880154,-7.84072929488288
4,65,16482,-108.29333028011024,79,7.0192149766853875,0.05732785330619663,3,16482,1000000,-7.757608958653042,-7.763188011305672,-7.789045592716762
4,66,16615,-98.91502280440181,133,8.077574108197139,0.05698164949426428,3,16615,1000000,-7.6225258964758655,-7.631342376195468,-7.654277409040011
4,67,16873,-101.04184329742566,258,8.620988865613937,0.056601428345311434,3,16873,1000000,-7.760218099594116,-7.7671564092636105,-7.788568657875061
4,68,16931,-110.00444308388978,58,8.327588105201722,0.056039348932412955,3,16931,1000000,-7.87407374382019,-7.866067943572998,-7.893260440826416
4,69,16977,-105.61975341290236,46,10.387447789311409,0.055728789035117986,3,16977,1000000,-7.4176377892494205,-7.423415565490723,-7.451741313934326
4,70,17022,-104.83343476243317,45,10.387043881416322,0.05540532118669062,3,17022,1000000,-6.790494656562805,-6.7930188298225405,-6.787756365537644
4,71,17067,-107.45228042360395,45,10.006891357898713,0.055079446653976585,3,17067,1000000,-7.3398981392383575,-7.3208631575107574,-7.34012862443924
4,72,17971,-145.0095968216192,904,8.147344501680799,0.05473088105444354,3,17971,1000000,-6.594557033114963,-6.591791560120053,-6.622251672214932
4,73,18098,-96.43729867879301,127,6.766636988520622,0.05350548888601008,3,18098,1000000,-5.998242455720901,-6.011198073625565,-6.030678288141886
4,74,18232,-99.78046660404652,134,6.841893344659072,0.053139717915938016,3,18232,1000000,-6.1088225199626045,-6.101940910632794,-6.129340740350576
4,75,18537,-128.98468171129934,305,7.459647102554639,0.052831016382980794,3,18537,1000000,-5.906645331382752,-5.908787522315979,-5.924111623764038
4,76,18607,-108.48509053653106,70,8.0703301182815,0.05242587534572791,3,18607,1000000,-5.298501760619027,-5.296515594209944,-5.292911611284528
4,77,18655,-107.26526566687971,48,6.376182018220424,0.052084344408164424,3,18655,1000000,-5.41736878156662,-5.434154677391052,-5.376569879055023
4,78,18708,-106.71023978851736,53,7.27409104347229,0.05177496259825097,3,18708,1000000,-4.856344051361084,-4.905886688232422,-4.906526322364807
4,79,18765,-109.20592433959246,57,7.6385312223434445,0.051503485400382784,3,18765,1000000,-5.12998211145401,-5.127615542411804,-5.154258198738098
4,80,18816,-108.38747060345486,51,7.493464261293411,0.05123587383731315,4,18816,1000000,-5.158889656066894,-5.1947182941436765,-5.157133982181549
4,81,18937,-111.58105421345681,121,6.739696508149306,0.05097846361600101,4,18937,1000000,-4.910267899433772,-4.920587494969368,-4.924950263400873
4,82,19068,-95.6282448777929,131,7.30931509412252,0.05076426707174136,4,19068,1000000,-4.341987769420331,-4.348776468863854,-4.381342448638036
4,83,19126,-101.4366160389036,58,6.990962251424789,0.05054497682229356,4,19126,1000000,-4.591210567951203,-4.569841665029526,-4.60289267539978
4,84,19232,-103.31159440451302,106,6.878427317142487,0.05030492015921318,4,19232,1000000,-4.132385830879212,-4.140506655573845,-4.146188760995865
4,85,19280,-100.7440730733797,48,6.141789269447327,0.05010639242331187,4,19280,1000000,-3.708268144726753,-3.718240389227867,-3.764127191901207
4,86,19335,-101.5358490771614,55,7.774824997186661,0.04991584063569705,4,19335,1000000,-3.77210387468338,-3.767081878185272,-3.7742630290985106
4,87,19492,-94.97547867824323,157,6.0853589387734734,0.04968194820814663,4,19492,1000000,-4.006426098148028,-4.004516436258952,-4.0159489846229555
4,88,19575,-113.63193106139079,83,6.865737538039684,0.04932702164770218,4,19575,1000000,-3.4924352034926414,-3.4823271043598654,-3.5061680786311626
4,89,19707,-125.83354270039126,132,6.277411288939989,0.04909117142751551,4,19707,1000000,-3.4534512963432533,-3.454474269426786,-3.4731001128370944
4,90,19816,-123.40192711818963,109,7.250704001486302,0.048917191014870215,4,19816,1000000,-2.8594912865757944,-2.839703669846058,-2.860511326491833
4,91,19986,-129.9467400740832,170,5.700371116399765,0.048605264171764445,4,19986,1000000,-2.815751791175674,-2.821846777025391,-2.838148932071293
4,92,20090,-97.60703949350864,104,7.228850238919258,0.04827830453013253,4,20090,1000000,-2.740469491779804,-2.737613489329815,-2.7516974265873433
4,93,20144,-104.83464187476784,54,6.1656431901454924,0.048025435368474735,4,20144,1000000,-2.2685239148139953,-2.2505544155836104,-2.288405851125717
4,94,20236,-104.74095499422401,92,7.335525095462799,0.04779813770746064,4,20236,1000000,-2.3466649621725084,-2.38265629808108,-2.378157111505667
4,95,20331,-124.88131331675686,95,7.630179566144943,0.04758752005701326,4,20331,1000000,-2.1985444638464187,-2.184729912545946,-2.206548418932491
4,96,20444,-120.98884486872703,113,5.99354052381082,0.0474147824012529,4,20444,1000000,-1.833673090555451,-1.8660712634297933,-1.8699329627508467
4,97,20691,-125.29137168079615,247,6.856337954103947,0.04712642418369965,4,20691,1000000,-2.070111314890285,-2.073973521900674,-2.09699815682446
4,98,20777,-114.19574273843318,86,7.679238474369049,0.04688019970121483,4,20777,1000000,-1.406877482496202,-1.4154831886291503,-1.4507561895996333
4,99,20818,-106.7594030238688,41,7.356218755245209,0.046655709063442644,4,20818,1000000,-1.3887767054140567,-1.3874681033194065,-1.4213542701676487
4,100,20865,-106.9542976054363,47,6.434789882600308,0.04651800666939575,5,20865,1000000,-1.0585603708401323,-1.036704633012414,-1.0714077774435282
4,101,20909,-106.20762405823916,44,7.3920320346951485,0.0463780450937434,5,20909,1000000,-1.3078292988240718,-1.3189518004655838,-1.3392867166548967
4,102,20952,-105.82317083165981,43,7.309673814475536,0.04618927971019176,5,20952,1000000,-1.25645243935287,-1.279997586272657,-1.260694470256567
4,103,21007,-107.92252998240292,55,9.078942425251007,0.04607870621691025,5,21007,1000000,-1.0971473056077956,-1.0643919014930725,-1.136819823384285
4,104,21120,-120.38193348515779,113,7.2371870376847,0.0459106663590282,5,21120,1000000,-1.3703541613437913,-1.3820776275613091,-1.4069965711371466
4,105,21174,-111.31462571397424,54,8.577070640325546,0.0458318021239304,5,21174,1000000,-0.7129432305693626,-0.7154993592202663,-0.7312867921590805
4,106,21230,-110.84767088806257,56,8.818695758581162,0.045676728047248795,5,21230,1000000,-0.8897888800501823,-0.8957802951335907,-0.9231069913506508
4,107,21267,-106.9152115713805,37,6.5411271214485165,0.04550737632907988,5,21267,1000000,-1.1852648009856541,-1.1384421736001968,-1.1516368587811787
4,108,21321,-111.63238103687763,54,7.282482578754425,0.04537531396591041,5,21321,1000000,-1.058038753569126,-1.04957290828228,-1.04181949198246
4,109,21373,-109.34705421514809,52,7.573314075469971,0.045211772916905854,5,21373,1000000,-0.7080334201455116,-0.6875591617822647,-0.7225424566864967
4,110,21426,-103.24967456236482,53,6.888106597661972,0.04505290752912621,5,21426,1000000,-0.7763982769846917,-0.7289935141801834,-0.77097970277071
4,111,21492,-115.76254781940952,66,6.397706080476443,0.044914844638133146,5,21492,1000000,-0.5417562315861384,-0.5618919546405474,-0.5656316185990969
4,112,21560,-111.4883775137132,68,8.15491702457269,0.044759389440936735,5,21560,1000000,-0.46925468842188517,-0.4790619269013405,-0.510122467080752
4,113,21609,-112.7362329121679,49,8.000752592086792,0.0445867573014564,5,21609,1000000,-0.4941480003297329,-0.5008340522646904,-0.4755791574716568
4,114,21660,-110.71882467344403,51,5.994677041769028,0.04445636077887482,5,21660,1000000,-0.5166719409823418,-0.5424777883291244,-0.5514922443032265
4,115,21762,-112.85676230536774,102,7.062247616052628,0.04437353718020613,5,21762,1000000,-0.17967053405940533,-0.20849978402256966,-0.21130399711430073
4,116,21809,-106.95467225648463,47,6.768470013141632,0.044252699844393076,5,21809,1000000,-0.2958025082945824,-0.3074368052184582,-0.3240266155451536
4,117,21856,-106.6694362545386,47,7.446806593239307,0.044119546515684505,5,21856,1000000,-0.5143046379089355,-0.5185686681419611,-0.5390448331832886
4,118,21904,-106.86157301813364,48,7.170016334950924,0.043966904016686424,5,21904,1000000,-0.3875524755567312,-0.40725239627063275,-0.43975908756256105
4,119,21950,-106.48295485018753,46,7.916721075773239,0.04383267810531691,5,21950,1000000,-0.45907423198223113,-0.4795482881367207,-0.48883192501962186
4,120,21997,-105.45128186885267,47,8.16809169948101,0.043718186304265376,6,21997,1000000,-0.27425988428294656,-0.27343650013208387,-0.31577967926859857
4,121,22122,-119.09578667674214,125,7.569936539232731,0.043642455108609854,6,22122,1000000,-0.007696819212287665,-0.01141904437293609,-0.03681205908457438
4,122,22174,-108.60707553476095,52,8.194218524694442,0.0435585184383762,6,22174,1000000,-0.0052745044231414795,-0.008881650269031524,-0.0291144123673439
4,123,22234,-112.49755630642176,60,6.055359021822611,0.04341467372611049,6,22234,1000000,0.24532099291682244,0.231037999689579,0.21606836145122846
4,124,22283,-107.24377543712035,49,8.070476625859737,0.04322317098808843,6,22283,1000000,-0.3230233106762171,-0.3184681063517928,-0.362801855802536
4,125,22390,-114.1651324252598,107,8.370855872631074,0.043106241041787285,6,22390,1000000,0.22885798424482345,0.25459468707442284,0.21401817187666894
4,126,22450,-108.6009253654629,60,7.342932077248891,0.04304938322339935,6,22450,1000000,0.1962978723148505,0.19492953804632027,0.16621800536910694
4,127,22499,-107.55040373187512,49,7.590811108052731,0.04296571866134574,6,22499,1000000,-0.02074815295636654,-0.027688232809305192,-0.05592825934290886
4,128,22574,-116.03662712103687,75,7.508172726631164,0.042881426977357646,6,22574,1000000,0.25718997227294105,0.2656112796493939,0.23759477926152092
4,129,22622,-107.06633135583252,48,6.029606607556343,0.04276723530651493,6,22622,1000000,0.5810409158468246,0.5665402684360743,0.5563296191394329
4,130,22672,-107.18648137710989,50,5.624183312654496,0.042651439494820254,6,22672,1000000,0.9148540663719177,0.9200934135913849,0.8940819936990738
4,131,22759,-118.4442865010351,87,6.905629084259272,0.04254295505921949,6,22759,1000000,0.529995102621615,0.5169566972181201,0.5208219366148115
4,132,22807,-107.58339863829315,48,5.863524289429188,0.04242416172090805,6,22807,1000000,0.7012529022991657,0.7092737976461649,0.6771470569074154
4,133,22855,-107.44665386341512,48,7.54049122929573,0.04230566109052758,6,22855,1000000,0.5697324890643358,0.5518115952610969,0.52595747821033
4,134,22902,-107.31122309155762,47,7.119092333316803,0.04218156619576479,6,22902,1000000,0.698600398004055,0.7111894741654397,0.6848382331430912
4,135,22950,-105.3999485205859,48,6.980800729990006,0.04204396671346957,6,22950,1000000,0.7287210930138827,0.7190096914768219,0.6951207511126996
4,136,23034,-117.88545563444495,84,7.2160952247679235,0.041901339040824985,6,23034,1000000,0.5072399526834488,0.5314706154167652,0.4799504805356264
4,137,23114,-117.44582704082131,80,7.375572624802589,0.041788314436370516,6,23114,1000000,0.8951016684994102,0.8713335815817118,0.8588041018694639
4,138,23161,-106.86234499886632,47,9.302971298992635,0.04164089764433879,6,23161,1000000,-0.05579712502658367,-0.027927975729107858,-0.06308050304651261
4,139,23216,-110.10277817212045,55,7.000570170879364,0.041532247292774695,6,23216,1000000,0.9159487295150757,0.9088009375333786,0.893366996049881
4,140,23269,-109.98546528443694,53,8.160763586759566,0.041397474363998134,7,23269,1000000,0.4932008147239685,0.4809764474630356,0.4646512675285339
4,141,23333,-112.73285941965878,64,6.866179805994034,0.041278436153575224,7,23333,1000000,0.8288212652007739,0.828286096950372,0.7972640385230382
4,142,23409,-117.44794972240925,76,6.324102415357317,0.04115252358081577,7,23409,1000000,0.607683678822858,0.5815408323492323,0.5780561266200883
4,143,23471,-112.28215737454593,62,6.6208737850189205,0.04099751871365767,7,23471,1000000,0.48030720502138136,0.4823111506799857,0.46464573219418526
4,144,23529,-111.11208167858422,58,6.214980741739273,0.04090717441978909,7,23529,1000000,0.2223524743318558,0.2236329609155655,0.18214227706193925
4,145,23607,-116.27135399356484,78,6.554957296167101,0.04075716110048713,7,23607,1000000,0.6652239184294428,0.6783433405416353,0.6525935660515513
4,146,23659,-109.5209545455873,52,7.65685404419899,0.04069888399293025,7,23659,1000000,0.4581685221195221,0.460001032948494,0.3987350481748581
4,147,23706,-107.214096814394,47,7.249610514938832,0.040553275849400224,7,23706,1000000,0.6727390542626381,0.6435170374810696,0.6611826803535223
4,148,23762,-111.12350805755705,56,6.835392758846283,0.040416828753507654,7,23762,1000000,0.27500486731529233,0.2588148605823517,0.23116484373807908
4,149,23811,-108.80525875464082,49,8.155356146395206,0.04029270492332137,7,23811,1000000,0.216936082392931,0.20380295515060426,0.21870861761271954
4,150,23854,-107.04219439066947,43,7.732055519521237,0.04017269360869589,7,23854,1000000,0.056965957209467885,0.044941645860671994,0.03983480744063854
4,151,23902,-108.09660117421299,48,5.798265564441681,0.04003774060143365,7,23902,1000000,0.7403360459953546,0.7561680421233177,0.7356033947318792
4,152,23950,-107.93049822375178,48,5.510515557229519,0.039940071810958204,7,23950,1000000,0.833581542223692,0.8159662278369069,0.8210286162793636
4,153,23996,-106.76448552310467,46,6.1015688419342045,0.039878775579954985,7,23996,1000000,0.5166326403617859,0.5201772101223469,0.48428320586681367
4,154,24040,-108.06220187153667,44,6.8391242429614065,0.039768428865513065,7,24040,1000000,0.7185043774545192,0.7340583175420761,0.7053234659135341
4,155,24084,-107.57669012993574,44,4.578294739127159,0.03966924754575589,7,24084,1000000,0.6046842187643051,0.6028251398354769,0.5940933093428612
4,156,24122,-107.08819362521172,38,4.118255011240641,0.03955001228403115,7,24122,1000000,0.4479997992515564,0.4304760773976644,0.45441313087940216
4,157,24163,-107.22780191525817,41,5.846667133271694,0.03942902624237199,7,24163,1000000,0.2534410171210766,0.2579273320734501,0.2362393967807293
4,158,24213,-108.90343596599996,50,6.8017587566375735,0.03928537387797173,7,24213,1000000,0.48139984712004663,0.4777493453025818,0.466839220225811
4,159,24267,-109.65706668701023,54,6.467793666124344,0.0391794925833002,7,24267,1000000,-0.044252020120620725,-0.04129897594451904,-0.08771814525127411
4,160,24321,-110.28102536313236,54,7.346193587779998,0.03906073030084371,8,24321,1000000,0.32109626203775404,0.29959828674793243,0.3012193113565445
4,161,24369,-108.98754576221108,48,6.605833531916142,0.03893956843698234,8,24369,1000000,-0.4110565334558487,-0.3754546925425529,-0.4327064223587513
4,162,24420,-109.88601128943264,51,7.533075166940689,0.03881713011547139,8,24420,1000000,0.23427926659584045,0.22160754948854447,0.19790231823921203
4,163,24471,-109.9090969087556,51,5.415853478908539,0.03868377449611823,8,24471,1000000,0.17990186989307402,0.17689795762300492,0.15732185125350953
4,164,24512,-107.04853577166796,41,6.034820626676082,0.03856162505975941,8,24512,1000000,0.3159776169806719,0.3251245118677616,0.2954943671822548
4,165,24551,-107.57551078870893,39,6.281868569056193,0.03845195128598757,8,24551,1000000,0.48564566274484,0.49483409176270166,0.4663775401810805
4,166,24605,-110.44759725686163,54,5.921188172101974,0.03833201032720114,8,24605,1000000,0.4622734531760216,0.4327048909664154,0.4272982892394066
4,167,24657,-110.25293057784438,52,6.928971320390701,0.03823280265270215,8,24657,1000000,0.11003235697746278,0.11225862205028533,0.11765656381845474
4,168,24714,-111.53230287879705,57,7.378962545394898,0.03809102661907673,8,24714,1000000,-0.01374476969242096,-0.018870317339897157,-0.05739666044712067
4,169,24765,-110.02306840755045,51,3.7123894560337067,0.0379832700929708,8,24765,1000000,-0.02571063220500946,-0.024825461506843567,-0.024546366333961487
4,170,24835,-110.41348433494568,70,6.835480670418058,0.03786322223410631,8,24835,1000000,-0.061292859592608044,-0.0682968631386757,-0.07966560955558505
4,171,24899,-106.084821972996,64,5.462444548805554,0.03775649210790179,8,24899,1000000,-0.18396884178121883,-0.20526151433587075,-0.23350552419821421
4,172,24971,-115.98438670253381,72,5.358552214077541,0.03767562457376329,8,24971,1000000,0.03581518562776702,0.0277640129838671,0.013122856191226414
4,173,25091,-110.99881821055897,120,4.712391429642836,0.037546033079374284,8,25091,1000000,0.09847372335692246,0.0907439038157463,0.08936379030346871
4,174,25160,-101.44839756563306,69,5.009882344802221,0.03751824654917531,8,25160,1000000,-0.18426303416490555,-0.18685082743565243,-0.2145468237499396
4,175,25221,-102.23033906519413,61,5.615111565589904,0.037449578071633974,8,25221,1000000,-0.3614302709698677,-0.3411475139359633,-0.360380574564139
4,176,25279,-102.6748542515561,58,4.881444140672683,0.03736639760789417,8,25279,1000000,-0.08142364591360092,-0.108052978515625,-0.10321917712688446
4,177,25337,-103.36218788847327,58,5.0863396525383,0.037287356672795854,8,25337,1000000,-0.0983575764298439,-0.08399145841598511,-0.11130837202072144
4,178,25401,-103.09038295317441,64,5.100585699081421,0.03719647050309344,8,25401,1000000,-0.01942074323693911,-0.023372073968251545,-0.027580752223730087
4,179,25457,-109.17612552829087,56,5.098930829763413,0.0371182865090041,8,25457,1000000,-0.4323625886440277,-0.39533344566822054,-0.421941037774086
4,180,25527,-104.80260004848242,70,5.037581532342093,0.03701189662947599,9,25527,1000000,-0.24670039426003185,-0.2382258083139147,-0.2512790411710739
4,181,25598,-101.17074914183468,71,5.826005668299539,0.03694872832684605,9,25598,1000000,-0.18916260940687998,-0.17098728567361832,-0.20584849332060132
4,182,25681,-115.9574003983289,83,5.035967642813921,0.036855727013965646,9,25681,1000000,-0.18071904461830854,-0.17036945037543774,-0.18241817522794007
4,183,25749,-102.61880729999393,68,5.242588231960933,0.03676714993516604,9,25749,1000000,-0.03627992123365402,-0.06843824908137322,-0.08647801838815213
4,184,25818,-102.89472653716803,69,5.782295493284861,0.03668332265565793,9,25818,1000000,-0.499827258537213,-0.4990120107928912,-0.5066213215390841
4,185,25900,-113.96306192874908,82,6.189118358492851,0.036614679295569656,9,25900,1000000,-0.5109630763530731,-0.4932363422587514,-0.5083535263314843
4,186,25956,-110.77308239974082,56,5.483310278654098,0.036569284645244234,9,25956,1000000,-0.5591223150491714,-0.5343240231275559,-0.5560355697572231
4,187,26027,-101.75131752807647,71,5.129018887451717,0.03646370669820718,9,26027,1000000,-0.5839887940457889,-0.6072018242308072,-0.5899152834500585
4,188,26084,-103.5250475089997,57,4.968064646720887,0.03642538414020153,9,26084,1000000,-0.40991786748170855,-0.41638131588697436,-0.4202665412425995
4,189,26139,-103.60999694466591,55,5.661488292217254,0.03630517494216217,9,26139,1000000,-0.6898439037799835,-0.7020488895475865,-0.7324505612254143
4,190,26197,-102.10859615728259,58,4.502755110263824,0.036217335047918596,9,26197,1000000,-0.400411082804203,-0.37828934758901595,-0.417311404645443
4,191,26264,-100.78135228902102,67,6.039402185877164,0.03611192804657751,9,26264,1000000,-0.31514610623319944,-0.33223029375076296,-0.3338630850116412
4,192,26319,-103.91906540724449,55,4.774919867515564,0.036033886098881175,9,26319,1000000,-0.6709271770715713,-0.6679054129123688,-0.6925756102800369
4,193,26392,-109.44692228548229,73,4.6007270983287265,0.03594562185477782,9,26392,1000000,-0.5367527684995106,-0.5600997188261577,-0.5507516192538398
4,194,26469,-105.57847501151264,77,5.823881639753069,0.035874749589892264,9,26469,1000000,-0.5610486905489649,-0.5285993316343852,-0.5561977703656469
4,195,26665,-128.97414823342115,196,4.752726547341598,0.03581719177633427,9,26665,1000000,-0.7948852107713097,-0.7953677627601121,-0.8128203540256149
4,196,26718,-112.10046545416117,53,4.53060929775238,0.035790165006302485,9,26718,1000000,-0.8768062344193459,-0.8782530459761619,-0.880977423787117
4,197,26842,-120.67755328118801,124,4.5307525460918745,0.035699588109333165,9,26842,1000000,-0.7642622703065475,-0.7696673605591059,-0.7801921031127373
4,198,26946,-127.07456025108695,104,4.749357145428657,0.03565067097019309,9,26946,1000000,-1.1151352447271348,-1.1420801660418511,-1.1386673580110074
4,199,27011,-105.94293247582391,65,5.105457961559296,0.03558305061644032,9,27011,1000000,-1.4388333631058534,-1.4638756163418294,-1.4702375424404939
4,200,27078,-103.10152121260762,67,4.5271628598372144,0.035497333000576684,10,27078,1000000,-1.3316356557110944,-1.3062997785707315,-1.3484671947235862
4,201,27136,-104.43517029285431,58,5.017439112663269,0.03545929806336524,10,27136,1000000,-1.3339633631706238,-1.3167874222993852,-1.3314564457535745
4,202,27217,-103.95800049882382,81,4.919275945425033,0.035417582366451525,10,27217,1000000,-1.4790985884144903,-1.4990906160324813,-1.5135781500488519
4,203,27549,-148.95151908695698,332,4.287259322043621,0.035376321493923286,10,27549,1000000,-1.3192329230182098,-1.3171633234529785,-1.3359187795131495
4,204,29149,-119.95281200343743,1600,3.996987494789064,0.03536402778903086,10,29149,1000000,-1.8400040588062256,-1.8442560838954523,-1.8569726750859992
4,205,29194,-110.46698264032602,45,3.9256824888288975,0.034205457719817624,10,29194,1000000,-2.5108983989804985,-2.506515735760331,-2.5388993553817274
4,206,29239,-108.78294584155083,45,3.8037148773670197,0.03401582343885076,10,29239,1000000,-2.6356077291071416,-2.6654317170381545,-2.6716470710933207
4,207,29284,-110.55700935423374,45,3.624601700901985,0.03387392202381328,10,29284,1000000,-3.036547675728798,-3.0466459900140763,-3.0574110060930253
4,208,30032,-185.78019032347947,748,3.4343306098435376,0.03374687609268211,10,30032,1000000,-2.338442622678908,-2.34393944693981,-2.3504386184485377
4,209,30078,-106.98067591525614,46,4.263408672809601,0.03399450283211011,10,30078,1000000,-2.961834505572915,-2.903933975100517,-2.922003937885165
4,210,30141,-102.96830249764025,63,2.900663693745931,0.03386423840397104,10,30141,1000000,-2.4052234299480917,-2.423272507513563,-2.419176483651002
4,211,30202,-103.28641855344176,61,3.2932962000370027,0.03373383381045782,10,30202,1000000,-2.3446951121091844,-2.3421639618774255,-2.345282922188441
4,212,31251,-207.25782345677726,1049,3.127888445986005,0.03363904763978941,10,31251,1000000,-2.4843292425028407,-2.491417347847556,-2.4972427329549998
4,213,31293,-111.14028938114643,42,2.999815195798874,0.03364389567671578,10,31293,1000000,-2.4837870098650456,-2.4912569865584375,-2.500289250165224
4,214,31356,-109.28996886312962,63,2.395115236441294,0.03354296315298543,10,31356,1000000,-2.2264356230696043,-2.233834489186605,-2.2241254558165866
4,215,31398,-111.02311149984598,42,2.3128601372241975,0.033436986666600235,10,31398,1000000,-2.800885007530451,-2.8046678394079207,-2.8035290777683257
4,216,31440,-110.44526608288288,42,3.646486836671829,0.03333390157852994,10,31440,1000000,-2.4004897132515906,-2.4178259864449503,-2.426626418158412
4,217,31481,-111.35925607383251,41,3.2732222750782967,0.03323733737397064,10,31481,1000000,-2.3589408680796624,-2.346526487916708,-2.3683319576084614
4,218,31524,-110.76791463140398,43,2.5289819478988647,0.03315426985952046,10,31524,1000000,-1.7944620601832866,-1.7824563376605511,-1.772996348515153
4,219,31566,-111.22040692716837,42,2.1647512912750244,0.033049552701918415,10,31566,1000000,-1.6800268568098544,-1.6762139216065406,-1.69601683691144
4,220,31609,-110.52433421090245,43,2.9663327664136885,0.032970754613438596,10,31609,1000000,-1.9496405228972435,-1.9593177516013385,-1.9479811813682317
4,221,31652,-111.3315492644906,43,3.828884956240654,0.03287167135918851,10,31652,1000000,-1.6817711386829615,-1.7081026881933212,-1.699547878652811
4,222,31691,-112.55924274027348,39,2.849260898431142,0.03278470350919054,10,31691,1000000,-1.7909152309099834,-1.7430389483769735,-1.7917284061511358
4,223,31734,-110.72750472277403,43,3.081049358099699,0.032694489120185216,10,31734,1000000,-2.1276649296283723,-2.1437074400484564,-2.1454476311802866
4,224,31774,-112.17455834150314,40,3.3381917610764504,0.032623083016211744,10,31774,1000000,-2.194695755839348,-2.224580878019333,-2.227096446603537
4,225,31817,-111.22544667869806,43,3.828622613847256,0.03253488978871735,10,31817,1000000,-2.239023368805647,-2.2224885649979114,-2.240840473771095
4,226,31858,-109.25880989804864,41,3.8258625313639643,0.032446691310734195,10,31858,1000000,-1.9859276741743088,-2.0241157595068215,-1.9902437418699264
4,227,31898,-111.24261996150017,40,2.5320982575416564,0.03236459702633882,10,31898,1000000,-1.407932560890913,-1.4182672463357449,-1.4194912869483232
4,228,31940,-111.92326419055462,42,2.3546062536537646,0.0322742207897126,10,31940,1000000,-1.6907164685428142,-1.6931863952428103,-1.7001387422904373
4,229,31980,-112.35368825495243,40,2.224993847310543,0.03221238540805956,10,31980,1000000,-2.125464480370283,-2.1118383809924124,-2.1163942631334067
4,230,32019,-112.1216898933053,39,3.2395845303932824,0.03212925126996412,10,32019,1000000,-1.9062294537822406,-1.9335916245977083,-1.9570979366699854
4,231,32190,-136.52499137073755,171,2.9977379430742825,0.032041235182682676,10,32190,1000000,-2.1109074944958968,-2.1039067324470073,-2.1101772025227548
4,232,32233,-108.45535532385111,43,2.6625735096633436,0.03200444670915604,10,32233,1000000,-1.844899721071124,-1.8121046848595141,-1.8690663050860166
4,233,32272,-111.96343667060137,39,2.736716331044833,0.03190060973366102,10,32272,1000000,-1.5130800823370616,-1.510838231444359,-1.5149888585011164
4,234,32312,-109.43565426021814,40,3.017075780034065,0.031823487144219814,10,32312,1000000,-2.002107857167721,-1.9825565651059152,-2.0015457183122636
4,235,32355,-109.30758804827929,43,2.9202792301774023,0.03174072560711355,10,32355,1000000,-2.4821592144668103,-2.4275154557079075,-2.4624905243515967
4,236,32395,-109.77436224371195,40,2.567921143770218,0.031668050565495695,10,32395,1000000,-2.2701700374484064,-2.2522254213690758,-2.2586462773382663
4,237,32435,-111.47530575096607,40,2.3798216015100477,0.031591384899285105,10,32435,1000000,-2.0117872152477503,-2.0032251060009,-2.0218196764588354
4,238,32476,-110.88029903173447,41,3.0437001138925552,0.031517694649045115,10,32476,1000000,-1.851427561044693,-1.8370162284001708,-1.8278057837858797
4,239,32516,-111.21066176891327,40,2.759216472506523,0.031434049890943304,10,32516,1000000,-2.2222686991095544,-2.247246915102005,-2.2555783800780773
4,240,32607,-119.83878100849688,91,2.802854620085822,0.03135734276058949,10,32607,1000000,-2.191910316629542,-2.191375138527817,-2.1804594821400114
4,241,32649,-110.5929973423481,42,2.7138273492455482,0.03131826173152354,10,32649,1000000,-1.9582892291247844,-1.9577150657773017,-1.9710191071033478
4,242,32691,-110.87690806388855,42,2.4427612610161304,0.031237876228499287,10,32691,1000000,-2.341259226202965,-2.344918355345726,-2.343720003962517
4,243,32732,-110.76460012048483,41,2.486032362282276,0.03114934641173662,10,32732,1000000,-2.4087920796126125,-2.399700429290533,-2.3903844032436607
4,244,32776,-111.09155350923538,44,2.359110003709793,0.031070290232111462,10,32776,1000000,-2.958799471706152,-2.9644475281238556,-2.967299535870552
4,245,32818,-111.07786416262388,42,2.605788752436638,0.031013386617026604,10,32818,1000000,-2.347615085914731,-2.3556361265480517,-2.3823349818587305
4,246,32860,-110.33511778712273,42,2.329225002229214,0.03094396929858097,10,32860,1000000,-2.381482432410121,-2.350740549713373,-2.390191248059273
4,247,32946,-121.73966453038156,86,2.3131970308721064,0.030869886480892696,10,32946,1000000,-2.597423295862973,-2.5833844717592003,-2.6052740747109056
4,248,33003,-116.88612054288387,57,3.493383334875107,0.03080073742312379,10,33003,1000000,-3.066465939283371,-3.099748774766922,-3.0886474829912185
4,249,33074,-109.303749717772,71,2.3827435800007413,0.030729675893477786,10,33074,1000000,-2.919201662710735,-2.9141739595149243,-2.9257305149521144
4,250,33131,-113.53962226957083,57,2.473241078853607,0.030653193644043394,10,33131,1000000,-3.5695407128334047,-3.5672279715538027,-3.5710826230049135
4,251,33203,-120.84290700405836,72,3.0370328051703317,0.030587659955255746,10,33203,1000000,-3.046234115106719,-3.0521319987518445,-3.054675774702004
4,252,33261,-114.86620822548866,58,2.1481058210134507,0.030515996279142008,10,33261,1000000,-2.722573234438896,-2.7432976639270783,-2.7251856449246405
4,253,33317,-116.95946919173002,56,3.4549354392290117,0.030436933656687575,10,33317,1000000,-2.835815105140209,-2.868241903781891,-2.873940420150757
4,254,33373,-118.85247048735619,56,2.792391374707222,0.030365358444933706,10,33373,1000000,-2.7602562856674195,-2.725094324350357,-2.7492542201280594
4,255,33483,-105.55868939030915,110,3.139327494935556,0.030299030111577266,10,33483,1000000,-3.6943051181056283,-3.6951416459950535,-3.7189599297263407
4,256,33539,-116.46671215444803,56,2.7096833848953246,0.030196179983516536,10,33539,1000000,-3.2254962557554245,-3.212157691717148,-3.2304060816764832
4,257,33595,-116.69479124248028,56,2.3568915700912476,0.03013305284898093,10,33595,1000000,-3.6740519213676452,-3.631858900785446,-3.6592005914449692
4,258,33653,-118.25250335037708,58,3.1522160494327545,0.030042569361077312,10,33653,1000000,-3.9310507130622865,-3.9196641737222673,-3.921681170463562
4,259,33710,-115.9946910738945,57,3.8580536365509035,0.029968653623081043,10,33710,1000000,-3.6068737995624542,-3.565862613916397,-3.6014825546741487
4,260,33767,-117.15884786844254,57,2.9487852227687834,0.029886613284775623,10,33767,1000000,-4.173316645622253,-4.2050045716762545,-4.179735922813416
4,261,33825,-116.3431413769722,58,2.483035968542099,0.029816905923813353,10,33825,1000000,-3.87229217171669,-3.8480222606658936,-3.8772857081890106
4,262,33883,-116.19737756252289,58,2.1541710931062696,0.02973358950511825,10,33883,1000000,-4.174206358194351,-4.193206452727318,-4.187401373982429
4,263,33940,-115.20861159265041,57,2.8584604889154432,0.02965516981602919,10,33940,1000000,-4.173916569203138,-4.146701325178146,-4.185088338851929
4,264,33996,-115.84964880347252,56,2.949423905611038,0.029564947509818307,10,33996,1000000,-4.537107318639755,-4.524553886055946,-4.534433108568192
4,265,34056,-114.05475726723671,60,3.164864592750867,0.029465949200470038,10,34056,1000000,-4.678393298884233,-4.671282404164473,-4.667541665832202
4,266,34113,-114.69657410681248,57,3.1859468269348143,0.029411276561537185,10,34113,1000000,-4.751933715343475,-4.741525199413299,-4.761420953273773
4,267,34173,-117.14858813583851,60,1.9224350531895955,0.029324701430280705,10,34173,1000000,-5.142432478566964,-5.164018526673317,-5.168738334377607
4,268,34233,-116.87907294929028,60,2.217750412722429,0.02925139545815481,10,34233,1000000,-4.407267427444458,-4.373768436908722,-4.382667034864426
4,269,34505,-143.0211983975023,272,2.671308767464426,0.029166793390959126,10,34505,1000000,-5.160420764375616,-5.17457019791559,-5.173802126005844
4,270,34567,-112.15187736228108,62,2.0195414647459984,0.02901538018767365,10,34567,1000000,-5.409878085056941,-5.41422976454099,-5.409537374973297
4,271,34614,-110.97586587071419,47,2.155447055399418,0.028975599103687723,10,34614,1000000,-5.88758299946785,-5.8621040537953375,-5.8856446459889415
4,272,34659,-111.34605069458485,45,2.321532305330038,0.02890906569122532,10,34659,1000000,-5.7190561756491665,-5.716140148043633,-5.730367760360241
4,273,34705,-110.81146384775639,46,2.0333281315863134,0.028848758040019025,10,34705,1000000,-5.8529517412185665,-5.863997593522072,-5.884844386577607
4,274,34751,-110.47781939804554,46,3.453325741738081,0.02878672006137577,10,34751,1000000,-5.628585654497146,-5.6169942855834964,-5.6200905874371525
4,275,34800,-112.63233134150505,49,3.9868662372231483,0.02873511812017288,10,34800,1000000,-5.353476521372795,-5.329365031421185,-5.3599543765187265
4,276,34846,-109.482854783535,46,2.20383008569479,0.028683565268178043,10,34846,1000000,-6.355032730102539,-6.355849641561508,-6.327790987491608
4,277,34893,-111.21231296658516,47,2.2710877522826194,0.02862682247205692,10,34893,1000000,-5.571691108494997,-5.581932312250137,-5.595228204131127
4,278,34939,-109.97062863409519,46,2.0908874705433846,0.028563425835112437,10,34939,1000000,-6.4933239877223965,-6.48560950756073,-6.481183463335038
4,279,34984,-109.81645103543997,45,1.830057441443205,0.028508312639542947,10,34984,1000000,-6.513845810294152,-6.508889988064766,-6.500515401363373
4,280,35030,-108.88866276293993,46,2.116326978802681,0.028456800536015164,10,35030,1000000,-6.218620911240578,-6.217535877227784,-6.2251325190067295
4,281,35075,-109.33085709810257,45,3.1862533330917358,0.028390519950064082,10,35075,1000000,-6.030324268341064,-6.036974048614502,-6.019756719470024
4,282,35122,-111.51325252652168,47,2.2571879431605337,0.028340014595982514,10,35122,1000000,-6.303193353116512,-6.351130190491676,-6.306192058324814
4,283,35167,-109.38287223502994,45,3.204901398718357,0.028286232665144902,10,35167,1000000,-5.790124100446701,-5.7717857450246814,-5.7975385844707485
4,284,35213,-110.01511514931917,46,2.8931716993451118,0.028231737929466576,10,35213,1000000,-6.355465195327997,-6.348828375339508,-6.378694847226143
4,285,35285,-106.32249710243195,72,3.3635919473000935,0.02818660848205252,10,35285,1000000,-6.795109598977225,-6.800244665145874,-6.811328216961452
4,286,35678,-143.47257981821895,393,2.595545778519068,0.028128382525522345,10,35678,1000000,-6.9194031475446165,-6.9184992452462515,-6.922907877579713
4,287,36031,-139.92566451616585,353,2.616241995692253,0.027978357052702983,10,36031,1000000,-7.359856574109623,-7.367032868862152,-7.366526625880173
4,288,36186,-130.88759458623827,155,2.7796486930052438,0.02788558894945752,10,36186,1000000,-7.418551309903463,-7.390768752098084,-7.403164273897807
4,289,36378,-139.70746906334534,192,2.454550939798355,0.027844155303270824,10,36378,1000000,-7.517173004150391,-7.524126853440937,-7.524071039651569
4,290,36523,-120.41785341873765,145,2.8449026329176768,0.02779973696200221,10,36523,1000000,-7.699699370350157,-7.694883372102465,-7.695270480428423
4,291,36644,-102.21858414914459,121,3.0273175607124965,0.027770372708393654,10,36644,1000000,-7.914200143019358,-7.8980980257193245,-7.896743955214818
4,292,36917,-135.24486754834652,273,2.613595265370828,0.027717884834030846,10,36917,1000000,-7.522245366926547,-7.523993076218499,-7.527704639788027
4,293,37081,-119.324144275859,164,2.600316300243139,0.02765957011099629,10,37081,1000000,-7.391161260008812,-7.3950077928602695,-7.3934725522994995
4,294,37138,-106.77651829086244,57,2.7189005392789842,0.027645168996726473,10,37138,1000000,-7.6668058776855466,-7.666234302520752,-7.6615427160263065
4,295,37282,-127.07210927363485,144,3.1686051883867807,0.02761951545788639,10,37282,1000000,-7.83687915802002,-7.833726916142872,-7.851356647695813
4,296,37418,-121.1877252003178,136,2.618061210100467,0.027621719986200333,10,37418,1000000,-7.777737258030818,-7.785392106496371,-7.776928831980778
4,297,37546,-109.77798726619221,128,2.137084081272284,0.027602469637887934,10,37546,1000000,-8.263899167378744,-8.261332295338313,-8.257092026869456
4,298,39146,-16.710909557063133,1600,2.399760627001524,0.02760271492443945,10,39146,1000000,-8.26546290729195,-8.269891823120416,-8.271942141540348
4,299,40746,-76.84983809577534,1600,2.12071400238201,0.028076095803918545,10,40746,1000000,-8.855853419043124,-8.853716986738146,-8.855800102725626
4,300,42346,-37.43555760500021,1600,2.0670186179876326,0.027853089248453047,10,42346,1000000,-9.257791857421399,-9.264974495619535,-9.26136920467019
4,301,43946,-49.371901295147836,1600,1.9952977330610155,0.027620443966653613,10,43946,1000000,-9.454232135266066,-9.452712623029948,-9.45438120663166
4,302,45546,-95.41346869338304,1600,1.8391948755644263,0.027688352874031773,10,45546,1000000,-9.578331850618124,-9.576304592043162,-9.575806876569986
4,303,47146,-139.2915426492691,1600,1.8434230509027838,0.02682853616254927,10,47146,1000000,-9.206670085852966,-9.209213681947439,-9.209318494480103
4,304,48746,-135.0546787600033,1600,1.7987252847850324,0.025973735649165684,10,48746,1000000,-8.713774763830006,-8.718447502851486,-8.716809820421041
4,305,50346,-138.24814850464463,1600,1.748910654950887,0.025203466891850296,10,50346,1000000,-8.139649687744678,-8.14045806467533,-8.138524074405431
4,306,51946,-115.7041500476189,1600,1.8666240455769003,0.02463184632994488,10,51946,1000000,-7.389725455790758,-7.38297038666904,-7.387806907966733
4,307,53546,-94.03746936307289,1600,1.9408013632893562,0.024495442333960102,10,53546,1000000,-6.510862929588184,-6.5098240182269365,-6.511899165436626
4,308,55146,-103.21975567622576,1600,1.8379001083876938,0.024664162787975688,10,55146,1000000,-5.542728021927178,-5.542774600731209,-5.544111467879265
4,309,56746,-112.3275898048887,1600,1.7297420000936836,0.024600572965519374,10,56746,1000000,-4.9547670490155,-4.954536225823685,-4.956486457642168
4,310,58346,-108.62695125257596,1600,1.7030911294557154,0.02452080915450241,10,58346,1000000,-4.296526713347994,-4.292177056474611,-4.296636725394055
4,311,59946,-101.31796023598872,1600,1.5109780788421632,0.02405533140932761,10,59946,1000000,-3.562011912888847,-3.564441938204691,-3.567624670751393
4,312,61546,-107.04035462159663,1600,1.4519109227415175,0.023909661014620054,10,61546,1000000,-3.22167069779709,-3.223817680585198,-3.2254830064787527
4,313,63146,-103.13173146080226,1600,1.531187836593017,0.023634605600188176,10,63146,1000000,-2.730815799431875,-2.7306588139757513,-2.731614556214772
4,314,64746,-84.78326994040981,1600,1.478780528595671,0.0231859266091653,10,64746,1000000,-2.502900454942137,-2.5061176487011836,-2.5042061092332006
4,315,64952,-113.11032976259594,206,1.1938842380791903,0.022953193004997003,10,64952,1000000,-2.103222637027502,-2.1022452339157462,-2.106906199082732
4,316,66552,-83.22227062075399,1600,1.341733847046271,0.02292694298351706,10,66552,1000000,-1.6358394094975666,-1.636745306449011,-1.6387478621397167
4,317,68152,-55.35325272748014,1600,1.2960838725231587,0.02321826123142258,10,68152,1000000,-0.9557290777005255,-0.9554613341204822,-0.9564428065065295
4,318,69044,-133.92324455094058,892,1.179886291736967,0.023084902386169386,10,69044,1000000,-0.44356919788242727,-0.44574847067340034,-0.4449411529419797
4,319,69162,-102.41777143906802,118,1.6205013200640679,0.023077620857174807,10,69162,1000000,-0.18954119777137582,-0.1998047528619116,-0.2004298076033592
4,320,69210,-105.34078673273325,48,2.8310800805687903,0.02298673569581207,10,69210,1000000,-0.25201780200004575,-0.2832427520304918,-0.2711920738220215
4,321,69279,-99.70341939572245,69,1.1892408825457097,0.022903254295204893,10,69279,1000000,0.25398449500401815,0.238808440665404,0.24087107827266058
4,322,69343,-100.69162937160581,64,1.184034706900517,0.02282067814864862,10,69343,1000000,-0.16499919667840005,-0.17795405735572178,-0.1708541214466095
4,323,69389,-102.6024166252464,46,1.121873452886939,0.022761383599337236,10,69389,1000000,0.6710147447884083,0.6802060343325138,0.6797228395938874
4,324,69440,-103.1471446249634,51,1.08150642901659,0.02270087951594943,10,69440,1000000,-0.01616560488939285,-0.011253430843353271,-0.020491546988487243
4,325,69511,-103.47243166342378,71,1.1772898937974656,0.02263225460239442,10,69511,1000000,0.6879874323095594,0.682302421757153,0.6884293964930943
4,326,69566,-101.63762797415257,55,1.0702720841765403,0.02258402034479937,10,69566,1000000,0.25982844591140747,0.26409172743558884,0.2668951550126076
4,327,69623,-101.00733317714185,57,1.0448913231492043,0.022527489144478777,10,69623,1000000,-0.2339097288250923,-0.23264519333839417,-0.24008715331554412
4,328,71223,-120.49186829384416,1600,1.1939457526430488,0.022477696888231265,10,71223,1000000,0.23604905051644892,0.2379802285390906,0.23321915273321792
4,329,71300,-102.64114434085786,77,1.17982144930533,0.022783233781012414,10,71300,1000000,0.3809703667248998,0.39696026146411895,0.3757811616574015
4,330,71377,-99.32075172849,77,1.8873277517301696,0.022666568385897208,10,71377,1000000,0.607187626191548,0.6003392560141427,0.6170314818620681
4,331,71455,-99.69491118937731,78,1.1581803958330836,0.022611279488815892,10,71455,1000000,0.8081582099199295,0.8208596472229276,0.8162154084869794
4,332,71514,-103.29380228370428,59,1.1092657327651978,0.022549364675312628,10,71514,1000000,0.48196254834532737,0.47577655255794526,0.4736897285282612
4,333,71569,-102.7085608355701,55,1.5942507237195969,0.02249534363450044,10,71569,1000000,1.1948263716697693,1.2089773172140121,1.1933538156747818
4,334,71627,-100.84142483118922,58,1.1587456938624383,0.022457347697218973,10,71627,1000000,0.874477322101593,0.8762182015180587,0.872810282111168
4,335,71685,-101.72419258672744,58,1.2893647372722625,0.022412327519676947,10,71685,1000000,1.2566700702905655,1.2432322984933852,1.260416345000267
4,336,71745,-102.6791337793693,60,1.268348001440366,0.022379306560559642,10,71745,1000000,0.46486555685599645,0.45274454255898794,0.46710473448038103
4,337,71801,-103.02313321828842,56,1.3958340245485306,0.02234056653344028,10,71801,1000000,-0.09660329043865204,-0.10300815343856812,-0.10101380288600921
4,338,71863,-102.00340219587088,62,1.0601555752257505,0.022298371948168746,10,71863,1000000,0.20831087920814753,0.24124861198167005,0.2231392809500297
4,339,71928,-102.42066828161478,65,2.2694777014354863,0.022272208091758547,10,71928,1000000,0.4170562436183294,0.42213306824366253,0.41916873802741367
4,340,71981,-101.88761228322983,53,1.29818521797657,0.02224211620876477,10,71981,1000000,0.501844836473465,0.46572595834732056,0.4971113380789757
4,341,72054,-110.10690753906965,73,1.1074723286288126,0.022214633696585506,10,72054,1000000,0.537545385318143,0.5502687526600701,0.5499192984508616
4,342,73654,-65.22036038106307,1600,1.3327968011051416,0.022238245802629886,10,73654,1000000,0.24191771323792635,0.2375116579956375,0.23862860728055238
4,343,73721,-114.37789785861969,67,1.037461543828249,0.022631442156575976,10,73721,1000000,0.30769842366377514,0.3007931560277939,0.30504158288240435
4,344,73791,-110.90876119956374,70,1.1263896876147814,0.0225898726251621,10,73791,1000000,0.23165979396019662,0.25202028389487946,0.2379441254905292
4,345,73871,-121.6261065416038,80,1.402111034281552,0.02261522697388298,10,73871,1000000,0.23361721429973842,0.23861878886818885,0.222385642118752
4,346,73923,-102.3782990835607,52,2.1977898645401,0.02264384841589533,10,73923,1000000,0.7574884644150734,0.762452894449234,0.7603254543244838
4,347,73979,-104.07965665496886,56,1.1039831337332726,0.022550280512465784,10,73979,1000000,0.8980208945274353,0.9112350931763649,0.9064949482679368
4,348,74077,-104.83765480760485,98,1.1259104369415178,0.02249797248169435,10,74077,1000000,0.614278382062912,0.6037114863594373,0.6056493154830402
4,349,74150,-119.23721453920007,73,1.110428249835968,0.022480197008935502,10,74150,1000000,0.4144989877939224,0.413290798664093,0.4089666281427656
4,350,75750,-68.66368060139939,1600,1.269812046373263,0.022432504483899305,10,75750,1000000,0.5116388699132949,0.5110715668275952,0.5091505643283017
4,351,77350,-80.6287254395429,1600,1.2891727163549513,0.022394685098259464,10,77350,1000000,0.5443002552725374,0.542414103737101,0.5428277545375749
4,352,78950,-37.66189001407474,1600,1.3196276447642594,0.02246380682631702,10,78950,1000000,0.8244679727451876,0.8298393548419699,0.8256976947141811
4,353,80550,-42.04500056721736,1600,1.3272132387012243,0.022710924415579026,10,80550,1000000,1.2239835684001446,1.223755157305859,1.222135954652913
4,354,82150,-142.74863961338997,1600,1.3817444550059736,0.022953088640486487,10,82150,1000000,1.8561904205847533,1.8572536097234116,1.852895117327571
4,355,83750,-138.90907073020935,1600,1.3993549955356865,0.022521342580439523,10,83750,1000000,2.265298376698047,2.2653634332912045,2.2614917103666814
4,356,83792,-106.70850601419806,42,1.3276467327028514,0.022062764611098986,10,83792,1000000,2.424374394863844,2.4200358904898165,2.403135111182928
4,357,85392,-44.82624241989106,1600,1.3422144367545843,0.021995013009920093,10,85392,1000000,3.0752184362895787,3.072639469364658,3.069481369012501
4,358,85449,-119.8173714056611,57,1.1904193142056465,0.0221872355664024,10,85449,1000000,3.2291576290130615,3.234512821435928,3.2231147462129592
4,359,85487,-106.64525275677443,38,1.1225984205802282,0.022129483336398192,10,85487,1000000,3.1561747595667837,3.1491571803887686,3.156591871380806
4,360,85541,-113.5736194550991,54,1.1820819425582885,0.022082601798263875,10,85541,1000000,3.6555201506614683,3.6621345937252046,3.646740077137947
4,361,85590,-115.45005467534065,49,1.2326929852366448,0.022041879342813157,10,85590,1000000,4.124221870303154,4.127681317925453,4.122176641225815
4,362,85632,-106.56529898196459,42,1.2987609021365643,0.021990082344921405,10,85632,1000000,3.6344227850437165,3.6315975442528723,3.6406808257102967
4,363,85697,-116.93188511580229,65,1.4966643502314885,0.021948400051881395,10,85697,1000000,3.960991578797499,3.966368720928828,3.9559526666998863
4,364,85740,-107.08894720487297,43,1.433511871099472,0.021910405976552805,10,85740,1000000,3.7295797295868396,3.7443050988018514,3.719805899262428
4,365,85775,-106.98916643857956,35,1.7076541284720104,0.021879971024957662,10,85775,1000000,3.313389660914739,3.2939278821150464,3.2996011435985566
4,366,85857,-122.34045933268499,82,1.2357444055378437,0.021833531989424088,10,85857,1000000,3.750367126613855,3.7410681035369633,3.7441088538616896
4,367,85903,-105.88793210685253,46,2.640231350809336,0.02180300950429481,10,85903,1000000,3.5739168390631675,3.595642317086458,3.5735287219285965
4,368,85986,-124.90490701887757,83,1.3505879111588002,0.02176698656205959,10,85986,1000000,3.034649460017681,3.023527442291379,3.026339911669493
4,369,87586,-135.84458952210844,1600,1.4151173631474376,0.021732662936199958,10,87586,1000000,3.292429056139663,3.295674049584195,3.2944922053534538
4,370,89186,-116.63585294410586,1600,1.422928172647953,0.02148943809287706,10,89186,1000000,3.036827016500756,3.0350359133863822,3.034377525576856
4,371,89266,-117.41006496921182,80,1.3313958380371331,0.021108160073908182,10,89266,1000000,3.052539661899209,3.0615208476781843,3.0484465584158897
4,372,90866,-60.11043841106584,1600,1.4189384635072202,0.02106018565984093,10,90866,1000000,2.8424475938966496,2.8436580903362483,2.8416432647779586
4,373,92466,-106.19234038889408,1600,1.264359179046005,0.021227053659327904,10,92466,1000000,2.727775465818122,2.726945978179574,2.724989611618221
4,374,92539,-115.2831000527367,73,1.0647447686110223,0.020871548422217535,10,92539,1000000,2.592293128796986,2.5900256088801794,2.5888348132371903
4,375,94139,-67.79671097919345,1600,1.200072128297761,0.020842310903372033,10,94139,1000000,2.54706081578508,2.546968855573796,2.545915744472295
4,376,95739,-101.33885712665506,1600,1.2451920748315752,0.021296176739835554,10,95739,1000000,2.5185373744857498,2.521074867504649,2.51572230206104
4,377,97339,-112.89228987321258,1600,1.3020581793691963,0.020932013876702873,10,97339,1000000,2.505513584213331,2.5075783766526727,2.505396534986794
4,378,98939,-116.24448578432202,1600,1.3131219966802745,0.02058618654480629,10,98939,1000000,2.3949051962955856,2.3958529702201488,2.39640936546959
4,379,100539,-113.60242514591664,1600,1.3262880419474095,0.02026138473189531,10,100539,1000000,2.307648844872601,2.3047987153520806,2.3053807796444743
4,380,102139,-103.71454618871212,1600,1.2798554307501764,0.01992919208279171,10,102139,1000000,2.385587266457733,2.3867764325812457,2.383692381074652
4,381,102260,-132.15013794973493,121,1.6248887977252404,0.01961280901867965,10,102260,1000000,2.3703583219399054,2.379452137897412,2.372488677004973
4,382,103860,-103.43344814283773,1600,1.2885384351294489,0.019574490601450528,10,103860,1000000,2.5060197091498413,2.502722538644448,2.5039737497176975
4,383,105460,-46.37251470622141,1600,1.2481944205611943,0.01930104194523253,10,105460,1000000,2.3919872965756803,2.3910047263186427,2.3893578954879193
4,384,105534,-117.77976704295725,74,1.0192874836070196,0.019734457826025828,10,105534,1000000,2.045152391706194,2.041463458112308,2.0439858683518
4,385,105621,-114.61880731768906,87,1.1708042357116937,0.01969727427626336,10,105621,1000000,2.883874378353357,2.902959905192256,2.9070616114884613
4,386,107221,-85.84466251474805,1600,1.1760376100428402,0.019661854322348696,10,107221,1000000,2.462935214466415,2.465943409334868,2.461583663658239
4,387,108821,-92.12153436033987,1600,1.239734331765212,0.02004015675777097,10,108821,1000000,2.2421684703812934,2.2450088420510292,2.2408762432821097
4,388,110421,-80.87362461490557,1600,1.0625375020969658,0.02039009998563458,10,110421,1000000,2.182255053804256,2.1812457726011054,2.1794250839622693
4,389,110478,-112.39331526309252,57,0.9419818976521492,0.02069142557614341,10,110478,1000000,2.2162183594703673,2.2209118938446046,2.2218502205610275
4,390,112078,-81.12312545767054,1600,1.1650941892294213,0.020631298504061046,10,112078,1000000,2.054876494864002,2.0561560653243216,2.052171234745765
4,391,112168,-112.96649588178843,90,1.4754588844875494,0.020953629961809887,10,112168,1000000,2.0365789456499948,2.0404026803043154,2.044449770781729
4,392,112227,-110.62352599948645,59,1.0097048497200012,0.02089735243364579,10,112227,1000000,2.1022992408275605,2.0989161229133604,2.0933807265758513
4,393,112287,-109.24457696825266,60,1.0967298703889052,0.02085272382981678,10,112287,1000000,2.1928745955228806,2.195534362643957,2.198491182178259
4,394,113887,-98.75404669670388,1600,1.078537057088688,0.020803660643960335,10,113887,1000000,1.8985045175836421,1.8985647655744105,1.89806239412399
4,395,113967,-121.17969950288534,80,1.1701031181961299,0.021055665899728154,10,113967,1000000,1.7713403832167387,1.7651767019182443,1.762553622573614
4,396,114024,-109.14398397691548,57,1.1887318244576455,0.021018728058408487,10,114024,1000000,1.4589215511083602,1.4737664359807967,1.4760122987627984
4,397,115624,-89.62088311044499,1600,1.0492104444373398,0.020967843465590746,10,115624,1000000,1.52900016406551,1.5258506843307986,1.5267297065677121
4,398,117224,-94.19801588566042,1600,0.9810946419881656,0.021173534548241873,10,117224,1000000,1.2925891974801198,1.2940371905267238,1.2923242504475638
4,399,118824,-87.63175614923239,1600,0.9582279144646599,0.021368407989009117,10,118824,1000000,1.3118329446204007,1.311591551695019,1.3113162032188848
4,400,120424,-95.35215114033781,1600,1.094130535502918,0.021487911253493152,10,120424,1000000,1.6893778774235397,1.6897291247267276,1.6867778244707734
4,401,122024,-104.70429000537843,1600,1.0002367412718014,0.021605548559694637,10,122024,1000000,1.8001572323055006,1.800781938964501,1.8000085750501602
4,402,123624,-97.3527001729235,1600,1.0258407639479266,0.021672589584783304,10,123624,1000000,1.761299594817683,1.763469692794606,1.7607312271092086
4,403,125224,-84.75544137565885,1600,0.9770973137998954,0.021781879213907823,10,125224,1000000,1.84058808370959,1.840465210916009,1.8392246559867635
4,404,126824,-32.89452515775338,1600,0.9309186569415033,0.021881773972905406,10,126824,1000000,1.9696638454776256,1.9677545082522556,1.9698017188394443
4,405,128424,-29.241887751501054,1600,0.9400291853910312,0.022047862805651897,10,128424,1000000,2.0612184788798915,2.0617308450257408,2.0595583916828035
4,406,130024,-1.747097721323371,1600,0.9637945079756901,0.022156611669880505,10,130024,1000000,2.1381726294336842,2.1373759153019636,2.1375355963315816
4,407,130696,-100.74511411879212,672,0.8764107558375864,0.022283333269322022,10,130696,1000000,2.1199587829967044,2.118503937936986,2.1190663266537793
4,408,131448,-112.8880912438035,752,0.8762637532254061,0.02225811846931678,10,131448,1000000,2.2226370504895847,2.22106928306818,2.220280988395214
4,409,132481,-119.96241064928472,1033,0.9125582316908443,0.022335790721741956,10,132481,1000000,2.3953366076772653,2.398049965674437,2.394328730509987
4,410,134081,-21.78067743824795,1600,0.8530524010350927,0.022356906105949755,10,134081,1000000,2.5528574431361633,2.5500475453259424,2.5507364898361264
4,411,135681,-77.31174656422809,1600,0.9307419575098902,0.022413736911831274,10,135681,1000000,2.818746328195557,2.824099843958393,2.819527717940509
4,412,137281,-62.78524919913616,1600,0.947012604852207,0.022449014666343824,10,137281,1000000,2.9263289520912803,2.928455777023919,2.9263016380975024
4,413,138686,-172.50749337673187,1405,0.9022970710269043,0.02248258837904151,10,138686,1000000,2.9780011542620404,2.9722724581296953,2.9733250764384866
4,414,138850,-109.51601668726653,164,1.4336856999900192,0.02248269041411427,10,138850,1000000,3.200436088256538,3.1957412424031646,3.1962239992339163
4,415,140450,-90.10685991751961,1600,0.833505896423012,0.022437813091532845,10,140450,1000000,3.3127909751050173,3.3139078177977352,3.3135617374721913
4,416,142050,-82.81467734579928,1600,0.8367087820102461,0.02242289645010447,10,142050,1000000,3.385069160666317,3.3869459644611926,3.3847021150402723
4,417,143650,-95.98631772072986,1600,0.8828272162657231,0.022384670107355332,10,143650,1000000,3.454773610038683,3.455536447931081,3.4555286817625164
4,418,145250,-92.82238386175595,1600,0.8298122602375224,0.022338262399568914,10,145250,1000000,3.5030862780939787,3.505063721816987,3.502275589136407
4,419,146850,-86.18265206494834,1600,0.7910817986167967,0.022309254517538943,10,146850,1000000,3.738124756524339,3.7360532814916225,3.7338646544516085
4,420,148450,-80.02524766512215,1600,0.9130269649252295,0.02227988782934216,10,148450,1000000,3.8684834533557297,3.8658304890431463,3.8638602385949343
4,421,150050,-83.8063852021005,1600,0.8666633062064648,0.022286404861018242,10,150050,1000000,3.9646774071641264,3.9676733274571596,3.9650341679062695
4,422,151650,-113.44722954346798,1600,0.829191243420355,0.022342144353982733,10,151650,1000000,3.8729144966974856,3.8727699863817544,3.8734514127112925
4,423,153250,-124.20890666218475,1600,0.8501516970945522,0.022242031060788477,10,153250,1000000,3.94314154908061,3.9447785614058377,3.942902782931924
4,424,154850,-109.17078900244087,1600,0.8902039397740736,0.02212008947357037,10,154850,1000000,3.847763950973749,3.8512269434519113,3.845117617214564
4,425,156450,-117.50585766823497,1600,0.7914235935546458,0.0220372821641243,10,156450,1000000,3.8642356379330156,3.8652058833092453,3.8623260361049323
4,426,158050,-120.13950309413485,1600,0.7854960507387295,0.021929919901184546,10,158050,1000000,3.8562658230029045,3.855281985080801,3.855916003957391
4,427,159650,-123.86376585322432,1600,0.7783980978559703,0.021842123391755782,10,159650,1000000,3.815352678466588,3.8129123084247114,3.814553493671119
4,428,161250,-130.73934860015288,1600,0.8465750162117183,0.02173948363795151,10,161250,1000000,3.637918170299381,3.63698936579749,3.6380318557843565
4,429,161301,-112.870590146631,51,0.7835146942734719,0.02161827719467828,10,161301,1000000,3.3688049399852753,3.3821416443586347,3.374043942689896
4,430,162901,-132.2065654429607,1600,0.7851248253090307,0.021577747553370143,10,162901,1000000,3.759976009717211,3.7587023674324156,3.759064392764121
4,431,164501,-124.48330477741547,1600,0.7810493684466928,0.021460578121553397,10,164501,1000000,3.7863291784282773,3.787011663811281,3.7828873098548503
4,432,166101,-118.44106544018723,1600,0.7809986832225695,0.02135168769805927,10,166101,1000000,3.7459502328839154,3.747082658782601,3.744165912559256
4,433,166206,-91.72112203389406,105,0.5990255570411682,0.021289675173238532,10,166206,1000000,3.8837453353405,3.8749190127849578,3.881160088777542
4,434,167806,-101.03566939546727,1600,0.8013230993039906,0.02124913979051936,10,167806,1000000,3.7548291433788834,3.7570161361526697,3.752515436550602
4,435,169406,-75.84197281720117,1600,0.7765488740988076,0.021219796890312326,10,169406,1000000,3.832427387489006,3.833195920130238,3.8320695294253526
4,436,171006,-112.09142287215218,1600,0.9001063113240525,0.021101483707919724,10,171006,1000000,3.836312347352505,3.837593347588554,3.836098475884646
4,437,172606,-97.51681239320897,1600,0.7424131723027676,0.020939526872719633,10,172606,1000000,3.740127055766061,3.7395749500626696,3.739525168747641
4,438,174206,-105.86010794271715,1600,0.8069698228361085,0.02095115043795884,10,174206,1000000,3.8061697095632554,3.803612719364464,3.803256140574813
4,439,175806,-93.69772140553687,1600,0.8196122442604974,0.020941474173747587,10,175806,1000000,3.9217615108937025,3.9214122935198246,3.920055096168071
4,440,177406,-54.02844385197386,1600,0.771306987889111,0.020813737079262214,10,177406,1000000,3.839806646257639,3.8406036730110644,3.8390470857732
4,441,177490,-98.43151340447366,84,0.6614620294421911,0.020800869325391217,10,177490,1000000,3.8948090452700854,3.8955598160624505,3.905372476577759
4,442,177617,-109.1571815898642,127,0.707168166215221,0.02074724397872462,10,177617,1000000,3.912149843076865,3.9206705699364344,3.925892901917299
4,443,177696,-104.07791909016669,79,0.7296389860766275,0.020702337071625672,10,177696,1000000,3.8935583778790064,3.8682817220687866,3.893699451855251
4,444,177758,-107.0876925829798,62,0.8498568814247847,0.02066135479318019,10,177758,1000000,3.8470317920049033,3.856528717279434,3.850285779436429
4,445,177827,-107.41887869499624,69,0.5851824805140495,0.02062004697003637,10,177827,1000000,3.879426502684752,3.8811316192150116,3.8867429862419764
4,446,177925,-105.99436129629612,98,0.7021458285550276,0.02058965661710595,10,177925,1000000,3.7343801114294264,3.745887518591351,3.739265520042843
4,447,179525,-19.974550019484013,1600,0.7409962933487259,0.020555170800277797,10,179525,1000000,3.789667438843753,3.7901354279275985,3.7902329655457287
4,448,181125,-35.00263984396588,1600,0.6856202160287649,0.020640218465779857,10,181125,1000000,3.6433686394244433,3.6448100299574433,3.643126114271581
4,449,182725,-51.30414013261907,1600,0.6739782652817666,0.020695093775388487,10,182725,1000000,3.476702005304396,3.4795841381233186,3.4795407528337092
4,450,184325,-44.40782862249762,1600,0.7063327301805838,0.020724089800799463,10,184325,1000000,3.4360821102373302,3.4361471110302957,3.437576930709183
4,451,184668,-121.38062571873888,343,0.6787014565485365,0.020782785623989723,10,184668,1000000,3.5862537944141555,3.5916089913424325,3.5864233855815493
4,452,186268,-21.521989814937115,1600,0.7230671104602515,0.02074860859080164,10,186268,1000000,3.3425436386279763,3.344100464936346,3.3418872728291897
4,453,186454,-132.3005463052541,186,0.6028497602790595,0.020827930478455138,10,186454,1000000,3.550128083427747,3.5444434063302146,3.54757153722975
4,454,187057,-122.05572474515066,603,0.7168405050039292,0.02078444039902817,10,187057,1000000,3.433828688636422,3.4456699063132206,3.439636362356444
4,455,188515,-60.36592394672334,1458,0.6583811038886679,0.02075278124971885,10,188515,1000000,3.4265766536675653,3.428776819109917,3.4257969161970863
4,456,190115,85.78127295844024,1600,0.6203923977306113,0.02080616478722178,10,190115,1000000,3.3903954158723355,3.3911981915775686,3.38954566818662
4,457,190262,-116.39358566515148,147,0.8724730765180928,0.02079599606047275,10,190262,1000000,3.348457995057106,3.347536112793854,3.3470614731311796
4,458,190962,-105.33552993997,700,0.6872149500516909,0.02075269385727733,10,190962,1000000,3.3771860963531903,3.37256867063897,3.3716881722637586
4,459,192562,27.56558154243976,1600,0.706067904822994,0.020737004729792043,10,192562,1000000,3.4436777464393526,3.4433731642318888,3.441915740587283
4,460,193376,-73.31034010113217,814,0.6505085096821005,0.02075556781149555,10,193376,1000000,3.4727952196274274,3.4706397076815736,3.470720231477861
4,461,193554,-115.55932758003473,178,0.6227816366535776,0.02073090232365968,10,193554,1000000,3.6255479228847167,3.6252384850207497,3.616220781733008
4,462,193610,-112.67315489053726,56,0.7473298586905003,0.020696557346136825,10,193610,1000000,3.742853262424469,3.749069137573242,3.7409291291236877
4,463,194410,-104.93609806103632,800,0.809403803255409,0.02065280785043338,10,194410,1000000,3.6030906686000526,3.602298815045506,3.601526588127017
4,464,194509,-125.19399551302195,99,0.579802299125327,0.02067040563231767,10,194509,1000000,3.381007794539134,3.3694251557191213,3.3783433033360377
4,465,194623,-115.27964399475604,114,0.7357005740431222,0.02062756142010082,10,194623,1000000,3.5744549680839883,3.553174638748169,3.5635267848318275
4,466,194821,-129.68536060955375,198,0.7220057395728011,0.020588662268822652,10,194821,1000000,3.7259104069910554,3.7205701746438677,3.7200769452672255
4,467,196421,-68.32239495334215,1600,0.7098586327163503,0.020557023132276205,10,196421,1000000,3.656934583261609,3.6559006811399013,3.6559127425588667
4,468,196483,-116.18354395776987,62,0.6062931104252736,0.02053328543838303,10,196483,1000000,3.715028567115466,3.7076531360546747,3.711424418290456
4,469,197108,-90.77489890152356,625,0.6771138555039802,0.020492655591798806,10,197108,1000000,3.6591783794183885,3.6578787626518356,3.657319894312851
4,470,197192,-115.4230395052582,84,0.6409470272250474,0.020473302673188365,10,197192,1000000,3.7990922532975673,3.8048501327633857,3.798194146901369
4,471,197567,-94.06153304968029,375,0.6475273129907815,0.02044486158458895,10,197567,1000000,3.640281012895945,3.637878848894222,3.6393696736645054
4,472,199167,37.85450518177822,1600,0.6665102090570144,0.02041645852081442,10,199167,1000000,3.5825674714148046,3.5827460595034064,3.5812763190642
4,473,199269,-122.47624371852726,102,0.596926948428154,0.020571034764435506,10,199269,1000000,3.500986486077309,3.5122000178694726,3.5164775651693345
4,474,199305,-108.45133927464485,36,0.6612963306407134,0.020524399102391754,10,199305,1000000,3.5948639631271364,3.6230650583902997,3.6177081942558287
4,475,200905,-33.14343366178218,1600,0.8054970801854506,0.020491989907803015,10,200905,1000000,3.6918536688759924,3.688835630789399,3.6864438641350716
4,476,201064,-128.70302985422313,159,0.6449859650929769,0.020639040626404922,10,201064,1000000,3.8588958783944447,3.8497839601834616,3.85773967564106
4,477,202166,-140.97777296346612,1102,0.7898171621967446,0.020598848584857464,10,202166,1000000,3.7779602256146343,3.7753664517673577,3.7729849568822167
4,478,202296,-128.80746644409373,130,0.7067162903455587,0.020562138783312266,10,202296,1000000,3.830908233844317,3.839872598189574,3.82693093923422
4,479,202347,-107.57407617941499,51,0.5637445317208767,0.020523309480194554,10,202347,1000000,3.8455053877830507,3.833915536403656,3.837376832962036
4,480,202408,-118.04115698859096,61,0.7353733200579882,0.020488828013372068,10,202408,1000000,3.489822514851888,3.4983216082056363,3.4961770767966907
4,481,202640,-117.31687441607937,232,0.7838368420691594,0.02046245611968297,10,202640,1000000,3.901420977063801,3.90137323335461,3.900446176399355
4,482,202770,-126.38534691277891,130,0.8576799248273556,0.020428107022058595,10,202770,1000000,3.8458310439036443,3.8653628202585075,3.8595100324887497
4,483,202839,-116.47678066324443,69,0.683676432321469,0.020393172190806858,10,202839,1000000,3.829745645324389,3.8192861437797547,3.824012603362401
4,484,202953,-124.6651613060385,114,0.7684076108038426,0.020366670597761694,10,202953,1000000,4.068558661504225,4.070795542001724,4.075760382413864
4,485,203205,-130.49876767396927,252,0.7364842862188816,0.020335834060234304,10,203205,1000000,3.963835664153099,3.9580013313293456,3.954147570014
4,486,203376,-134.07303097704425,171,0.707351062928929,0.020307281690783965,10,203376,1000000,3.9368537003503126,3.940362572494675,3.936671335206312
4,487,203514,-127.76573802530766,138,0.7318893691668144,0.020276977593043238,10,203514,1000000,4.125754318329004,4.1293191948762304,4.130167388457519
4,488,203868,-110.40414499258623,354,0.7963392299839428,0.020247684639669784,10,203868,1000000,3.7477069952658244,3.7444019698245183,3.745922746062279
4,489,205468,-87.89544872415718,1600,0.8315753368637524,0.020221615511022344,10,205468,1000000,3.677590241348371,3.6752427881537004,3.67463264384307
4,490,207068,-74.16248487401754,1600,0.7654908079467714,0.020306207668283956,10,207068,1000000,3.661764155095443,3.6642918698862195,3.662281727604568
4,491,208668,-72.59096731711179,1600,0.8997889860300348,0.020372103437513923,10,208668,1000000,3.6424422469269486,3.6399538035318257,3.638791245035827
4,492,208838,-93.35415260447189,170,0.8263728123377351,0.020391196322023623,10,208838,1000000,3.7998725007562077,3.7961352067835192,3.7994356001124663
4,493,210438,-98.18880576360971,1600,0.847882947633043,0.02035504670817489,10,210438,1000000,3.9791470974404364,3.977869648532942,3.9790000380203128
4,494,212038,-87.9699918506667,1600,0.7277620818256401,0.020322574900171666,10,212038,1000000,4.304376773210242,4.303596451058984,4.302440719986334
4,495,212086,-110.42456171661615,48,0.7948083221912384,0.020309901585271538,10,212086,1000000,4.7388682693243025,4.743704390525818,4.727799147367477
4,496,213686,-86.66869527194649,1600,0.7297703700419516,0.020275894274872138,10,213686,1000000,5.093221069779247,5.094410726614297,5.093097515497357
4,497,215286,-79.71626928262413,1600,0.839278626383748,0.020249933777429122,10,215286,1000000,5.436957952473312,5.437914690226316,5.434475784534588
4,498,216886,-91.18541352357715,1600,0.8434939053747803,0.020261988736511697,10,216886,1000000,5.686906086988747,5.686820697207004,5.685015286616981
4,499,218486,-93.0782992336899,1600,0.7936589182936586,0.02024978674979003,10,218486,1000000,5.902096504755318,5.903764568679034,5.899653337597847
4,500,220086,-85.39934793196153,1600,0.7828305128170178,0.020225590912988405,10,220086,1000000,6.07601005140692,6.077273655682802,6.075446625761688
4,501,221686,-77.31468906719238,1600,0.8344943961547687,0.020210447574961682,10,221686,1000000,6.413695916384459,6.41433240801096,6.4117177437245845
4,502,223286,-65.07849364224239,1600,0.8478569925855846,0.02019748104481396,10,223286,1000000,6.639189472943545,6.640332313477993,6.637926128357649
4,503,224886,-42.254273269791156,1600,0.8211179501283914,0.02022818394086469,10,224886,1000000,6.866745243221521,6.865631464570761,6.864033059477806
4,504,226486,-69.38384292507544,1600,0.8169788463856094,0.020285572845208752,10,226486,1000000,7.102777931839228,7.098911576420068,7.099749757647515
4,505,228086,-66.56272108852863,1600,0.9309226532722823,0.02030018354228067,10,228086,1000000,7.288982653617859,7.290533448234201,7.287026091367006
4,506,229686,-66.84635771205649,1600,0.8359357810439542,0.020383404405222516,10,229686,1000000,7.4843495889008045,7.484842694997788,7.48295778915286
4,507,231286,-49.710470027755946,1600,0.8600433839275502,0.020459943100677152,10,231286,1000000,7.4393952824920415,7.442938004881143,7.439851795881987
4,508,232886,-89.62105703819543,1600,0.9494085365557112,0.020506454053846792,10,232886,1000000,7.549881327599287,7.548823793530464,7.547573494911194
4,509,234486,-71.87560699786991,1600,0.8632236257544719,0.020533055225527237,10,234486,1000000,7.536521201878786,7.536753830760717,7.5377454525232315
4,510,236086,-73.42951643909328,1600,0.8006484835944139,0.02059484037470568,10,236086,1000000,7.623962033838033,7.622081171125173,7.622673413306475
4,511,237686,43.16202646109741,1600,0.7849907456012443,0.020665708863643075,10,237686,1000000,7.563719733506441,7.560497399568558,7.560143907368183
4,512,239286,-22.405840224120766,1600,0.7768968349229545,0.020709327359258293,10,239286,1000000,7.42068716570735,7.423376000523567,7.420667577534914
4,513,239449,-93.42436442524195,163,0.7336676126811653,0.02075043833434986,10,239449,1000000,7.419884784519672,7.415326252579689,7.415999218821526
4,514,240023,-32.716101865284145,574,0.8351692023245911,0.02072082308524433,10,240023,1000000,7.432789932635792,7.432043562437359,7.430229261883518
4,515,240444,-62.60735203884542,421,0.7135422332744513,0.020711985602378528,10,240444,1000000,7.440543590840839,7.4406305029278705,7.441244141828446
4,516,242044,147.03701409639325,1600,0.9452248737029731,0.020700267796233737,10,242044,1000000,7.347266248166561,7.346053013652563,7.344278763532639
4,517,242568,-52.767886474728584,524,0.8869217501308483,0.020779392119608754,10,242568,1000000,7.43718301653862,7.433780935635934,7.433558412698599
4,518,243454,-30.269983345177025,886,1.0048546392385933,0.02076535198617227,10,243454,1000000,7.3665094023401085,7.3619555863467125,7.360121542215348
4,519,245054,159.7504537506029,1600,0.7544989805435762,0.020785180003561995,10,245054,1000000,7.316760793924332,7.314784312546253,7.314632453918457
4,520,245734,-28.573367985896766,680,0.8874253840678755,0.02084179068407876,10,245734,1000000,7.31452825034366,7.3157450437545775,7.314497774839401
4,521,246048,-88.02723688725382,314,1.084833833058515,0.020833411785072448,10,246048,1000000,7.302987607832878,7.302894749179963,7.297228570138254
4,522,247648,153.745071944315,1600,1.0225572739681228,0.020805266602310482,10,247648,1000000,7.167334416359663,7.169860423654318,7.165070588141679
4,523,249248,111.54944237368181,1600,0.9375970370369032,0.02084158209596511,10,249248,1000000,7.102091757208109,7.102125121355057,7.096227478981018
4,524,250848,117.24436714267358,1600,1.0070599904865958,0.020864869949687687,10,250848,1000000,7.160717975497246,7.162099444717168,7.1567430745065215
4,525,252448,145.216248172801,1600,1.0088972114189527,0.020890564486957707,10,252448,1000000,7.19416696831584,7.190483445674181,7.189744924604892
4,526,254048,126.6733836303465,1600,1.0409985467209482,0.02093656039793621,10,254048,1000000,7.2787897819280625,7.2767013135552405,7.276018324196339
4,527,255648,129.99502509646118,1600,0.9770258653583005,0.02096601987742038,10,255648,1000000,7.459522621184587,7.458834496289492,7.453082792013884
4,528,257248,116.63226348836906,1600,0.9359421464870684,0.021041998486099896,10,257248,1000000,7.598427292257547,7.597906565219164,7.59428310289979
4,529,258848,127.92868104577065,1600,0.9070468761771917,0.02112336052621246,10,258848,1000000,7.702174595892429,7.7032429908216,7.699138037115335
4,530,259213,-81.04364753095433,365,1.0898913566954433,0.021147376772764293,10,259213,1000000,7.785194790363311,7.790378822220696,7.781560218334198
4,531,260720,14.998917989665642,1507,0.8852339551771681,0.021136131416638143,10,260720,1000000,7.9264511830012,7.925809729417165,7.923147267023722
4,532,261331,-81.33570336527191,611,0.8907782662293462,0.021176807808103656,10,261331,1000000,7.999112832350809,7.996728431201372,7.994034472449881
4,533,262931,162.6618940536864,1600,0.9317464840295725,0.021158515122335624,10,262931,1000000,8.130125736892223,8.132853319495917,8.124895107150078
4,534,264531,178.35705378698185,1600,0.935388182324823,0.021190696044322326,10,264531,1000000,8.245688002407551,8.24525469750166,8.244948652386665
4,535,265298,-11.413673569448292,767,1.0295990640052448,0.021234625836016287,10,265298,1000000,8.403065184543006,8.408238450476997,8.401181963242983
4,536,265392,-121.06350935669616,94,0.9982348115079933,0.021226296870294415,10,265392,1000000,8.6251800749037,8.62057564523485,8.6298471821679
4,537,266909,116.47406205371954,1517,0.9264087065240207,0.021191858937556315,10,266909,1000000,8.5576738401754,8.554790659456064,8.553056188924423
4,538,267627,-79.70705778314732,718,0.759480685567562,0.02121858609976129,10,267627,1000000,8.553108888948467,8.552883575331997,8.552239310909325
4,539,267693,-117.10425748256966,66,0.7322942775984606,0.02120796627464572,10,267693,1000000,8.647896448771158,8.65422736008962,8.649162538846333
4,540,268970,72.31375251803547,1277,0.9279792845249176,0.021172929800619064,10,268970,1000000,8.651686762637041,8.649604575465045,8.647864314702552
4,541,269931,14.107610387844034,961,0.8877335488679818,0.021182888159380547,10,269931,1000000,8.681664409736792,8.67547214825948,8.676292661825816
4,542,271068,62.52828325284645,1137,0.8258302526993562,0.02119724370272928,10,271068,1000000,8.841811851906565,8.846246845110327,8.840943952577303
4,543,271463,-19.955363967455924,395,0.6687289772029871,0.021193392180544855,10,271463,1000000,8.946867342484303,8.944952715360202,8.943789587265407
4,544,271625,-93.16799288603943,162,0.6433009108062834,0.021171173155190622,10,271625,1000000,8.896171855926514,8.896608358621597,8.896200716495514
4,545,272905,121.7957995866891,1280,0.978055634550401,0.02115004252837845,10,272905,1000000,9.040698282420635,9.03870386518538,9.037469024956227
4,546,273913,34.907609617803246,1008,0.8042006034292281,0.02115423830448556,10,273913,1000000,9.075333448410035,9.076883618354797,9.074309085845947
4,547,274736,79.76542287599295,823,0.934602256950627,0.02115212794809158,10,274736,1000000,9.147979611885257,9.15263088272839,9.145155845618829
4,548,275133,-42.740665059071034,397,0.7780272383815967,0.021151586843156305,10,275133,1000000,9.291728893915812,9.283863978508192,9.288126564025879
4,549,275429,-40.969584052450955,296,1.3471842718021623,0.021136802226515438,10,275429,1000000,9.239155420763739,9.23301188863557,9.233279861252884
4,550,276344,21.448960444889963,915,1.0083989121838586,0.021114252351513204,10,276344,1000000,9.219193601608277,9.215581127575465,9.214796029866397
4,551,276585,-65.5576127236709,241,0.6806512433104217,0.02111115506989723,10,276585,1000000,9.257549367348354,9.263404599825542,9.262876824537914
4,552,277968,258.50303155742586,1383,0.9291736521555678,0.021090006217371993,10,277968,1000000,9.217916264395782,9.216943026280058,9.216331049670345
4,553,278241,-102.91741952858865,273,0.9016073107719421,0.021096704337007714,10,278241,1000000,9.334039684578224,9.333701663547092,9.331362060264304
4,554,279398,136.41779816383496,1157,1.0231100831213205,0.021075850587791007,10,279398,1000000,9.256618481511655,9.255535216953444,9.252731739127118
4,555,279641,-68.0346907870844,243,1.4129446857143193,0.02108239620005478,10,279641,1000000,9.386068944136301,9.389613483349482,9.377310101191203
4,556,280397,44.67006797436625,756,0.7438316655357678,0.021065882554844078,10,280397,1000000,9.330183083852132,9.32712878926595,9.325905400594076
4,557,281849,251.36277865432203,1452,0.9640825656261938,0.02106995765607424,10,281849,1000000,9.361293793053463,9.355941270630936,9.354822026285632
4,558,283337,245.81635269895196,1488,0.806223997365482,0.02110679036254684,10,283337,1000000,9.510550004404944,9.513506432159527,9.510246398964444
4,559,284810,240.17391299596056,1473,0.8130255639781149,0.021154055876781992,10,284810,1000000,9.63400997596533,9.634336004776209,9.630952647591934
4,560,284968,-135.02196844294667,158,0.61844450344642,0.021202476274074733,10,284968,1000000,9.83071349143982,9.833458541234334,9.829616479873657
4,561,286328,252.40412061917596,1360,0.9820420714232194,0.02118299440973067,10,286328,1000000,9.875678525602117,9.874227043460397,9.869899100415847
4,562,287230,102.49640975845978,902,1.1162695717563231,0.021225128961825875,10,287230,1000000,10.044617403348287,10.041160020298427,10.035436634487576
4,563,288612,246.95804255688563,1382,0.8587247821002982,0.021233492160070307,10,288612,1000000,10.223237100200377,10.222562679000523,10.220124331073485
4,564,290064,238.55313689878676,1452,0.9580327050079559,0.02128310420326459,10,290064,1000000,10.303855408635632,10.307726704498817,10.303272207852068
4,565,290111,-111.00262721441686,47,0.8833341343328357,0.021358365070477028,10,290111,1000000,10.264823234081268,10.24576176404953,10.262496662139892
4,566,291446,252.69066187366843,1335,1.0982310926667729,0.021321616216641325,10,291446,1000000,10.430796255742697,10.433032367462502,10.429264707493603
4,567,293013,222.2754050642252,1567,0.8340728322091775,0.021372511663529246,10,293013,1000000,10.631289997773292,10.629673446753086,10.626950577283518
4,568,294538,224.74024646403268,1525,0.8185635847088538,0.021471252556757824,10,294538,1000000,10.789206423257527,10.786302071809768,10.784513014868686
4,569,296109,221.58460310427472,1571,0.8991637616495418,0.02156251578324515,10,296109,1000000,10.985941344765342,10.984805231033617,10.980009852549074
4,570,297618,229.70794259617105,1509,0.9361163820152482,0.021646964707548247,10,297618,1000000,11.110462965329488,11.108865513165792,11.105652032534282
4,571,299080,234.42492364021018,1462,0.9240637967949861,0.02171991829329175,10,299080,1000000,11.351692402526124,11.35514252773703,11.348385770353552
4,572,300665,218.51353663112968,1585,1.033437070677269,0.02179505103910937,10,300665,1000000,11.662221417547782,11.661764232418205,11.657035324845133
4,573,302196,222.7767995307222,1531,1.0318630748349273,0.02186830247863958,10,302196,1000000,11.931355689865311,11.930058018366497,11.924373772253398
4,574,302326,-104.23629488795996,130,1.157861136071957,0.02195910028729188,10,302326,1000000,12.159581602536715,12.17006053190965,12.16715371792133
4,575,303926,174.88154514599591,1600,0.918469989283476,0.021932325109386933,10,303926,1000000,12.204801782667637,12.205430030226708,12.201531346738339
4,576,305304,243.53294883761555,1378,0.9821752916069797,0.022034269063719133,10,305304,1000000,12.485395692560795,12.479320952143983,12.478857849984273
4,577,306744,238.78518845513463,1440,0.8512339832856216,0.022098013028185773,10,306744,1000000,12.793741145398881,12.795834925439623,12.791518821981217
4,578,308155,241.63551449310035,1411,0.9375899303228932,0.022166889133507103,10,308155,1000000,12.986522069214084,12.989441251416578,12.983232911427816
4,579,309691,226.99793314514682,1536,0.9079764249375443,0.022217363605095627,10,309691,1000000,13.144043655644834,13.146271490583233,13.14219925762002
4,580,311291,210.291341194883,1600,1.1490090451575816,0.02228030681482747,10,311291,1000000,13.379041484594346,13.374304854869843,13.371140193343162
4,581,311356,-116.8695899695158,65,0.596449366522332,0.0223455251300061,10,311356,1000000,13.735081068674724,13.733395306269328,13.725732008616129
4,582,311417,-117.0989248007536,61,1.9373294391979774,0.022306379185593278,10,311417,1000000,13.58964392344157,13.572081693013509,13.565080245335897
4,583,313017,207.9721037130803,1600,1.0957421231619082,0.022272707374404968,10,313017,1000000,13.697756872773171,13.698271744847297,13.693212331533433
4,584,314580,229.5077285701409,1563,1.0338248861714816,0.022344822510548517,10,314580,1000000,13.867861969654376,13.868333851985442,13.863202540079753
4,585,316148,230.55561227048747,1568,1.006301419229175,0.022397510074159934,10,316148,1000000,14.084856784649384,14.081643103330563,14.078294356052693
4,586,316207,-115.18550994247198,59,1.3970364746451378,0.022446881435099066,10,316207,1000000,14.405139064788818,14.38450355529785,14.389863338470459
4,587,317716,234.11357410112396,1509,0.8720286673183243,0.022414544612249704,10,317716,1000000,14.19974454053243,14.203189085642498,14.199438873291015
4,588,319284,231.92039281176403,1568,0.9086078244810685,0.022472766417336584,10,319284,1000000,14.420796670057834,14.418220426486089,14.415080782083365
4,589,319333,-112.85971662402153,49,0.6946089735254646,0.022530638117346173,10,319333,1000000,14.463027858734131,14.484750175476075,14.451980233192444
4,590,319404,-114.51597323268652,71,1.2781301322792258,0.02249613224118709,10,319404,1000000,14.598244776044574,14.59729424885341,14.589613614763532
4,591,319489,-114.89660597220063,85,0.7260653909295798,0.022467539911311486,10,319489,1000000,14.604373168945312,14.595106041431427,14.606299817562103
4,592,320846,247.11778979748487,1357,0.9203707343036378,0.02243780176773166,10,320846,1000000,14.659030646571406,14.659640914775707,14.654160628848606
4,593,322364,239.8008525087498,1518,1.0053377336224183,0.022477506748325063,10,322364,1000000,14.815393566611586,14.815438194148587,14.810654769038523
4,594,322432,-116.18587332591414,68,0.6069399246325096,0.022539126816846042,10,322432,1000000,15.033749707539876,15.029218896230061,15.030014340082804
4,595,322500,-117.438152551651,68,0.8654948253184557,0.022506559033046443,10,322500,1000000,14.764539670944213,14.760354391733806,14.761606852213541
4,596,322564,-114.22816468030214,64,1.0799444111684957,0.022473537638982688,10,322564,1000000,14.927696720759075,14.922901662190755,14.90692941347758
4,597,322635,-116.41363241523504,71,1.330848928061979,0.02244060819717272,10,322635,1000000,15.097358853476388,15.104341915675572,15.095721544538225
4,598,322704,-114.52204932272434,69,1.9793584323177735,0.022409172839381628,10,322704,1000000,15.2964812596639,15.301609086990357,15.286062908172607
4,599,322770,-110.45953296869993,66,0.9253852626929681,0.022386049143526526,10,322770,1000000,14.89565076828003,14.910705105463665,14.898327684402465
4,600,323056,-120.3372204756597,286,0.9701860150987548,0.022363419837205026,10,323056,1000000,15.015923292296273,15.02564263684409,15.01711517061506
4,601,323170,-117.02135477773845,114,0.6822677629237826,0.022338525331110165,10,323170,1000000,15.154291907223788,15.151829234036532,15.152641859921543
4,602,323236,-113.09603787958622,66,1.5819749965022007,0.022311070587336466,10,323236,1000000,14.980448452631633,14.984672005971273,14.981879377365113
4,603,323307,-109.71614168025553,71,1.291591556583132,0.022285614700272592,10,323307,1000000,14.837083176204137,14.83599409375872,14.837277793884278
4,604,323381,-115.63892055116594,74,1.124144303745457,0.022259854950597218,10,323381,1000000,14.954110963003975,14.946641513279506,14.938372135162354
4,605,323447,-114.63646630942822,66,0.6102109308044116,0.02223837230522672,10,323447,1000000,14.992134745915731,14.982792472839355,14.996505085627238
4,606,323525,-120.92371900379658,78,1.7508270588304315,0.02220834047978709,10,323525,1000000,15.106973130362375,15.119030175890241,15.107094860076904
4,607,323593,-114.52573978155851,68,1.1377796242634455,0.022177506809305487,10,323593,1000000,14.898357709248861,14.88915376663208,14.894267272949218
4,608,323656,-114.86563941836357,63,1.0094934610029063,0.022149018128549892,10,323656,1000000,15.127339935302734,15.133330361048381,15.131473859151205
4,609,325005,251.6659308448434,1349,0.9600115281071013,0.0221288443654029,10,325005,1000000,15.030114580268291,15.031940386900262,15.026676419955582
4,610,325082,-122.32745261490345,77,0.6553831599652767,0.02217615692114733,10,325082,1000000,15.099486773354666,15.10958024433681,15.097335515703474
4,611,325152,-121.20908409357071,70,1.4332235047859805,0.022155365640591583,10,325152,1000000,14.96610894884382,14.969110012054443,14.953988756452288
4,612,325227,-119.63998283445835,75,0.9342445390565055,0.02212758151305903,10,325227,1000000,14.924733734130859,14.912419850485666,14.923877675192697
4,613,325307,-111.41761085949838,80,0.9835437418892979,0.022105913054823796,10,325307,1000000,15.020191216468811,15.04526983499527,15.022321355342864
4,614,325385,-119.10760782659054,78,0.7877309963107109,0.02208350796956481,10,325385,1000000,14.810999080113001,14.820202336992537,14.81561644417899
4,615,326770,245.95932480227202,1385,1.118003240403166,0.022060407843140832,10,326770,1000000,15.087550258636474,15.086339576693549,15.081745742714924
4,616,326837,-120.7404343932867,67,0.6843927593280872,0.022111842910347502,10,326837,1000000,15.07851456006368,15.083717679977417,15.083702691396077
4,617,326939,-112.1446331217885,102,0.765575830489397,0.022091399713749283,10,326939,1000000,15.129000978469849,15.136667804718018,15.134688882827758
4,618,328131,263.21286849025637,1192,0.9460180581523842,0.0220684006797547,10,328131,1000000,15.104016691897096,15.102549863061984,15.097849224795814
4,619,329407,254.44415179640055,1276,1.0425141867132872,0.02210219073168218,10,329407,1000000,15.214535403063916,15.214540378690705,15.213090046559731
4,620,330641,256.7597446828149,1234,1.0867414240066597,0.022147944961670166,10,330641,1000000,15.332947001418447,15.332342851840384,15.331324658742766
4,621,331889,257.591704714112,1248,1.06979874488447,0.022186878062024802,10,331889,1000000,15.43473362076667,15.435946453002192,15.431067881276531
4,622,331968,-112.89746043086052,79,0.8427517645061016,0.022227751261002765,10,331968,1000000,15.697027710505894,15.699365152631486,15.69912974493844
4,623,333177,262.30397091805935,1209,1.1008685827627778,0.022209128964483477,10,333177,1000000,15.518352963924407,15.517314231395721,15.513647952874502
4,624,334403,260.5623231148347,1226,1.0989090436122946,0.022228582594815718,10,334403,1000000,15.533492268108931,15.534520622159613,15.530565606570635
4,625,335560,266.1907794997096,1157,1.0381128362404264,0.02227249481829835,10,335560,1000000,15.620045987004818,15.619741259035857,15.616463260650635
4,626,336430,98.92483724746853,870,1.2127400748174766,0.022290523506881096,10,336430,1000000,15.76573250759607,15.763562199165081,15.760055016923225
4,627,336786,-28.095016660168767,356,0.9916118747847421,0.022297864906463388,10,336786,1000000,15.847713794708252,15.841618646894183,15.842742884499685
4,628,337912,266.98570182779804,1126,1.1119032920504521,0.02228975332258281,10,337912,1000000,15.919693022966385,15.918885598012379,15.914596145493643
4,629,339230,253.28521063830703,1318,1.1568874960523525,0.022304324241812133,10,339230,1000000,16.07185274371664,16.069527285335628,16.065822056777606
4,630,340444,266.1149744922295,1214,1.1939804626890451,0.022330884617782615,10,340444,1000000,16.20144453206338,16.20233059875236,16.195714619534076
4,631,340992,23.416156597435474,548,1.1040009610078954,0.022341361811002873,10,340992,1000000,16.22045849694146,16.218110330016525,16.217229258572615
4,632,342074,165.81520387763157,1082,1.2682982994760903,0.022330516280869284,10,342074,1000000,16.298816122832122,16.30175300615805,16.297565275651436
4,633,342424,-33.48911403072998,350,1.0046957593836954,0.022338599820217925,10,342424,1000000,16.30045688356672,16.310928682599748,16.302689108167375
4,634,343576,272.7811233326793,1152,1.3755147992851942,0.02232529734823471,10,343576,1000000,16.434017901213274,16.432725209775178,16.426728473331618
4,635,343844,-53.707670628558844,268,1.1451997076949247,0.022324052711525887,10,343844,1000000,16.526723663623518,16.53095050224891,16.519286900300244
4,636,344344,21.08128410577774,500,1.2940448025763034,0.022304145477113003,10,344344,1000000,16.54836891937256,16.548479246139525,16.538891780853273
4,637,344909,40.5799727877602,565,1.061566655504118,0.022295061374103933,10,344909,1000000,16.552975986685073,16.552088841370175,16.550934387956346
4,638,345378,16.568504886701703,469,1.1122000000885,0.02228178853633247,10,345378,1000000,16.670737055073612,16.66143426687821,16.664826119464376
4,639,345883,3.2054399643093348,505,1.1379687651842834,0.02225543676178478,10,345883,1000000,16.636416872024537,16.633892051696776,16.632152334213256
4,640,346219,-17.434838879853487,336,1.1381184700763587,0.022245830353216173,10,346219,1000000,16.499034676407323,16.505624265381783,16.503926427436596
4,641,346526,-50.20840494334698,307,1.1525857184330623,0.022229975682483062,10,346526,1000000,16.68708818435669,16.69325606028239,16.684625984827676
4,642,346923,-22.45654431451112,397,1.2103072488632722,0.022210717975155315,10,346923,1000000,16.539114634195965,16.532225090418105,16.529177614358755
4,643,347295,-17.93407720606774,372,1.2190318648778908,0.02219179300483669,10,347295,1000000,16.580024123836207,16.572053339674667,16.57761700862163
4,644,347950,40.41042362712324,655,1.2132949402469855,0.02218565884295342,10,347950,1000000,16.61055073077862,16.61293254852295,16.608940472236046
4,645,348402,-7.751808049157262,452,1.3005023182928561,0.022169041775234606,10,348402,1000000,16.570254658593072,16.57356004714966,16.564355555640326
4,646,349175,71.47961794398725,773,1.3010099340375367,0.022145879654323353,10,349175,1000000,16.584305386729056,16.58668264909224,16.58157691707859
4,647,349471,-40.39606731571257,296,0.9664309888949681,0.022140490852057656,10,349471,1000000,16.60939893393681,16.609231120142443,16.606577399681356
4,648,350061,23.151882322505116,590,1.4207201178169857,0.022126712958864023,10,350061,1000000,16.55313512187893,16.555550893686586,16.549030400938907
4,649,350443,-25.780210679396987,382,1.1098714069120195,0.022112089616033732,10,350443,1000000,16.49803113937378,16.49576099797299,16.494310436750713
4,650,350700,-63.68975988961756,257,1.5650282237827777,0.022091877472824754,10,350700,1000000,16.616753189086914,16.61512718582153,16.609020847320558
4,651,351163,-7.126934349536896,463,1.4074411497653827,0.022080028032517098,10,351163,1000000,16.5178393509077,16.517943102380503,16.514425580397898
4,652,352291,281.21687208209187,1128,1.1913586325810424,0.022068166362387533,10,352291,1000000,16.517239717926298,16.51923224755696,16.51468383669853
4,653,352505,-64.44986566156149,214,1.057377607694694,0.02206751723492215,10,352505,1000000,16.721191138312932,16.726449516841342,16.717564973377048
4,654,352950,3.794518052600324,445,1.3641644622114573,0.02205116698588786,10,352950,1000000,16.805555712093007,16.805509901046754,16.798643196712842
4,655,354110,277.5624635182321,1160,1.260156647616933,0.022033590151886464,10,354110,1000000,16.74098583829814,16.741154928865104,16.73731327632378
4,656,354433,-32.526230378076434,323,1.2755871544941328,0.022038499759606683,10,354433,1000000,16.93199266195297,16.919063860177992,16.920988675951957
4,657,355581,274.1712867356837,1148,1.1821533796916668,0.022018539828027605,10,355581,1000000,16.84704479920237,16.847209617547822,16.84011673258062
4,658,355856,-40.908322997391224,275,1.4414056263312145,0.022012092996304577,10,355856,1000000,16.788745403289795,16.789986161832456,16.781869902434174
4,659,356283,-10.429545991122723,427,1.1128808263866674,0.021996660475893843,10,356283,1000000,16.996908285504297,16.993513275328137,16.993270220075335
4,660,356806,17.974349400494248,523,1.3024045960261272,0.021994484466157555,10,356806,1000000,16.937936812180737,16.942478306476886,16.934919639734122
4,661,357031,-57.404086745809764,225,1.0583783388815142,0.02197446230875623,10,357031,1000000,16.959984319860286,16.953634327108208,16.954231465946545
4,662,357421,-17.64961287099868,390,1.0549782051394383,0.02196046146521873,10,357421,1000000,16.973448809599265,16.972602286705605,16.971573330805853
4,663,357647,-71.95599294826388,226,1.7108811599625782,0.02195417182404395,10,357647,1000000,16.88577993999828,16.88278638232838,16.876202279871162
4,664,358183,9.514669763855636,536,1.3584294684371858,0.021938740742061508,10,358183,1000000,16.937507310903296,16.942413105154937,16.93842092370087
4,665,358706,11.545920860487968,523,1.224033940046166,0.02192570607370746,10,358706,1000000,17.007818818092346,17.0131437925192,17.00151649621817
4,666,359183,-2.8079292941838503,477,1.504306709187779,0.021920333182616034,10,359183,1000000,17.019095881441807,17.01940725001883,17.01462958924314
4,667,359745,40.74541382305324,562,1.6191459845086293,0.02190818577087897,10,359745,1000000,16.850383596760885,16.848452147415706,16.845727808134896
4,668,360048,-32.85752475447953,303,1.2575253764912486,0.021914322837029418,10,360048,1000000,17.07795155207316,17.06798994064331,17.06342433611552
4,669,360519,14.184161342680454,471,1.474829897411326,0.021901354174080647,10,360519,1000000,17.047023304472578,17.047644067317883,17.039614594236333
4,670,360783,-43.18879579473287,264,1.3765476560076841,0.021892171608553987,10,360783,1000000,17.237049913406373,17.224936940119818,17.22410210095919
4,671,361908,276.4395156437531,1125,1.4040710640006833,0.02188020182655816,10,361908,1000000,17.176840839215686,17.179264746393475,17.17227520091193
4,672,363040,274.32661787746474,1132,1.4379530645939893,0.021888348320334285,10,363040,1000000,17.195956544116534,17.192826497238293,17.18732005178401
4,673,363146,-92.77922347094864,106,1.731436951085925,0.021887212659643468,10,363146,1000000,17.022112636566163,17.012735319137573,17.009768838882447
4,674,364058,143.28503195010126,912,1.2790743617852638,0.021866921603952878,10,364058,1000000,17.351632374983566,17.350544917976464,17.34773394720895
4,675,365137,273.806654388085,1079,1.3024730521280354,0.02186869805118971,10,365137,1000000,17.45786223010482,17.45917089141418,17.455743952777897
4,676,366200,275.38883594889194,1063,1.2894002917626837,0.02186200206745773,10,366200,1000000,17.545869490785417,17.547661166820888,17.54209105743552
4,677,367246,279.8344780066982,1046,1.279812611059214,0.021870286000853445,10,367246,1000000,17.55596281840251,17.555108825977033,17.55135854115853
4,678,367340,-96.21823184541427,94,1.0123530995514658,0.02186928987806132,10,367340,1000000,17.642749754587808,17.656909953223334,17.649961270226374
4,679,368194,103.67677700147033,854,1.3579856454449541,0.02184787950097912,10,368194,1000000,17.55264206381405,17.550326606526095,17.546951904296876
4,680,369281,274.743797714822,1087,1.3538472577791523,0.02184700269967069,10,369281,1000000,17.675962277694985,17.680254614794695,17.672615934301305
4,681,370302,280.81498004077,1021,1.2747703440341296,0.021851355842324564,10,370302,1000000,17.771276986365226,17.77112357756671,17.766405142989814
4,682,371303,283.1233325256035,1001,1.2461483040228487,0.02185614141281359,10,371303,1000000,17.773197957992554,17.767626570701598,17.76430454349518
