seo-minseok/DOB-RL/cycles/Cycle_4/results/mbrl_real_ratio=0.2/seed_2_progress.csv
seed,episode,total_steps,reward,episode_length,td_loss_avg,model_loss_avg,horizon_length,real_buffer_size,model_buffer_size,q1_avg,q2_avg,target_q_avg
2,1,98,-119.93797282502055,98,nan,nan,0,98,0,nan,nan,nan
2,2,170,-116.4231408238411,72,nan,nan,0,170,0,nan,nan,nan
2,3,1770,-85.58226866775658,1600,nan,nan,0,1770,0,nan,nan,nan
2,4,3370,-79.44925887166755,1600,nan,nan,0,3370,0,nan,nan,nan
2,5,3416,-104.89658225700259,46,nan,nan,0,3416,0,nan,nan,nan
2,6,5016,-81.55155305791413,1600,nan,nan,0,5016,0,nan,nan,nan
2,7,5125,-99.3130612578243,109,nan,nan,0,5125,0,nan,nan,nan
2,8,5225,-100.3933677803725,100,nan,nan,0,5225,0,nan,nan,nan
2,9,6825,-94.80832576355897,1600,nan,nan,0,6825,0,nan,nan,nan
2,10,6885,-116.9799053221941,60,nan,nan,0,6885,0,nan,nan,nan
2,11,7017,-121.67910023627337,132,nan,nan,0,7017,0,nan,nan,nan
2,12,8617,-80.74105122033507,1600,nan,nan,0,8617,0,nan,nan,nan
2,13,10213,-189.0402055066079,1596,8.649032656755299,nan,0,10213,0,-0.16257134729198047,-0.1617753579503014,-0.22010433794487091
2,14,10311,-106.43413499556482,98,94.62469768333766,0.192180874510708,1,10311,15360,-0.7886250033974648,-0.7854010891583231,-1.0940857012238767
2,15,10511,-128.55388006102294,200,93.23684926003217,0.12972050892810028,1,10511,30720,-1.0432532908022403,-1.0511694172024726,-1.3222739331424236
2,16,10611,-102.03606814146042,100,83.75836567401886,0.09402490197643032,1,10611,46080,-1.3044849714636804,-1.3237225276231765,-1.5830444473028182
2,17,10658,-106.25010320730507,47,97.18230010569096,0.08575079747574116,1,10658,61440,-1.8187361806631088,-1.821744802594185,-2.029830884933472
2,18,10722,-101.84254953637719,64,90.48178024291992,0.08383402831670715,1,10722,76800,-2.002493848403295,-2.013167013724645,-2.1743820230166118
2,19,10798,-101.75980147067457,76,85.63263348170689,0.08240833808251513,1,10798,92160,-2.256253319127219,-2.2905402490070887,-2.3987373658588953
2,20,10936,-127.48617934808135,138,61.66762317143954,0.08100229838774317,1,10936,107520,-2.0966506618719833,-2.0918053168516892,-2.2105553338160884
2,21,12536,-131.15083479881287,1600,29.71232110746205,0.0795450109101477,1,12536,122880,-2.2393710467591883,-2.238383943550289,-2.292368020452559
2,22,14136,-139.18367638718337,1600,9.799434933178127,0.07143467619704703,1,14136,138240,-2.315157607430592,-2.3169508772157132,-2.3452237164601684
2,23,15736,-90.57044341322035,1600,5.870793243572116,0.0631010173848181,1,15736,153600,-1.270403499843087,-1.2695474494993686,-1.295077964963857
2,24,16084,-99.72227054159157,348,4.729174474758261,0.0589067169633068,1,16084,168960,-0.5308629380319925,-0.5343590403687867,-0.5563455509131445
2,25,16990,-127.71229571930598,906,5.038339618278874,0.057885517204000106,1,16990,184320,0.3167118910865651,0.3187907157300247,0.2912646358584364
2,26,17059,-116.57182149775326,69,4.204121607542038,0.056031298912083256,1,17059,199680,0.8367380708456039,0.8591338182489078,0.8416463659455379
2,27,17108,-110.90210754610598,49,5.204782323539257,0.05529242179384737,1,17108,215040,1.0877036727964877,1.1157199554145336,1.0536897994577885
2,28,17154,-109.07156560197473,46,6.301195488870144,0.05474000367326568,1,17154,230400,0.8921723185107112,0.9077605955302716,0.8434945724904537
2,29,17204,-111.00911889970303,50,5.5285394525527956,0.05423431387958835,1,17204,245760,1.002066646963358,1.0217019714415074,0.9708804517984391
2,30,17272,-116.81292247772217,68,6.0477554534872375,0.053765698563103655,1,17272,261120,1.2286371146639188,1.2463784548143546,1.2240978909035525
2,31,17336,-116.17507439479232,64,5.9875670306384565,0.053218799658972235,1,17336,276480,1.0789742710689703,1.0866491651783388,1.0717531504730384
2,32,17403,-116.45892495848238,67,7.752542448292176,0.05269867067980529,1,17403,291840,1.1304222467044989,1.1151772238314153,1.1051271160443623
2,33,17469,-116.04849670268595,66,4.774662750462691,0.052209775183183045,1,17469,307200,1.3605422834555307,1.3555940382182599,1.3118260681629181
2,34,17535,-115.80369233898818,66,7.9714583367109295,0.05175969023987943,1,17535,322560,1.4198943249881268,1.4137838777154683,1.3857725570599237
2,35,17595,-114.15043978206813,60,6.144657887518406,0.051268043723322596,1,17595,337920,1.5951247811317444,1.5935493186116219,1.5575839432577292
2,36,17656,-115.09256328456104,61,8.626291764775912,0.050911481576223,1,17656,353280,1.4384247766186793,1.4406915836036205,1.4016489478449026
2,37,17716,-114.16721312329173,60,5.472389860202869,0.05048187249066199,1,17716,368640,1.3815844985346,1.34655803317825,1.3442803256213665
2,38,17780,-115.26992765627801,64,6.295742342124383,0.05011026513389343,1,17780,384000,1.6269063827892145,1.6212938686211904,1.607489205400149
2,39,17858,-117.3521402142942,78,4.048237308859825,0.04973421090322992,1,17858,399360,1.643982037476131,1.6474087047789778,1.623847530569349
2,40,17919,-115.40423923544586,61,6.091417696823677,0.04934832340709253,2,17919,430080,1.860050869733095,1.8547272110978763,1.8295250569780668
2,41,17982,-116.6871292386204,63,6.650380345682303,0.04896070005165206,2,17982,460800,1.7628854694465796,1.7554789813856284,1.7283916068573792
2,42,18040,-114.41602611169219,58,4.818588106334209,0.048602778262325695,2,18040,491520,1.9216289716958999,1.9014844071865082,1.9250448834896088
2,43,18098,-115.05266632698476,58,5.514229655563831,0.04826677567547276,2,18098,522240,1.9300091534852981,1.9302888321876526,1.893589958846569
2,44,18156,-116.11494136415422,58,6.331204490065574,0.04792079264918963,2,18156,552960,2.042444809675217,2.035608559846878,2.002402097582817
2,45,18216,-115.26301193796098,60,6.980947760492564,0.047605728521233515,2,18216,583680,2.008908966432015,1.9979982117811839,1.9584802555541196
2,46,18270,-115.02607269957662,54,5.262678714990616,0.04723439121470205,2,18270,614400,2.0146403872966765,2.0147315722703936,1.9993011939525605
2,47,18325,-115.87612913921475,55,11.929067400991917,0.04692556320081854,2,18325,645120,2.225078672170639,2.2250719052553176,2.17740025639534
2,48,18381,-115.61656643822789,56,7.575473202466965,0.0465797252043592,2,18381,675840,1.8255213928222656,1.844699651002884,1.7947303481400012
2,49,18443,-116.06933329440653,62,11.784925668438275,0.046278937325371264,2,18443,706560,1.9715189317862192,1.97987495859464,1.9102715387940408
2,50,18508,-117.31077179312706,65,6.685940428078174,0.04598341910168528,2,18508,737280,1.9664161985119184,1.9618978023529052,1.9108571221431097
2,51,18566,-115.94041469227523,58,10.326369690895081,0.04573312281734414,2,18566,768000,2.0410782223939896,2.051774218082428,1.9871401941776277
2,52,18626,-115.00123464874923,60,13.788387832045554,0.04542114170337165,2,18626,798720,2.0501468062400816,2.0389703239003816,1.9871365934610368
2,53,18693,-114.58908875286579,67,15.179422785341739,0.045152768816936896,2,18693,829440,1.988546081384023,1.9925782606005669,1.8996710042158762
2,54,18748,-114.1557791531086,55,13.289551759958266,0.044944893265968046,2,18748,860160,2.026933013498783,2.03450490295887,1.9542915871739388
2,55,18793,-111.63289442658424,45,11.865909699350595,0.044658091630293356,2,18793,890880,2.284168792143464,2.2799503937363625,2.2159792058169843
2,56,18836,-110.69183346256614,43,15.372743421792984,0.044384385580749815,2,18836,921600,2.2320930384099484,2.233703690767288,2.1035715147852896
2,57,18880,-114.36360121145844,44,9.993793072551489,0.04413638161878063,2,18880,952320,2.431104916334152,2.4214670091867445,2.3706195145845412
2,58,18930,-113.59252677857876,50,15.164860251545907,0.043874954871118886,2,18930,983040,2.3273239129781724,2.335980915427208,2.289463137984276
2,59,19021,-120.94182375073433,91,11.836256913344066,0.04365584500916472,2,19021,1000000,2.448687332206302,2.4501499854856066,2.3902200003465017
2,60,19079,-119.90773953869939,58,14.38970937371254,0.04335850518834484,3,19079,1000000,2.404663566350937,2.394211634397507,2.333364099264145
2,61,20679,-127.52945302985609,1600,10.471464162766933,0.043124639353639374,3,20679,1000000,2.8209125546226277,2.823508411496878,2.781252973258961
2,62,20771,-106.27487533912063,92,9.940354974402322,0.04001110528750966,3,20771,1000000,3.554476759168837,3.556814450687832,3.5117032210032146
2,63,20846,-106.78515428584069,75,9.937430733016559,0.039688205203892275,3,20846,1000000,3.3629375985690526,3.367225818974631,3.342642876080104
2,64,20932,-116.86942832358181,86,10.172165131568908,0.039543507502648075,3,20932,1000000,3.34165940284729,3.3315409682691097,3.2865946594625712
2,65,22532,-147.9703709576279,1600,6.5880219014454635,0.039360902119627214,3,22532,1000000,3.4965677770785986,3.501293438244611,3.468498839717358
2,66,22565,-107.9505033493042,33,6.159548605481784,0.0369892595928501,3,22565,1000000,3.6767915725708007,3.6828502496083577,3.6580535729726154
2,67,24165,-138.2534102741629,1600,4.3337617619615045,0.03666235962882638,3,24165,1000000,3.9361620842292906,3.9342691283114255,3.9124070399813355
2,68,24250,-102.29904673900455,85,3.680875859037042,0.03455591135334673,3,24250,1000000,4.285360330343247,4.2777747169137,4.269485884904862
2,69,24312,-101.33920719847083,62,4.451026592900356,0.03440076535210965,3,24312,1000000,4.211380171775818,4.217290461063385,4.194593989849091
2,70,24380,-98.5668978933245,68,4.661732315768798,0.03426588665139168,3,24380,1000000,3.969511171181997,3.9736732661724092,3.9394768436749774
2,71,24441,-101.45882272161543,61,4.366304312646389,0.03417585311098057,3,24441,1000000,3.9840128809213637,3.990907645225525,3.996621322631836
2,72,24495,-107.32709190249443,54,4.240012114644051,0.034061739686549755,3,24495,1000000,4.308445334434509,4.283772315979004,4.298071002960205
2,73,24547,-109.38010559603572,52,4.0912210422754285,0.03393830628379395,3,24547,1000000,4.173331816196441,4.183455832004547,4.156830203533173
2,74,24617,-105.70652247499675,70,5.510255579011781,0.0338152291011392,3,24617,1000000,3.9417566316468373,3.9507295727729796,3.9158279112407137
2,75,24703,-95.26418276131153,86,4.974432013183832,0.033756511104810566,3,24703,1000000,4.159415666759014,4.165063600987196,4.134368839114904
2,76,24751,-105.77628921438009,48,5.5061964325606825,0.033685077477194784,3,24751,1000000,4.017122507095337,4.015964105725288,3.9502005219459533
2,77,24816,-105.2991001047194,65,5.674080974360307,0.03355626128096548,3,24816,1000000,4.071184112628301,4.086157560348511,4.079358905553818
2,78,24863,-107.50834808498621,47,5.9700409665703775,0.033455547060455296,3,24863,1000000,4.376007795333862,4.360460619628429,4.335387712717056
2,79,24942,-101.1562900384888,79,5.42423663011619,0.03335349091370286,3,24942,1000000,3.956718719005585,3.9629495177950176,3.923749426433018
2,80,25013,-99.35649825166911,71,6.203604617289135,0.03328512806022905,4,25013,1000000,3.994112753868103,4.013783632005964,4.004946838106428
2,81,25450,-150.0794063033536,437,4.859772722319115,0.033182538364761066,4,25450,1000000,4.281220858457477,4.283559740559999,4.2572268613549165
2,82,25550,-111.61411373317242,100,5.201167614758015,0.03362294441145478,4,25550,1000000,4.330634607076645,4.332041585445404,4.303851429224014
2,83,25627,-99.62959832791239,77,3.852523786681039,0.033572597590961845,4,25627,1000000,4.36172114440373,4.3682190486363,4.344414404460362
2,84,26120,-153.3545810971409,493,3.719075439657484,0.03352846599991123,4,26120,1000000,4.460525809988684,4.469612347228186,4.447865967604579
2,85,26179,-105.52899221749976,59,2.8824268063902854,0.033738398746727336,4,26179,1000000,4.540083386898041,4.506751642227173,4.496546936035156
2,86,26222,-108.87124441936612,43,3.8086533091962336,0.03364476000804917,4,26222,1000000,4.48764435350895,4.449619084596634,4.416888782382012
2,87,26280,-110.78798644244671,58,3.7590851387381554,0.03354224743674589,4,26280,1000000,4.323927164077759,4.340571999549866,4.311110534667969
2,88,26326,-108.75982309691608,46,2.561699029058218,0.033520159611076704,4,26326,1000000,4.590476006269455,4.5862524330616,4.578281742334366
2,89,26387,-109.82380980066955,61,4.205901715656122,0.03344341060816268,4,26387,1000000,4.1646139601866405,4.1711281597614285,4.149769558509191
2,90,26476,-98.16608483158052,89,3.445300660468638,0.03338309919105957,4,26476,1000000,4.357837496697902,4.353931525349617,4.344585550576449
2,91,28076,-125.28470527054742,1600,2.626847419068217,0.033353672036750416,4,28076,1000000,4.34032475149259,4.341813767440617,4.3267918988317255
2,92,29676,-73.83953393762931,1600,2.6602465820498766,0.031844266759237384,4,29676,1000000,4.317557264622301,4.318263495862484,4.305229936745018
2,93,31276,-95.48799697111826,1600,2.2625884531997142,0.031601545390659486,4,31276,1000000,4.212624738402664,4.214270497513935,4.2027980592753735
2,94,31568,-127.03085188288242,292,2.0306469067931174,0.031166791532168298,4,31568,1000000,4.439762609169401,4.445352657087918,4.4288851059716325
2,95,31645,-102.69476655963808,77,1.488769516135965,0.030872904105480447,4,31645,1000000,4.603110115868705,4.620339809145246,4.620181829588754
2,96,31733,-100.32327465340495,88,3.3399402691051363,0.03068406423175238,4,31733,1000000,4.46912469342351,4.426378607004881,4.443387219309807
2,97,31826,-99.87401859275997,93,2.083699644770887,0.030522348732765773,4,31826,1000000,4.50781948433982,4.501971817016601,4.497646657625834
2,98,31889,-101.26218396052718,63,1.5844151484469573,0.030380853384693145,4,31889,1000000,4.799657066663106,4.800234214464823,4.80781238079071
2,99,32142,-134.33812777558342,253,2.5222450504899023,0.0302630358786192,4,32142,1000000,4.582638114929199,4.5864881711006165,4.573918049573899
2,100,32228,-99.19180867262185,86,2.327171587198973,0.030232611083984375,5,32228,1000000,4.783240622282028,4.78743996322155,4.764521729946137
2,101,32706,-145.37681880919263,478,2.268347962644506,0.030096813119451206,5,32706,1000000,4.7734979495089105,4.776211667694944,4.766397907378826
2,102,33121,-134.11440912168473,415,2.123154025724748,0.03024021530734116,5,33121,1000000,4.875650100155575,4.874555527582401,4.865524722744779
2,103,33201,-96.94593507610261,80,3.217196079902351,0.030462295666953083,5,33201,1000000,4.814267647266388,4.81710661649704,4.801174074411392
2,104,33278,-102.30565191339701,77,3.4067914962768553,0.030378380704680772,5,33278,1000000,5.16796567099435,5.182379490988595,5.148117177827018
2,105,33356,-105.29579178150743,78,2.377603722683021,0.03025389752454228,5,33356,1000000,5.303375342914037,5.307516193389892,5.2975790398461475
2,106,33437,-98.3650093129836,81,1.6277868850156665,0.030161608167183704,5,33437,1000000,5.331632244586944,5.334481117129326,5.325622573494911
2,107,33519,-102.24164739996195,82,2.0724772278219463,0.030092597590425076,5,33519,1000000,5.421927455067634,5.431514394283295,5.413304373621941
2,108,33599,-100.94296186510473,80,1.6595915105193852,0.029995174633386808,5,33599,1000000,5.359313090145588,5.359977187216282,5.349343347549438
2,109,33669,-105.68754091951996,70,3.501583272431578,0.029934018364048187,5,33669,1000000,5.309671527998788,5.307078964369637,5.273920529229301
2,110,33781,-115.99463006295264,112,2.1952027766542,0.029858112536162214,5,33781,1000000,5.3697214495051995,5.370837608250705,5.377677232568915
2,111,33855,-113.2577488059178,74,2.9069706210068293,0.029764206413625153,5,33855,1000000,5.5759236540113175,5.570851690428597,5.548164343833923
2,112,33922,-103.8828340973705,67,1.597669960061709,0.02968566779028436,5,33922,1000000,5.728534317016601,5.728039189179738,5.702290391921997
2,113,34071,-92.66220242297277,149,2.972066119632551,0.029596026245542247,5,34071,1000000,5.661107044560569,5.655497821739742,5.640241694450379
2,114,34164,-113.48250434966758,93,2.8466387129492228,0.02962838918213408,5,34164,1000000,5.824276322788663,5.811964562204149,5.792913977305094
2,115,34334,-95.8749640667811,170,2.4567977222449637,0.02956430746853949,5,34334,1000000,5.791453190410839,5.790806233181673,5.767788215244518
2,116,34535,-123.99007965344936,201,2.3727429119497536,0.029535163281976584,5,34535,1000000,5.8021310007572175,5.792816948890686,5.781784802675247
2,117,34580,-105.73105703201145,45,2.2214675441384317,0.029376019042596888,5,34580,1000000,5.543273395299911,5.5479225516319275,5.5574428856372835
2,118,34626,-106.6005741469562,46,2.108456227555871,0.029266200712249602,5,34626,1000000,5.665433871746063,5.692388540506363,5.657439160346985
2,119,34677,-105.75393846258521,51,3.245201581120491,0.029151378717319466,5,34677,1000000,5.520575566291809,5.532523460388184,5.548204760551453
2,120,34781,-108.03911379026249,104,2.935192747712135,0.029035274931862032,6,34781,1000000,5.934360334873199,5.9181288146972655,5.914535527229309
2,121,34920,-99.06073309457861,139,2.0574831451360995,0.028944724123970964,6,34920,1000000,5.90475760606619,5.917420702714186,5.911057151280916
2,122,34993,-97.52411313727498,73,2.0439714035817556,0.02892442861407557,6,34993,1000000,6.045536375045776,6.082488019125802,6.041348123550415
2,123,35049,-104.26423176378012,56,2.7369798848032953,0.028892521834110514,6,35049,1000000,6.1755908107757564,6.188973746299744,6.194146733283997
2,124,35112,-97.65709083899856,63,1.8362775512039662,0.028782627366337122,6,35112,1000000,6.043049542109172,6.067131801446279,6.043368844191233
2,125,35171,-101.28998746350408,59,3.0611351624131204,0.028769554621075482,6,35171,1000000,5.79423376083374,5.7901538515090945,5.773314514160156
2,126,35248,-99.54539042338729,77,2.82986033814294,0.028719598300519362,6,35248,1000000,5.9388749361038204,5.936403935296195,5.91155115876879
2,127,35316,-102.18194538168609,68,2.0616649493575094,0.028669086462136024,6,35316,1000000,6.232171185811361,6.226045974095663,6.219154938062032
2,128,35371,-104.87534679286182,55,2.5605327773094175,0.02862297468286216,6,35371,1000000,6.00502233505249,6.019504699707031,6.001200284957886
2,129,35421,-106.08220532909036,50,2.0866876524686813,0.02853220551036262,6,35421,1000000,6.369708108901977,6.361065211296082,6.336649446487427
2,130,35484,-103.12824432365596,63,3.3878704433639846,0.02841207823549636,6,35484,1000000,6.4465805729230246,6.448824175198873,6.451828527450561
2,131,35533,-106.85442197136581,49,2.338240955770016,0.028368291167929265,6,35533,1000000,6.16128500699997,6.1468406021595,6.120901584625244
2,132,35581,-105.98039640113711,48,2.43136319629848,0.028269683812623438,6,35581,1000000,6.158968341350556,6.107013177871704,6.124433767795563
2,133,35629,-105.18076971638948,48,1.9870377752929926,0.028162310926630588,6,35629,1000000,5.92318280339241,5.920738887786865,5.924791771173477
2,134,35690,-98.27503603510559,61,2.6917727443079156,0.02806481142713726,6,35690,1000000,6.422258218129476,6.393407305081685,6.384545358022054
2,135,35737,-104.63634525984526,47,2.468935602158308,0.028034995054955675,6,35737,1000000,5.9825998663902284,6.0002525568008425,5.983421039581299
2,136,35784,-105.53308254107833,47,1.9931258115917445,0.027941102069094597,6,35784,1000000,6.455326795578003,6.475977563858033,6.465298211574554
2,137,35910,-110.24630359467119,126,2.5760669390360516,0.027840680697803304,6,35910,1000000,6.215971642732621,6.196634141604106,6.198482612768809
2,138,36000,-114.15761929843575,90,1.8702755105164317,0.027858487756124563,6,36000,1000000,6.039975108040704,6.010080501768324,6.013517297638787
2,139,36067,-108.76964155724272,67,3.548413665344318,0.027787208244027126,6,36067,1000000,6.37442854642868,6.349306356906891,6.331196788946787
2,140,36119,-99.20490152668208,52,3.3127865904569624,0.027704382009272065,7,36119,1000000,6.257975730895996,6.23978141784668,6.254277057647705
2,141,36279,-96.08054140396416,160,2.38955164863728,0.02767131933347976,7,36279,1000000,6.350390151143074,6.356427235901355,6.343922625482082
2,142,36401,-106.75607226695865,122,2.884224081784487,0.02765915403781067,7,36401,1000000,6.221088322003682,6.215794825553894,6.200656791528066
2,143,36455,-108.27609985833988,54,2.3310363891720773,0.027604796817010276,7,36455,1000000,6.341535320281983,6.345324201583862,6.331470766067505
2,144,36563,-112.10955354291946,108,1.88396443516016,0.02753269917073664,7,36563,1000000,6.118820629119873,6.12060941696167,6.106897866725921
2,145,36705,-100.64641449926421,142,2.277258723016296,0.027478183413300435,7,36705,1000000,6.185797892298017,6.1916204707963125,6.171977305412293
2,146,36805,-99.75100452825427,100,2.6627235855162144,0.027434139955780167,7,36805,1000000,6.220621159076691,6.216100428104401,6.220301735401153
2,147,36877,-101.48561472445726,72,2.0521789846675738,0.02741786569165878,7,36877,1000000,6.075281766482762,6.077732103211539,6.085487106868199
2,148,36942,-102.84038754261564,65,1.9933971822261811,0.027391338885623822,7,36942,1000000,5.97665045261383,5.938487342993418,5.942714405059815
2,149,36990,-102.9427698533982,48,3.3515367828309537,0.027379838661808105,7,36990,1000000,6.220719254016876,6.212414646148682,6.18573112487793
2,150,37047,-102.1110264994204,57,2.674497710764408,0.027354085249653846,7,37047,1000000,5.946152729988098,5.9384874868392945,5.938413476943969
2,151,37109,-100.62740198569372,62,3.194894027461608,0.027313148020766675,7,37109,1000000,6.13935817082723,6.131586122512817,6.119882456461588
2,152,37155,-107.14067310467362,46,2.337453530356288,0.027284955370446874,7,37155,1000000,6.201957195997238,6.202772718667984,6.177519929409027
2,153,37205,-105.79454459808767,50,2.7974339145421983,0.027225555608841195,7,37205,1000000,6.203377785682679,6.19173189163208,6.202135553359986
2,154,37264,-104.8548564100638,59,2.8594360622763633,0.027173117678398372,7,37264,1000000,6.412544913291931,6.384483652114868,6.359290232658386
2,155,37313,-100.84034549631178,49,2.6538027793169023,0.027147913356793337,7,37313,1000000,6.226588267087936,6.226895958185196,6.237188321352005
2,156,37376,-102.90085328742862,63,3.8644803424676257,0.02711348245969449,7,37376,1000000,5.9919002771377565,5.969083917140961,5.969067800045013
2,157,37431,-100.11628249287605,55,3.5360639721155165,0.027104270573042027,7,37431,1000000,6.20156349658966,6.198354825973511,6.191259317398071
2,158,37503,-104.41998921148479,72,2.380349563062191,0.027074085113052364,7,37503,1000000,6.380445081847054,6.36020142350878,6.360998289925711
2,159,37569,-98.31401681900024,66,3.262191530565421,0.02701922501160946,7,37569,1000000,6.624858975410461,6.626980896790823,6.597913825511933
2,160,37630,-102.12936408631504,61,3.234789303690195,0.026978581988988403,8,37630,1000000,6.420485019683838,6.411319025357565,6.393534143765767
2,161,37722,-101.06412368314341,92,2.6918017066187327,0.026969099390112102,8,37722,1000000,6.220325928264194,6.210669106907314,6.193217839135064
2,162,37786,-98.79708191100508,64,2.376093551764886,0.026957707106222372,8,37786,1000000,6.392293028036753,6.393939352035522,6.3848000288009645
2,163,37878,-104.70852200407535,92,4.355808459056748,0.026922086103399055,8,37878,1000000,6.310180587238736,6.319559984736973,6.30849650171068
2,164,37949,-103.32262856792659,71,3.890801324588912,0.026922506534086874,8,37949,1000000,6.38875744002206,6.380991802896772,6.367923607145037
2,165,37998,-101.3171611558646,49,2.5885461408644916,0.02689837302576314,8,37998,1000000,6.118808555603027,6.131146693229676,6.106929326057434
2,166,38049,-101.22333702119067,51,2.6079186421632765,0.02687356964693413,8,38049,1000000,6.218565673828125,6.1982155036926265,6.1779360628128055
2,167,38098,-101.56710559874773,49,2.7829306058585646,0.026835319282369572,8,38098,1000000,6.295295894145966,6.326449310779571,6.285755503177643
2,168,38187,-102.95815540687181,89,2.827708963304758,0.026810096965280472,8,38187,1000000,6.331842207908631,6.333352851867676,6.323862946033477
2,169,38265,-103.96823049057275,78,2.389670021193368,0.02679058856578748,8,38265,1000000,6.165934256144932,6.158132856232779,6.149128529003688
2,170,38348,-100.75003626802936,83,2.3771308310329915,0.026750561800812447,8,38348,1000000,6.086789530515671,6.079687833786011,6.07396736741066
2,171,38407,-102.86425829678774,59,4.522601493299008,0.02674541226119403,8,38407,1000000,6.295664730072022,6.2996770286560055,6.275855016708374
2,172,38477,-109.43598895939067,70,3.527872031075614,0.02670310232374403,8,38477,1000000,5.940807339123317,5.925016372544425,5.919499005590167
2,173,38570,-102.49260589713231,93,2.641637394328912,0.02661076211846537,8,38570,1000000,6.386367424329122,6.3890831523471405,6.374775028228759
2,174,38647,-100.8730839220807,77,3.709667817396777,0.026582151284648314,8,38647,1000000,6.373788833618164,6.354682224137442,6.3228862149374825
2,175,38717,-108.70870077051222,70,2.784029139365469,0.026524481397536066,8,38717,1000000,6.221632650920323,6.218942356109619,6.197475348200117
2,176,38813,-104.38903773296624,96,3.3531611459122765,0.026442577151240366,8,38813,1000000,6.31266922156016,6.31222514046563,6.289540685547722
2,177,38908,-105.3427878911607,95,3.677850407527553,0.026368200888335046,8,38908,1000000,6.107489236195883,6.103112978405423,6.079095284144084
2,178,39049,-99.48583296872675,141,3.5523884566766877,0.026318225419975274,8,39049,1000000,6.21041020495551,6.215912350586483,6.208545371464321
2,179,39131,-100.3806743407622,82,3.916463427618146,0.026264593387512785,8,39131,1000000,6.100861319899559,6.100990730524063,6.080639833211899
2,180,39202,-104.28873241320252,71,3.21730965588774,0.026227262872679714,9,39202,1000000,6.511498716899327,6.524545754705157,6.482405008588518
2,181,39281,-107.19942296668887,79,3.3175009799855095,0.026166133033943592,9,39281,1000000,5.768013172490257,5.77209256376539,5.756435985224588
2,182,39350,-104.51997055765241,69,3.2888683607180913,0.026120090451343128,9,39350,1000000,6.09222107330958,6.09276272058487,6.076245051622391
2,183,39434,-102.28985533863306,84,2.3772903172299267,0.026064101676405906,9,39434,1000000,6.0197723507881165,6.003749036788941,6.006925854086876
2,184,39522,-101.67621411429718,88,2.9495669484138487,0.02602732846940751,9,39522,1000000,6.005290138721466,5.993048468232155,5.960104703903198
2,185,39588,-102.96887777745724,66,4.184112073977788,0.025973531998113378,9,39588,1000000,5.785941831270853,5.804731861750285,5.7573188225428265
2,186,39650,-102.33515879511833,62,2.190028164287408,0.025926214203367503,9,39650,1000000,5.745995358626048,5.758969116210937,5.7344667712847395
2,187,39736,-101.63090206077322,86,1.8514245416969062,0.025882086919789965,9,39736,1000000,5.764583691954613,5.775231727957726,5.769970014691353
2,188,39814,-101.90283996425569,78,2.3707765102386475,0.02582701160382199,9,39814,1000000,5.765353703498841,5.79145440033504,5.78318704196385
2,189,39909,-101.20242261141539,95,2.4921566483047273,0.025762747640731515,9,39909,1000000,5.673917627334594,5.66855038801829,5.663190997971428
2,190,39997,-101.46491475775838,88,2.1351394966244697,0.02572978252364743,9,39997,1000000,5.574803896993399,5.585560772567987,5.581668978929519
2,191,40061,-103.6709665087983,64,1.9047174160679181,0.025689946703262564,9,40061,1000000,5.373908988634745,5.368433475494385,5.363782533009847
2,192,40132,-104.12476678099483,71,2.0749480568936893,0.025648121282649344,9,40132,1000000,5.5740867512566705,5.5762117522103445,5.5790973663330075
2,193,40230,-100.44434108398855,98,2.9583603276146784,0.025587441097212654,9,40230,1000000,5.7535255617565575,5.739249783092075,5.729871887630886
2,194,40318,-102.94473081640899,88,2.789981722459197,0.025510474476338446,9,40318,1000000,5.2725104063749315,5.264075747132301,5.2431957721710205
2,195,40412,-104.2371298931539,94,2.1399515002965925,0.025472025004573434,9,40412,1000000,5.3454463299777775,5.33910516500473,5.33769583106041
2,196,40484,-104.0024236664176,72,2.9907817084874426,0.025436557576281757,9,40484,1000000,5.3355321747916085,5.331110038076129,5.317962942804609
2,197,40576,-109.30086443200707,92,2.0220887197388544,0.02538570223949881,9,40576,1000000,5.510943142573039,5.511153909895155,5.4993479119406805
2,198,40649,-103.04998344555497,73,1.886865174983229,0.025339594991869815,9,40649,1000000,5.239341754572732,5.2429941807474405,5.236807172639029
2,199,40710,-103.48754372727126,61,4.685087526092927,0.02529442958329423,9,40710,1000000,5.589563377698263,5.5986014127731325,5.585284928480784
2,200,40788,-100.21674294862896,78,2.2600582748651505,0.025258880108594894,10,40788,1000000,5.331997506959098,5.3312195880072455,5.329698443412781
2,201,40846,-103.64654664508998,58,1.9784980735182762,0.02522478179939763,10,40846,1000000,5.346550807952881,5.3260249471664425,5.3176164722442625
2,202,40920,-103.19224388338625,74,3.725227212054389,0.02518614853421847,10,40920,1000000,5.217690031869071,5.219597906725747,5.217978818075998
2,203,40994,-104.92297087982297,74,2.700122936495713,0.025117320210460096,10,40994,1000000,5.226505279541016,5.229366135597229,5.211588951519557
2,204,41058,-103.53113503940403,64,3.941384755571683,0.025110970643193772,10,41058,1000000,5.231336396932602,5.225141255060832,5.184149156014125
2,205,41117,-106.21945435833186,59,2.534766280055046,0.02505451888932536,10,41117,1000000,5.376650929450989,5.357842435836792,5.377420148849487
2,206,41198,-113.63643619045615,81,2.6657476710155605,0.02501729484104241,10,41198,1000000,5.090955938398838,5.100139026343823,5.083852501213551
2,207,41290,-112.13000625092536,92,3.7306266877386305,0.024989184129517526,10,41290,1000000,5.3736003849241465,5.356723157564799,5.357437321874831
2,208,41388,-108.76342141255736,98,2.6445963291658297,0.02496138828388159,10,41388,1000000,5.286098861694336,5.304560245407952,5.290244685278998
2,209,41462,-100.00164329260588,74,3.1370923780969213,0.024933898205219095,10,41462,1000000,5.247565551315035,5.242913677862712,5.241351825850351
2,210,41533,-101.062464768067,71,4.671650085917541,0.024909423719744504,10,41533,1000000,5.13114492893219,5.140124714374542,5.127875287192208
2,211,41619,-111.75800205022097,86,3.444394312798977,0.024878304184954843,10,41619,1000000,4.717363192141056,4.724421319365502,4.705581621825695
2,212,41699,-102.14964717905968,80,5.285190335474908,0.024848551151377185,10,41699,1000000,4.896922843158245,4.887451305985451,4.885620141029358
2,213,41777,-104.85861668735743,78,3.9805628814867564,0.024827164921281022,10,41777,1000000,4.458920360463006,4.470081182888576,4.456509402820042
2,214,41847,-101.64120155572891,70,2.441973114013672,0.024807732912629905,10,41847,1000000,4.865308635575431,4.857743811607361,4.8454492824418205
2,215,41928,-104.03708607330918,81,2.9526619996875523,0.024773830605826982,10,41928,1000000,4.449921024590731,4.448615334928036,4.434413248300553
2,216,42061,-101.85088346153498,133,4.029343095536415,0.024756200879751295,10,42061,1000000,4.4902106642723085,4.481466439137092,4.47292490372291
2,217,42191,-102.78225993737578,130,2.9648725736599704,0.02475413143241066,10,42191,1000000,4.493494681211618,4.469306807334607,4.471115950437692
2,218,42260,-101.61044244095683,69,3.1012943156063555,0.024736384241803876,10,42260,1000000,4.258747979005178,4.266490689913431,4.246075834830602
2,219,42393,-92.44294339511544,133,2.6346659663778085,0.024732507668209797,10,42393,1000000,4.233401699708058,4.253619681871855,4.239057652766888
2,220,42459,-112.48558694124222,66,2.9869797391196093,0.02473268052619515,10,42459,1000000,4.194890811045965,4.2038753191630045,4.205211007595063
2,221,42547,-101.67799752717838,88,2.132871374487877,0.024692504607667826,10,42547,1000000,4.272520790994167,4.255751597881317,4.250811334699392
2,222,42630,-100.66817481257021,83,2.4834254952147603,0.024664880331590713,10,42630,1000000,4.043182134628296,4.075084531307221,4.047018507122994
2,223,42699,-100.52949083596468,69,3.0708486335972944,0.024630803227364776,10,42699,1000000,3.81403626203537,3.8303799549738566,3.8214323431253434
2,224,42807,-99.9866839661263,108,2.824319088757038,0.024620249675190352,10,42807,1000000,3.944968371987343,3.9276875722408295,3.9283703619241717
2,225,43978,-150.8047172445804,1171,2.431606392524181,0.024574139755881,10,43978,1000000,3.683608744783789,3.6895619896614655,3.6727791919221735
2,226,44048,-106.93822880461812,70,2.1490133926272392,0.02457056248934529,10,44048,1000000,3.677554131405694,3.684652908359255,3.680080612216677
2,227,44117,-104.46546515449882,69,3.268301820506652,0.024488120025760212,10,44117,1000000,3.9390641540288924,3.93115824808677,3.9089949736992518
2,228,44226,-107.46372464112937,109,3.3782741630077364,0.024432320531833078,10,44226,1000000,3.760868154168129,3.7574937576055527,3.745478345751762
2,229,45826,-117.24802969861776,1600,2.6521406735666098,0.024382687621396178,10,45826,1000000,3.4522662111651155,3.453895016089082,3.4413340256456286
2,230,47426,-110.54874637909234,1600,2.1325986163970083,0.024270715481242655,10,47426,1000000,3.4532542158383874,3.4497133799735455,3.4398399440664797
2,231,49026,-93.03032385371625,1600,1.81661289406009,0.024043104077378908,10,49026,1000000,3.1342560238298027,3.1373290393780917,3.1289446416776627
2,232,50626,-93.61964620370418,1600,1.6105108941346407,0.02335805324203681,10,50626,1000000,2.9605737224780024,2.9629441559617407,2.95381775255315
2,233,52226,-93.9650713885203,1600,1.325105955787003,0.022708762366822628,10,52226,1000000,2.758040129104629,2.7560706135258077,2.7507140052318575
2,234,53826,-90.9623675821349,1600,1.1147888453304768,0.022527575404291934,10,53826,1000000,2.6730076819797977,2.672308951430023,2.669136803844012
2,235,55426,-88.72968095168471,1600,1.0183125156955795,0.022221935829295526,10,55426,1000000,2.7292929706117137,2.731860570712015,2.7248520930018274
2,236,55772,-101.1685929922387,346,1.3896259043803987,0.0220664449993314,10,55772,1000000,2.916196805939955,2.910532840648118,2.903209492914817
2,237,55901,-106.99009006284177,129,2.22287721671164,0.022095476238260164,10,55901,1000000,3.135016603519519,3.136129296819369,3.1095520414412023
2,238,57501,-78.06463426543633,1600,1.9618999382527544,0.02203660366276353,10,57501,1000000,3.098018757030368,3.1031468389183283,3.087748965797946
2,239,58833,-153.30675298837014,1332,1.7042597414743632,0.022356987437455074,10,58833,1000000,3.0825258821249006,3.0833660737184205,3.072639425199731
2,240,58906,-108.3364930152893,73,1.4893507600894995,0.022341062154572083,10,58906,1000000,3.514423466899565,3.515382832288742,3.501914351752826
2,241,60153,-120.5683509176597,1247,1.5153682354777571,0.02229055899910737,10,60153,1000000,3.10345822618373,3.1056884687634243,3.095464881617696
2,242,60916,-117.18669686210342,763,1.4747560784220695,0.022580931847782388,10,60916,1000000,3.0706834632315134,3.0646359966773735,3.0624512091867233
2,243,61102,-100.17498016543686,186,1.2454857807606459,0.022740934305574154,10,61102,1000000,2.8842597712659175,2.8760173249575827,2.8782131285303167
2,244,62702,-96.95188288856298,1600,1.4174801443796605,0.02267979273222992,10,62702,1000000,2.9435260373260825,2.943949565095827,2.934926126608625
2,245,64302,-75.82380350772291,1600,1.311692768088542,0.022699484645892852,10,64302,1000000,2.8057494330592454,2.8096891915099693,2.8027073511318306
2,246,65096,-93.48770012101158,794,1.4352130553484717,0.023095220629160463,10,65096,1000000,2.5935087317530114,2.5893255428328543,2.586576498342277
2,247,65813,-76.99846157908905,717,1.1949155128862656,0.02338783900813246,10,65813,1000000,2.8519582845375573,2.850900891591126,2.8453422529386803
2,248,66034,-101.77687717601657,221,0.8262297618795525,0.02359467821990547,10,66034,1000000,2.9056430439380083,2.8994144369255412,2.898781524395401
2,249,66195,-117.44738015905023,161,1.427492566499859,0.02356722413546535,10,66195,1000000,2.864049828238785,2.860907219722867,2.8625688837841152
2,250,66537,-96.5968090267852,342,1.5229683000813512,0.023520101697330945,10,66537,1000000,3.1240099322269943,3.1247153521460644,3.1179133491481053
2,251,66637,-113.4596012448892,100,1.3309369714558124,0.023553143257570082,10,66637,1000000,3.127328368425369,3.1180101826786997,3.1213874620199205
2,252,67034,-124.98287456668913,397,1.4664233521200143,0.023527169432491064,10,67034,1000000,3.174111127280272,3.1770721242786983,3.1720677468830196
2,253,67164,-109.6340575106442,130,1.4358417335611122,0.023557232552485142,10,67164,1000000,3.060423612365356,3.0615201367781713,3.059676810182058
2,254,68764,-120.76676302589476,1600,1.257211826518178,0.023495218774384367,10,68764,1000000,3.2423428554460405,3.241799420854077,3.235713167740032
2,255,70351,-176.0082980073057,1587,1.327788325370867,0.02310932418470507,10,70351,1000000,3.376423960660077,3.3729808538161876,3.371126702258104
2,256,71951,-95.8122859718278,1600,1.2187668286683038,0.024158228288003562,10,71951,1000000,3.4943700726795943,3.4955224684718997,3.490465292762965
2,257,73551,-85.61477285018191,1600,1.2069889912102372,0.02488738801529187,10,73551,1000000,3.499751920090057,3.501170151028782,3.495613361578435
2,258,73624,-103.19427983276546,73,1.1517278943743026,0.02511988496245615,10,73624,1000000,3.4724311130387444,3.46926195366042,3.455804042305265
2,259,73779,-102.71301176282577,155,1.1538613531986872,0.025003443038768194,10,73779,1000000,3.622590092420578,3.62884652197361,3.622031144698461
2,260,74069,-108.97135264612734,290,1.3997979311593647,0.024952782559450024,10,74069,1000000,3.8812184451982894,3.8790981932960706,3.874802360144155
2,261,74975,-158.26331945648417,906,1.2888584856523408,0.02497405470225363,10,74975,1000000,3.9055005279348958,3.907176877442333,3.902839268710878
2,262,75107,-119.6267287125811,132,1.1317842797591136,0.024890460823683843,10,75107,1000000,4.146755818220285,4.141944170915163,4.136312000568097
2,263,75230,-118.35618827212602,123,1.2228201549500226,0.024808765693956538,10,75230,1000000,4.04533361941576,4.053697867194812,4.041620777050654
2,264,75292,-109.48395697772503,62,2.0750753663480284,0.024728785371312508,10,75292,1000000,4.600639281670253,4.567556312680244,4.579666968186697
2,265,75370,-114.96311751380563,78,1.11160589328834,0.02464683604534386,10,75370,1000000,4.3244551207338064,4.329007737125669,4.3138934799603055
2,266,75418,-105.35253611858934,48,0.9286452535539865,0.024577674561532852,10,75418,1000000,4.459220430254936,4.467585155367852,4.466843293607235
2,267,75824,-98.83184941951185,406,1.2586619239673018,0.024493545927783123,10,75824,1000000,4.404301443845034,4.394570316076279,4.39425159431994
2,268,76956,-131.61124898889102,1132,1.224136984150494,0.024520351729766878,10,76956,1000000,4.60141740573191,4.604339760686972,4.597579374975335
2,269,77833,-119.74897889001295,877,1.2839528656725225,0.024545467470048203,10,77833,1000000,5.037229463458061,5.038026179116348,5.031455525036516
2,270,78817,-1.435136333340779,984,1.4075976541303858,0.024680124896398762,10,78817,1000000,5.516540754145505,5.5148333868201895,5.508945302938929
2,271,78871,-109.12083001993597,54,1.0280331042408943,0.024783831459028197,10,78871,1000000,5.8437926292419435,5.838712000846863,5.827720170021057
2,272,78999,-123.6285381745547,128,1.371458818266789,0.024688875824374297,10,78999,1000000,6.025599145889283,6.029326363404592,6.022831644614538
2,273,79224,-132.38776401430368,225,1.7311126769266345,0.024599267816114607,10,79224,1000000,6.002765845439651,5.998002662171017,5.9992348855192015
2,274,79548,-102.54700511647388,324,1.9593193431850522,0.024484591651004625,10,79548,1000000,6.4517898170277475,6.457895544357598,6.443772538006305
2,275,79605,-109.3771992669208,57,1.0538097766041756,0.024450338983567813,10,79605,1000000,6.390615482330322,6.387669079303741,6.387388968467713
2,276,79670,-110.25639734603465,65,3.7444877761105695,0.02437973910722361,10,79670,1000000,6.6152400533358255,6.6205132881800335,6.587309042612712
2,277,79729,-108.3659563921392,59,2.8912237372994425,0.024317938303385262,10,79729,1000000,6.8769469165802,6.859880108833313,6.8548781681060795
2,278,79877,-115.86690211854875,148,2.7655836473618236,0.024259813602650407,10,79877,1000000,6.30206470319203,6.305198814187731,6.298974575315203
2,279,80144,-122.97938114730641,267,2.774660332672871,0.024207152606935328,10,80144,1000000,6.6723921381510225,6.66868617442938,6.662963720468374
2,280,80196,-107.71166767273098,52,2.0608451700210573,0.024205568883492668,10,80196,1000000,6.614962797164917,6.615806708335876,6.597873482704163
2,281,80250,-107.45672423765063,54,4.217656497955322,0.02414207767151669,10,80250,1000000,6.4576465511322025,6.4430971789360045,6.430482070446015
2,282,80356,-118.42489986587316,106,1.1590243682265282,0.024076011977272545,10,80356,1000000,6.33506326675415,6.343128089904785,6.343572132587433
2,283,80421,-108.73688319232315,65,1.7464465868969758,0.024054253188629374,10,80421,1000000,6.230458164215088,6.227085630098979,6.213350651661555
2,284,80477,-108.50938777904958,56,1.9714531323313713,0.024024515296876305,10,80477,1000000,6.343193180561066,6.331568131446838,6.324378585815429
2,285,81512,-103.23437567078508,1035,1.3256886611285719,0.02398477762526261,10,81512,1000000,6.420480788159139,6.422057448370943,6.417817971660096
2,286,82458,-143.62702506268397,946,1.3794751189490582,0.024128431856116784,10,82458,1000000,6.5053233281094975,6.505548091137663,6.501705986641823
2,287,83284,-133.78065058775246,826,1.2725892664092342,0.024218617430569963,10,83284,1000000,6.689825645888724,6.688825974231813,6.687313904267985
2,288,83952,-148.23048404976726,668,1.2509574675876083,0.024285873463902718,10,83952,1000000,6.899459077733936,6.900276937990478,6.899523734685147
2,289,84012,-113.87401127070189,60,1.2595484559734662,0.02431897908054239,10,84012,1000000,6.980016601085663,6.997634696960449,6.998395617802938
2,290,84167,-126.15891256276518,155,1.2720113475124042,0.024253577200650443,10,84167,1000000,7.112770441373189,7.1061528905232745,7.110772697130839
2,291,85005,-141.1193585167639,838,1.2767271583338817,0.0242133393747414,10,85005,1000000,7.359558874153229,7.357757693457316,7.355431793396732
2,292,85058,-112.05679024709389,53,1.2015346050262452,0.024230643142254118,10,85058,1000000,7.649169254302978,7.649256029129028,7.636820344924927
2,293,85234,-115.79114521062002,176,1.2314302285804468,0.024173179179818993,10,85234,1000000,7.721896627370049,7.728406479779411,7.729705678715425
2,294,85348,-133.13476310670376,114,1.3125876919789747,0.024136821774907977,10,85348,1000000,7.59306482185017,7.606518793106079,7.596633971821178
2,295,85498,-107.29844821617007,150,1.4696871087948482,0.024100964415717768,10,85498,1000000,7.758729155858358,7.761219132741292,7.755185386339823
2,296,85664,-111.59002735838294,166,1.2143744907341898,0.024059917447012705,10,85664,1000000,7.627009877562523,7.627583232522011,7.625211642682553
2,297,85793,-117.8013424850069,129,1.1359565964589515,0.024014176839140956,10,85793,1000000,7.556664748986562,7.559477659066518,7.565359145402908
2,298,85847,-111.67529209703207,54,1.1038174885511398,0.02397182431053463,10,85847,1000000,7.61278883934021,7.612092618942261,7.613490867614746
2,299,85989,-109.58287553722039,142,1.364167834286179,0.023921223490392392,10,85989,1000000,7.646692517825535,7.647456886087145,7.637203373227801
2,300,86069,-116.50193755328655,80,1.0982132576406003,0.023877969990989463,10,86069,1000000,7.668268266320228,7.659831374883652,7.6643285125494005
2,301,86794,-158.88142668025102,725,1.237800027988851,0.023841080492702386,10,86794,1000000,7.876851069927215,7.880020031664107,7.87923146949874
2,302,86845,-112.99294777587056,51,1.1308447980880738,0.023842293515640257,10,86845,1000000,7.619751129150391,7.624560222625733,7.621315565109253
2,303,86895,-111.20807563886046,50,1.2421648070216178,0.023791559003549925,10,86895,1000000,7.673123626708985,7.657036647796631,7.664233083724976
2,304,87048,-133.83236272260547,153,1.271784761250019,0.023746546168858323,10,87048,1000000,7.9411089293162025,7.943429679870605,7.936046730677287
2,305,87399,-126.60174381686375,351,1.4658024260401725,0.023698353824370046,10,87399,1000000,8.021809225082398,8.015132660184587,8.0203626203537
2,306,87443,-111.5064208758995,44,1.1653362698853016,0.023648134618269267,10,87443,1000000,8.37727335691452,8.402088677883148,8.379040974378587
2,307,87486,-110.34211093466729,43,1.2214252077043057,0.02360466952496668,10,87486,1000000,8.089344727993012,8.08938243985176,8.091342806816101
2,308,87534,-110.78469726908952,48,2.2954916123300793,0.023560593116988417,10,87534,1000000,7.933888983726502,7.904747354984283,7.912564945220947
2,309,87587,-112.84030976891518,53,1.2201793679594994,0.023526803159017482,10,87587,1000000,8.11400354385376,8.112202644348145,8.116629781723022
2,310,87804,-129.67612733179703,217,1.1322154970396132,0.023476171317432244,10,87804,1000000,8.005389129547845,8.00316895984468,8.008290945915949
2,311,87992,-133.82300022477284,188,1.2606961565713088,0.023457731437264828,10,87992,1000000,8.071802277035184,8.080616360240512,8.074544490708245
2,312,88045,-115.3474831841886,53,1.3075902217626572,0.023411621555932176,10,88045,1000000,8.03188549041748,8.025435328483582,8.034812531471253
2,313,88167,-132.65977280586958,122,1.1614711049944162,0.023373291487248923,10,88167,1000000,7.8316277146339415,7.836737358570099,7.838997789223989
2,314,88371,-137.39830414112657,204,1.4830712577700615,0.023342170710711516,10,88371,1000000,8.185023036003113,8.17459635257721,8.173835308551789
2,315,88439,-125.48011570051312,68,1.6672799301644166,0.02331326670008869,10,88439,1000000,7.998250365257263,7.989265727996826,7.986425844828288
2,316,88684,-151.79939719103277,245,1.176350850549837,0.023275456801776725,10,88684,1000000,7.6429488271474835,7.639932271838188,7.642614614963532
2,317,88975,-155.31253878213465,291,1.382892108939845,0.02325748520937384,10,88975,1000000,7.982372195967312,7.978542049177761,7.978935302125997
2,318,89069,-131.9972982108593,94,1.8601749405264854,0.02326982555111135,10,89069,1000000,7.848277613851759,7.8457519769668576,7.854523844189114
2,319,89144,-123.71916137449443,75,1.8272822907992772,0.02321350901342005,10,89144,1000000,7.739437185014997,7.73976058278765,7.7338404314858575
2,320,89225,-129.67838613130152,81,1.6082878967747092,0.023174039729410546,10,89225,1000000,7.815076825022698,7.809127223491669,7.808994594216347
2,321,89301,-126.98969505727291,76,1.4280061802693775,0.02313413693822949,10,89301,1000000,7.809397622517177,7.798427050454276,7.809524233000619
2,322,89419,-131.21101103909314,118,2.4222347195852887,0.02309097848026175,10,89419,1000000,7.599313998222351,7.604021759466692,7.58620624108748
2,323,89531,-130.50152189098299,112,2.143601143089208,0.023056927842106723,10,89531,1000000,7.773897049643777,7.766125633499839,7.756378041614186
2,324,89763,-137.74281962774694,232,2.453397008128788,0.02300792760495897,10,89763,1000000,7.7008242503456446,7.707919751042905,7.693767934260161
2,325,89821,-118.39269774220884,58,1.4875723814964295,0.02296742543613627,10,89821,1000000,8.10887020111084,8.10986569404602,8.108282012939453
2,326,89980,-134.1625680429861,159,2.246109630068143,0.022934437011679014,10,89980,1000000,7.1851947259902955,7.190649480819702,7.1785378789901735
2,327,90149,-133.53016281686723,169,2.1649453061632813,0.02290602983572544,10,90149,1000000,7.519699414074421,7.522900934517383,7.511611834168434
2,328,90218,-122.20209422893822,69,1.9655726701021194,0.022864981035165714,10,90218,1000000,7.642159179846446,7.642657391230265,7.634597174326578
2,329,90803,-167.7327965372824,585,2.1796438556292963,0.02284104854898584,10,90803,1000000,7.4134455869937765,7.409922879934311,7.4057143034606145
2,330,90927,-137.89648535754532,124,1.9085525174935658,0.02285577647437091,10,90927,1000000,7.581062483787536,7.579835100968679,7.573403662443161
2,331,91041,-116.1759325680323,114,1.840917059372772,0.022832151016858822,10,91041,1000000,7.3166071566668425,7.317805754054676,7.3171391075307675
2,332,91343,-147.01283754967153,302,1.7877154229581356,0.022819744348700897,10,91343,1000000,7.5215777897834775,7.524570225079854,7.51653923590978
2,333,91715,-146.66190923633985,372,1.414025148709078,0.022774114785541533,10,91715,1000000,7.622104530076723,7.618199578491417,7.619072245262765
2,334,91853,-140.7934363167733,138,1.8131922530440183,0.022759463621764765,10,91853,1000000,7.7201510264323305,7.723258863962614,7.718776538738838
2,335,92020,-134.78017026931047,167,1.4801131482236087,0.022738280179745603,10,92020,1000000,7.371452131867409,7.364221256971359,7.366184401512146
2,336,92156,-143.10468179546297,136,1.2493829254920665,0.022685820680931418,10,92156,1000000,7.259172160808856,7.251628285187941,7.255646555240338
2,337,92340,-133.3946060978924,184,1.1595069909261333,0.022652514781993136,10,92340,1000000,7.3149321900473705,7.307817007435693,7.313824909263187
2,338,92598,-139.16738004167564,258,1.7233453505635261,0.022613898459477005,10,92598,1000000,7.33968840265274,7.340971000671387,7.335022780895233
2,339,92764,-128.25107802078128,166,1.4561661197803915,0.022560929168885985,10,92764,1000000,7.386642795801163,7.38368733227253,7.388220262527466
2,340,92909,-134.14027266856283,145,1.8137154332229068,0.02253272419051022,10,92909,1000000,7.248265656403133,7.240105470589229,7.24213205235345
2,341,93173,-137.51098007149994,264,1.6742860568257478,0.02249560988135979,10,93173,1000000,7.189310389298659,7.194100055786279,7.188984040113596
2,342,93360,-134.15272350003943,187,1.408584300428629,0.022449691289876776,10,93360,1000000,7.061351555585861,7.061470927463637,7.0588792737987305
2,343,93614,-137.6763854031451,254,1.3940514823794365,0.022410521736784733,10,93614,1000000,7.17794782114029,7.175618267059326,7.175021852493286
2,344,93818,-134.79094167146832,204,1.5608468927443027,0.0223654806163145,10,93818,1000000,7.000663772821427,7.004495218396187,6.997118871212006
2,345,94178,-144.89014338701963,360,1.7425744632879894,0.022329033926835044,10,94178,1000000,7.118028063906563,7.114049774077204,7.1149991065263745
2,346,94777,-161.88006301643327,599,1.3403885848441366,0.02228112437920501,10,94777,1000000,7.039290508577379,7.0379778401326325,7.037395360510228
2,347,95126,-146.61883735470474,349,1.7111820911221645,0.0222792180901108,10,95126,1000000,7.0753449538174795,7.076896533545326,7.0684575999484345
2,348,96240,-115.96711708497605,1114,2.1310107930689246,0.022243502062493526,10,96240,1000000,7.067526788459168,7.066969639707256,7.062048420229473
2,349,96425,-119.62049882020801,185,2.2833893227908346,0.022281439437137708,10,96425,1000000,7.004714625411563,7.00126516951455,6.999889912870195
2,350,96879,-117.15015236381441,454,2.7049920093019804,0.02224061960529483,10,96879,1000000,6.734814270072513,6.732284321255154,6.71848704179128
2,351,97036,-134.40186739899218,157,1.864878491461277,0.022239213402020026,10,97036,1000000,6.771015439629554,6.758658518989881,6.762949700554212
2,352,97207,-131.40607365965843,171,2.1145744511309794,0.022196374659769716,10,97207,1000000,6.600853677356945,6.5909484835232,6.589847067875021
2,353,97456,-94.71888569928706,249,2.00011506707718,0.02218502241259698,10,97456,1000000,6.746606626113256,6.746540989478429,6.737071973085404
2,354,97600,-138.17613578215241,144,1.6089489824005536,0.022134271108529023,10,97600,1000000,6.740454081126622,6.74013186778341,6.741772021566119
2,355,97671,-116.47684553265572,71,1.6471285479409354,0.02210761219220707,10,97671,1000000,6.687204645361219,6.683288243838719,6.681795498303004
2,356,97759,-125.33812106307596,88,1.1685753790661693,0.022070155283786544,10,97759,1000000,6.86641306579113,6.870080253481865,6.867309767007828
2,357,99359,2.7586116505844984,1600,1.6658330304920674,0.022043614648445488,10,99359,1000000,6.847155556753278,6.846111486628652,6.844923886060715
2,358,100778,-80.38267122069374,1419,1.8207821012177365,0.022127334993409433,10,100778,1000000,7.025906995594079,7.02655520861876,7.02286901609272
2,359,101023,-92.39861565828323,245,1.5151723676671585,0.022236195065245424,10,101023,1000000,7.213093217089773,7.207745242118835,7.2041121458013855
2,360,101214,-91.61369197349995,191,2.336910623547278,0.022217806726189837,10,101214,1000000,6.900252952701167,6.896440878667329,6.890833578611675
2,361,101286,-116.05970495194197,72,1.5208400458097457,0.022201590153235425,10,101286,1000000,7.002263574940818,6.989635733195714,6.990760251453945
2,362,102035,-141.26985528087243,749,2.15521434386437,0.022164931819628815,10,102035,1000000,7.274084398673998,7.272061239706503,7.264713364638187
2,363,102614,-168.53859969205223,579,2.2164967024012614,0.022161996195645038,10,102614,1000000,7.357471005121867,7.355353353734602,7.348908537730836
2,364,102808,-136.57060325983912,194,1.9767136838091046,0.022159697893075644,10,102808,1000000,7.596268108016567,7.595035589368719,7.583716074102803
2,365,103136,-145.04685317352414,328,2.1103023130446674,0.022140835600123986,10,103136,1000000,7.494807789102197,7.495446553826332,7.4938856095075606
2,366,103792,-122.50241813529283,656,2.0616812142271264,0.022147380019295622,10,103792,1000000,7.5519995562846844,7.55426470389733,7.546222856778365
2,367,103961,-116.23681631265208,169,2.336644114367664,0.022157950044107536,10,103961,1000000,7.593676969408989,7.587455211579799,7.588611833751202
2,368,104375,-148.6855806442909,414,2.1094204705662842,0.02213356720378442,10,104375,1000000,7.402256119542006,7.404127386139661,7.3979656725395015
2,369,104524,-138.04962650872767,149,1.9348169570522649,0.022113858134524683,10,104524,1000000,7.4692680852753774,7.466626597302301,7.465375971794129
2,370,104697,-133.36406943481416,173,2.6006430540891254,0.02208708568835278,10,104697,1000000,7.42558176797979,7.429389844221228,7.424716305732727
2,371,104987,-154.03945149225183,290,2.356246323575234,0.02206068239053042,10,104987,1000000,7.739860709782304,7.737535091926311,7.728990713481245
2,372,106094,-205.42863951739855,1107,2.2649604288217695,0.022042895994656454,10,106094,1000000,7.361231398961761,7.359315965067257,7.353033114725894
2,373,106468,-151.49468221329153,374,2.0910427132571066,0.022101039442739143,10,106468,1000000,7.585580005637698,7.5837874256275795,7.577511994258778
2,374,106988,-156.53382667060941,520,1.7839860218075605,0.02210622844806158,10,106988,1000000,7.415320535806509,7.41555286187392,7.4138330060702105
2,375,107080,-123.44219137728214,92,1.4708442659841643,0.02211660697838838,10,107080,1000000,7.181937145524555,7.181547215912077,7.176651814911101
2,376,107508,-156.76021252409555,428,1.672251229378439,0.022075286554692514,10,107508,1000000,7.350642966656458,7.353330596855709,7.344192810285659
2,377,107688,-114.0385610377416,180,1.7175150002870294,0.022061597268847644,10,107688,1000000,7.27021904124154,7.269306092792087,7.265389813979467
2,378,108425,-169.64831646950915,737,2.0888278085483263,0.022025180540771946,10,108425,1000000,7.453279354474316,7.452646752579572,7.449033237483404
2,379,108535,-118.81412003748119,110,1.433273507654667,0.022004700887000073,10,108535,1000000,7.72266369082711,7.7237238212065265,7.719528306614269
2,380,110086,-102.88213392766193,1551,2.2819862010882748,0.02196270731550042,10,110086,1000000,7.281776170115317,7.281189298245215,7.277376772357571
2,381,110223,-89.83919310942292,137,2.1403022970144567,0.022080786497036153,10,110223,1000000,7.303963936292208,7.305245628723731,7.311028803311862
2,382,111823,-47.146759192459285,1600,2.229845006177202,0.02204103242273825,10,111823,1000000,7.234911203831434,7.234236062988639,7.232959665507078
2,383,112439,-101.38813103269786,616,1.924074788587015,0.02187640009752677,10,112439,1000000,7.246606301479653,7.250481599667033,7.242079485049013
2,384,112999,-117.60159215144813,560,2.101630232190447,0.021852714392719345,10,112999,1000000,7.175166245869228,7.175532146862575,7.169491198446069
2,385,113256,-114.82785042468458,257,2.529197218298912,0.0218668979891799,10,113256,1000000,7.2302001080513,7.224629738330841,7.226045897960663
2,386,113828,-95.63909749349114,572,1.8090130454876967,0.021856728592834142,10,113828,1000000,7.3127853972870005,7.313856940102159,7.310920379872908
2,387,113991,-100.96214190125465,163,2.2435233627445994,0.02189093235399093,10,113991,1000000,7.195122767984867,7.202699844539166,7.185203243792057
2,388,114408,-104.24825841595884,417,1.518878282279503,0.021847547430000946,10,114408,1000000,7.292193927415988,7.292821348585734,7.292252096897219
2,389,115116,-106.59460967336781,708,1.964939622857741,0.02179718923104874,10,115116,1000000,7.302523670920304,7.302333104099546,7.29787286481687
2,390,115276,-102.66676848614588,160,3.195563970785588,0.021768114840405778,10,115276,1000000,7.420050516910851,7.419733478873968,7.409469948336482
2,391,115429,-97.4096316494979,153,2.098431678613027,0.02173125877548699,10,115429,1000000,7.559807682037354,7.569902497927348,7.56412696202596
2,392,115636,-78.61967854201794,207,1.7429619993269443,0.021709077316439816,10,115636,1000000,7.704424561858177,7.7084600496292115,7.698244367837906
2,393,115817,-92.83599370904267,181,2.25253779358334,0.021689883165931536,10,115817,1000000,7.7505060513814295,7.751984979046716,7.749549742539724
2,394,116073,-70.99159635370597,256,1.6656054089069365,0.02165846376649618,10,116073,1000000,7.4861924362182615,7.48729154586792,7.481135763168335
2,395,116322,-104.90303498646244,249,2.1556991528098783,0.0216585192081023,10,116322,1000000,7.488142698009809,7.491925869385401,7.479949287573496
2,396,116939,-35.36702562123537,617,2.2436983153712555,0.021620161316211223,10,116939,1000000,7.298196246780333,7.29704748157595,7.295431985229742
2,397,117345,-33.969707761891186,406,2.328620564751327,0.021671831667592085,10,117345,1000000,7.389465419650078,7.387843571305275,7.386768583655357
2,398,117562,-94.2568467091769,217,1.793741725456147,0.02164898648698105,10,117562,1000000,7.269255828857422,7.268675350007557,7.276165098235721
2,399,117749,-88.1799257225357,187,1.699433294766479,0.021621322252137684,10,117749,1000000,7.4022479759322275,7.397413489553664,7.399778453509013
2,400,117862,-97.1175968721509,113,1.3747646037827839,0.02160704517852009,10,117862,1000000,7.469328644058921,7.4678244352340695,7.461503340981223
2,401,118060,-58.04848919343203,198,1.7300895441519586,0.02158004428152049,10,118060,1000000,7.6380196546253405,7.636150392733122,7.638636807391518
2,402,118294,-60.211220225086436,234,2.10419101766918,0.021538833519464073,10,118294,1000000,7.5112613574318265,7.506822944724042,7.499683450615924
2,403,118656,-41.11405023699626,362,2.2150093340625365,0.02153570389490666,10,118656,1000000,7.313634624083837,7.318492170174917,7.318568821085824
2,404,119003,-38.74879417102784,347,1.65016702685286,0.021530441621880336,10,119003,1000000,7.221817163509481,7.222793692876311,7.221718762902652
2,405,119260,-57.492237095721066,257,2.107109403550625,0.021529563430605733,10,119260,1000000,7.152519968509674,7.1514670867919925,7.148038236618042
2,406,119487,-68.37413680646569,227,2.3431662703102285,0.02149531827017825,10,119487,1000000,7.324418104236776,7.316514212434942,7.3176829516887665
2,407,119747,-56.76980071188882,260,2.402003138512373,0.021493811370173366,10,119747,1000000,7.347587314935831,7.347451745546781,7.334767820284917
2,408,119867,-84.63242342323065,120,2.5764340470234552,0.021500894781481275,10,119867,1000000,7.465088790655136,7.467703942457835,7.45571290453275
2,409,120194,-39.07561679696664,327,2.4397938018199055,0.021474134164233494,10,120194,1000000,7.368243232369423,7.370461124181747,7.367600613087416
2,410,120586,-21.006802652962506,392,1.7801704334907043,0.021451195258999346,10,120586,1000000,7.3349174774610075,7.339046108722687,7.336097538165557
2,411,120893,-80.28359079605434,307,1.9006053738296032,0.021451794217299123,10,120893,1000000,7.382064932187398,7.380755082766215,7.384829872449239
2,412,121458,-57.33564849977847,565,2.0933530888387133,0.02142392930885156,10,121458,1000000,7.337353580764362,7.336673169689519,7.337336451666696
2,413,122199,69.59226905740798,741,1.8274629853464461,0.021422175682148516,10,122199,1000000,7.386690936861812,7.388449417900395,7.38670022294328
2,414,122513,-19.164536137133837,314,1.9188125709852866,0.021494625640771425,10,122513,1000000,7.35908638123543,7.356422055152155,7.352228340025871
2,415,123385,61.34799116756767,872,2.1107684375568367,0.02146340133726202,10,123385,1000000,7.458562591980243,7.459599330918542,7.454685652256012
2,416,124626,263.7078847652301,1241,2.3739572200443475,0.021485805770541055,10,124626,1000000,7.601370782813718,7.601070476924219,7.595730758386273
2,417,125067,-48.208488596603274,441,2.0149141602556813,0.02154209486672601,10,125067,1000000,7.850615597313101,7.848442924022675,7.8459678882902315
2,418,125598,-20.87363986298442,531,2.4056536652850653,0.021544600379795772,10,125598,1000000,7.8318677807753945,7.82930361954671,7.820938358216916
2,419,126168,-19.344446134753525,570,2.2891172510490083,0.02153249469123223,10,126168,1000000,8.033233717240785,8.032519492768404,8.025054121644873
2,420,126569,-36.152630508411676,401,2.6271155873686074,0.021546133795531018,10,126569,1000000,8.174164171814919,8.175621155500412,8.16813942670822
2,421,126836,-75.74196489155293,267,2.616560446470976,0.021539900322820535,10,126836,1000000,8.431311575266031,8.431767444427196,8.419882469910842
2,422,127688,91.70285398839042,852,2.271390705301481,0.02153104262620913,10,127688,1000000,8.54831555745181,8.551338907269871,8.542809689185198
2,423,129095,256.2463075092528,1407,2.167837496623397,0.021544144645961653,10,129095,1000000,8.635715692043304,8.636890184538705,8.633314277103969
2,424,130551,251.71826342353597,1456,2.2186822085647746,0.02157901712106886,10,130551,1000000,9.156037943774257,9.156216588184751,9.15224211018661
2,425,132151,139.5630563115701,1600,2.204800451025367,0.021635534325596274,10,132151,1000000,9.37239837348461,9.373596609830857,9.370043786615133
2,426,133528,250.10769814439118,1377,2.2410212353198196,0.021837986344519705,10,133528,1000000,9.762427051049949,9.76394531256961,9.760247652722102
2,427,133583,-105.93216216331348,55,1.9244018077850342,0.02189810485093451,10,133583,1000000,9.891832475662232,9.883583889007568,9.874068365097045
2,428,133978,-45.622168882749975,395,1.9642047201975799,0.021851654145187357,10,133978,1000000,10.044212419558795,10.047181772574401,10.044350219995547
2,429,134303,-47.69849893823266,325,2.0968255921732633,0.021846476338157957,10,134303,1000000,10.370208156108855,10.380692198872566,10.3762016415596
2,430,135755,241.39921143790707,1452,2.4551574947710697,0.02183011489133552,10,135755,1000000,10.32468850826395,10.325172775531637,10.320578476807167
2,431,136002,-82.6720713796094,247,2.4305639574925104,0.02184635597064435,10,136002,1000000,10.497765588760377,10.504900099833806,10.494847897688548
2,432,137602,204.4627238335088,1600,2.340684235058725,0.021829719870828903,10,137602,1000000,10.708759320378304,10.70742336153984,10.704112778007984
2,433,137698,-116.19205255433917,96,2.7612627887063557,0.02191045267910949,10,137698,1000000,10.902442852656046,10.892566039827134,10.88254132800632
2,434,139298,123.96830789922387,1600,2.3765564507246015,0.02188676344433107,10,139298,1000000,10.77774678170681,10.778783064186573,10.773846289217472
2,435,140673,250.35835795709863,1375,2.524549770529253,0.022070350529347527,10,140673,1000000,10.91503718612838,10.916449026469767,10.90805912609518
2,436,141893,259.82150865206495,1220,2.4306942984461783,0.02210638831721864,10,141893,1000000,10.9280865688793,10.925482873056756,10.919416428003155
2,437,141977,-113.52337842062116,84,2.061937924847007,0.02211550319574047,10,141977,1000000,11.220526123046875,11.223032480478286,11.216350865364074
2,438,143242,258.0090209613554,1265,2.2147213153304564,0.02208374660914914,10,143242,1000000,11.391247617630732,11.397551437786648,11.383536455744789
2,439,144421,266.25998127972707,1179,2.2802909664363944,0.022108602723507703,10,144421,1000000,11.572130109917405,11.574745779363518,11.56536808136182
2,440,145694,118.1868316968903,1273,2.3092228999405395,0.022089128356633916,10,145694,1000000,11.839945234088447,11.842839266183809,11.832007227169248
2,441,147294,220.78012950951234,1600,2.4079242758313195,0.02208613922200796,10,147294,1000000,12.07331187158823,12.070986077785491,12.064834760129452
2,442,148693,249.00967753469013,1399,2.2714826293021657,0.022160335068577442,10,148693,1000000,12.187556518239083,12.186520925700236,12.18069172008432
2,443,150009,256.9199588173069,1316,2.389918674994971,0.02220527209191658,10,150009,1000000,12.34481735775489,12.346870616374124,12.337410328770412
2,444,151402,246.7944376450032,1393,2.2932067302759176,0.022247901809139128,10,151402,1000000,12.479325664643762,12.474706185635903,12.471996746817938
2,445,151551,-86.75817974284291,149,2.3067215761435884,0.022302317719232106,10,151551,1000000,12.4756644146783,12.481859448977879,12.490826119695392
2,446,152841,258.46873447997496,1290,1.9049598168437334,0.02226792374563819,10,152841,1000000,12.752343021437179,12.755039877484935,12.749383885361427
2,447,154124,259.5163850542158,1283,1.8133008960809094,0.02225840721406263,10,154124,1000000,12.811641427129507,12.811049097776413,12.802207084745168
2,448,155561,244.24920950853266,1437,1.8108209254128949,0.02227356389406264,10,155561,1000000,12.913125587676788,12.911530607063453,12.907620085536184
2,449,156841,258.34394927462563,1280,1.834598677494796,0.022285209639219875,10,156841,1000000,12.959804662317037,12.960347070172428,12.953726409375667
2,450,158189,252.36629741173238,1348,2.056727862719502,0.02228827883412327,10,158189,1000000,13.045207904345954,13.042317447377675,13.039218485177454
2,451,159326,148.91729034669697,1137,1.7134763903520276,0.022278285100009555,10,159326,1000000,13.13213350118789,13.129846263564794,13.126085029450138
2,452,160577,260.4108324875124,1251,1.8914824164628983,0.022254323661287434,10,160577,1000000,13.160023960113525,13.15886288986206,13.155840208816528
2,453,161787,264.20318001601845,1210,1.9162661598487334,0.022244857683884754,10,161787,1000000,13.353103547056845,13.353828862875947,13.348312031927188
2,454,162964,269.3361990363337,1177,2.192557449479643,0.022218569158441132,10,162964,1000000,13.442573027325492,13.442727877135969,13.434641875568618
2,455,164192,261.8796199487988,1228,2.0754994991861406,0.022189468533031064,10,164192,1000000,13.51460313562487,13.513226138177465,13.506809675107236
2,456,164255,-108.80966752115637,63,2.1906766722599667,0.022173108846952658,10,164255,1000000,13.673075501124064,13.694524701436361,13.662149779001872
2,457,165484,263.9782967460342,1229,2.1162886570161974,0.02213084512785875,10,165484,1000000,13.668441673185004,13.662275699709282,13.65858205420072
2,458,166773,257.4236998599954,1289,2.263514080119785,0.022102193084186938,10,166773,1000000,13.802276797220111,13.801046232879163,13.794809040427207
2,459,167295,1.6734972726553679,522,2.017828958811095,0.022089759440576638,10,167295,1000000,13.775818435962384,13.76813221344581,13.76393224276029
2,460,168429,274.7655398102943,1134,1.7852016735195586,0.022049447439036668,10,168429,1000000,13.810708670489555,13.81093748269883,13.809370123179614
2,461,169564,274.7269056420773,1135,2.010016801096169,0.022024619727211668,10,169564,1000000,14.074989230231902,14.071958305561438,14.06659684982975
2,462,170728,270.33786272164434,1164,1.66477957444972,0.021997333879133336,10,170728,1000000,14.059091677336857,14.058801654289509,14.051493883955068
2,463,171992,261.752467839513,1264,2.412655167393978,0.021965563906127358,10,171992,1000000,14.004721752045647,14.005731027088467,13.997180895956737
2,464,173144,275.6427911899518,1152,1.791383381738611,0.02194702210866185,10,173144,1000000,14.134675883417545,14.132722564365553,14.129680053876793
2,465,174281,275.93858318962157,1137,2.1478094731284454,0.021937417116335775,10,174281,1000000,14.188257340625324,14.190790466713695,14.179711375616293
2,466,175456,273.49385632108897,1175,2.041371275828435,0.021909447900731772,10,175456,1000000,14.261725781921648,14.260463105715239,14.25536506766947
2,467,176043,22.792315195314586,587,1.877362983455432,0.02189802131912424,10,176043,1000000,14.227134727609569,14.228115440237111,14.219556468108605
2,468,176836,81.76092232530937,793,2.0556549492421783,0.021864324515664654,10,176836,1000000,14.358499938626833,14.36088134427614,14.35161776240868
2,469,177252,-18.626489178277552,416,1.7268379963025815,0.02184568061839771,10,177252,1000000,14.45308015869885,14.458330054399443,14.454479033772538
2,470,178257,286.8825066094287,1005,1.9560694249346853,0.021821180049075184,10,178257,1000000,14.476284386634827,14.474903580665588,14.467694043159485
2,471,178803,19.062403021380305,546,1.9951651289231247,0.021805790333448413,10,178803,1000000,14.572853576695477,14.568534012194034,14.560956371272052
2,472,179858,283.40195181779563,1055,1.7557252388483002,0.021784274736392634,10,179858,1000000,14.553454105740501,14.552492716653006,14.546208776746477
2,473,180474,69.46982149779797,616,2.235995533610465,0.021775191018034164,10,180474,1000000,14.685890197753906,14.690954023892763,14.680107126079621
2,474,181646,268.0306978817098,1172,2.019605829178268,0.021743098007088218,10,181646,1000000,14.830140399932862,14.831164616804857,14.824494629232293
2,475,182792,270.3013614756055,1146,1.9812159762374664,0.021725169643339384,10,182792,1000000,14.802211852659259,14.800667466615376,14.794041315714518
2,476,183882,274.58852499350905,1090,2.090005992660555,0.021692951338715245,10,183882,1000000,14.942876592688604,14.941552636382777,14.932198380111554
2,477,184983,273.9078010870144,1101,2.0340881249037657,0.02166287114198632,10,184983,1000000,15.130306765816428,15.132858134183017,15.124321873404764
2,478,186121,270.91051684785634,1138,1.7770182291490841,0.021630569476469155,10,186121,1000000,15.243776207476591,15.24093891413866,15.235259394519097
2,479,187233,267.7310201590881,1112,1.8167529122719357,0.02160877575470132,10,187233,1000000,15.31926922841115,15.319324867145435,15.313650083971453
2,480,188317,271.58263287413865,1084,2.1691187818500177,0.021584448576180755,10,188317,1000000,15.470277410966379,15.470509251841792,15.46005487177107
2,481,189479,266.74219080992043,1162,2.0445479651463443,0.02156244308575819,10,189479,1000000,15.781148334207206,15.784481594480317,15.774176182418033
2,482,190511,280.6459593465552,1032,1.919177124602268,0.021538334411090692,10,190511,1000000,15.885736069170017,15.888109449738439,15.88135562730067
2,483,190641,-87.95721385552315,130,2.4321615579036564,0.021528748760674163,10,190641,1000000,15.863664627075195,15.872023090949426,15.85950024678157
2,484,191441,120.03027035295963,800,1.923846769593656,0.021505097236390824,10,191441,1000000,16.010414633750916,16.002809212207794,16.001775321960448
2,485,192376,124.07119267992675,935,2.127605273053851,0.021468673165121258,10,192376,1000000,16.13578571606708,16.14086082007295,16.124620458131197
2,486,192814,-0.7071736129000783,438,1.9304774045770945,0.021458833691524733,10,192814,1000000,16.22917244489803,16.22888838524042,16.22205287578494
2,487,193706,141.1145875728689,892,2.1312718431433937,0.021433914134104913,10,193706,1000000,16.17068714291862,16.16920097222489,16.160174218724283
2,488,193964,-35.72504184860736,258,1.8088251207768917,0.021419687580228563,10,193964,1000000,16.26721590423584,16.266238082885742,16.258336711883544
2,489,194342,-9.735168377868831,378,1.3172800396543902,0.021387957744726863,10,194342,1000000,16.36535068718163,16.36131195119909,16.361565613102268
2,490,195397,172.8871409771964,1055,1.9275464145839214,0.021363334026683382,10,195397,1000000,16.512680914742607,16.513394353049144,16.506717072441464
2,491,196464,165.6336117023602,1067,1.7816288798274296,0.021373503426941866,10,196464,1000000,16.57318488426928,16.571917590555156,16.565850068038365
2,492,197554,272.67085302527994,1090,1.5425862128923244,0.021335719901014415,10,197554,1000000,16.697816579276267,16.695549237837486,16.692741529657205
2,493,198637,276.58062189724296,1083,1.7760687071657568,0.021295831514255882,10,198637,1000000,16.723155715730456,16.721498265972844,16.715495686177853
2,494,199818,263.30098393931985,1181,1.9489269229757078,0.021271900887050294,10,199818,1000000,16.940460494413212,16.940735861406488,16.932781313233455
2,495,200999,262.629698170349,1181,1.8931329689856808,0.02125332783541491,10,200999,1000000,17.035859785241595,17.032416122242555,17.030390943915158
2,496,202129,270.71173130720854,1130,1.5561254029780363,0.021254797001822107,10,202129,1000000,17.054972312724697,17.05746775939401,17.050021324326508
2,497,203254,269.72486508637667,1125,1.8827556471739497,0.021242924556561068,10,203254,1000000,17.17487091762679,17.17863330074719,17.164430981874467
2,498,204354,271.8767762808129,1100,2.0546414174004033,0.021225225201997,10,204354,1000000,17.42992340954867,17.42503225066445,17.41935771595348
2,499,204520,-76.60110721178353,166,1.932151396991685,0.021200358246763546,10,204520,1000000,17.328830164670944,17.335832506418228,17.314089035987855
2,500,205655,265.6164287030697,1135,1.8020870412872956,0.021176499597504176,10,205655,1000000,17.54667899376523,17.55566090355932,17.547352714032197
2,501,206800,271.30046416725963,1145,2.1691759368176,0.02115432435616498,10,206800,1000000,17.629135982613814,17.627050782923114,17.618814693417466
2,502,207909,269.29441383387893,1109,1.8439527140557765,0.021145443918505813,10,207909,1000000,17.707677437175406,17.7096497110887,17.699772176742552
2,503,208989,272.4018551968038,1080,1.8692725734026343,0.02111841272035146,10,208989,1000000,17.94881655110253,17.948063528979265,17.938986708499765
2,504,210073,271.05214207060635,1084,2.096749459207058,0.021099939248128946,10,210073,1000000,18.01266480375219,18.011037108633253,17.999981695634347
2,505,211167,271.51316759269685,1094,1.961811546752349,0.021086132401539906,10,211167,1000000,18.11544091898367,18.115311534251642,18.10597652295314
2,506,212236,271.9100699387491,1069,1.8543555600392931,0.02106980775101683,10,212236,1000000,18.30260145889138,18.303124847951924,18.29381821920287
2,507,213283,272.73503676615655,1047,1.7597195382874746,0.021046220359460244,10,213283,1000000,18.389922262155093,18.39174184890894,18.38520308457888
2,508,213365,-93.825963428244,82,2.0201970326714216,0.021026803417598643,10,213365,1000000,18.728155720233918,18.730317962169647,18.728166544437407
2,509,214412,273.6992173017352,1047,1.620260163482565,0.02100165255200796,10,214412,1000000,18.630506288088284,18.63412852837489,18.62617963369076
2,510,215446,273.8302809493616,1034,1.8122800938351062,0.020991909501933925,10,215446,1000000,18.731850928704716,18.732661747238012,18.724331940956485
2,511,215999,47.684915353544056,553,1.7522453257712451,0.020960218447555495,10,215999,1000000,18.78296840320934,18.77872823195024,18.774074407057327
2,512,217080,269.36127536185086,1081,1.8616224971358424,0.02093606239457984,10,217080,1000000,18.947881403675787,18.94893370822624,18.946503392855327
2,513,217274,-56.58660198934376,194,2.5936350033079325,0.02091467999198959,10,217274,1000000,18.995730505491558,18.992763644770573,18.972138736122535
2,514,217727,12.669254958629608,453,2.1966796405613422,0.02088863466238111,10,217727,1000000,19.10750608868069,19.105798223283557,19.10051727718777
2,515,217826,-87.99116569012403,99,2.849457269327508,0.020861492037188772,10,217826,1000000,19.39450404908922,19.39236782921685,19.391971672905814
2,516,218767,134.68690564204007,941,1.912229430065193,0.02083813416921333,10,218767,1000000,19.073552874301342,19.071149107750426,19.06427305809995
2,517,219770,275.85946993296966,1003,2.127736799247563,0.02082728687113996,10,219770,1000000,19.317950546264647,19.323599323272706,19.310710069656373
2,518,220113,-6.542391155846417,343,1.7063917789169971,0.02081133705088413,10,220113,1000000,19.375467544443467,19.375335070666146,19.37793388927684
2,519,220941,164.45796691067517,828,1.8742190640692304,0.02079643605426561,10,220941,1000000,19.360421654073203,19.357422173895486,19.35199218959343
2,520,222029,266.5158953523496,1088,1.765075258438096,0.020787479918753723,10,222029,1000000,19.348991933575384,19.34546202995159,19.345855225457086
2,521,222377,-27.31178585998714,348,1.6457140272811932,0.02077437703265325,10,222377,1000000,19.4849940552431,19.483796972386976,19.485606900383445
2,522,223464,270.1895552445203,1087,2.0530470283805498,0.020744591514607134,10,223464,1000000,19.587090521388582,19.58809729770378,19.581069371435376
2,523,223845,-24.528251954354346,381,2.343777380050405,0.020732194168310875,10,223845,1000000,19.562391524565847,19.562986153050474,19.552827202646355
2,524,224912,269.8199090110138,1067,2.073914099112153,0.020721557024158795,10,224912,1000000,19.531620317135218,19.528881784655013,19.523046671669437
2,525,225152,-58.990039493422955,240,1.9416264543309807,0.02071769556190448,10,225152,1000000,19.497607060273488,19.500695419311523,19.49420043627421
2,526,225730,31.96950203925371,578,1.8095042611554004,0.020692968776518078,10,225730,1000000,19.569283192617853,19.56417609097665,19.55810498020105
2,527,226011,-44.15940214227885,281,1.555926957234208,0.020691340655226556,10,226011,1000000,19.732645760263715,19.71159407751901,19.709111854008267
2,528,226372,-22.915996119379997,361,1.7347572146397499,0.020664201318113893,10,226372,1000000,19.70682512389289,19.701771953370837,19.68938110139635
2,529,227468,163.5463895862922,1096,2.015201553705772,0.02064032465722384,10,227468,1000000,19.82827185797035,19.827527480169174,19.818428379898773
2,530,227806,-27.047504254151136,338,1.357878259027546,0.020641335723404257,10,227806,1000000,19.778992915875985,19.782391660863702,19.779082067085035
2,531,228172,-10.222218709532171,366,1.9531220166012644,0.020620926189993064,10,228172,1000000,19.938249821133084,19.940923839145235,19.930685212877062
2,532,228722,39.15962291741744,550,1.986624613350088,0.020606035922242492,10,228722,1000000,20.01465433814309,20.006327571868898,19.99813605742021
2,533,229091,-8.935034793801606,369,1.8277990982143415,0.020597602613200754,10,229091,1000000,20.0667285627789,20.065874928898282,20.06461627483368
2,534,230025,149.9224615842104,934,2.347558018593218,0.020570555881379723,10,230025,1000000,20.11601604646252,20.116772737810688,20.10458743700417
2,535,230247,-38.71641685348004,222,2.1071179130199282,0.02055855382672209,10,230247,1000000,20.10271133076061,20.10889338580045,20.09830793900923
2,536,230980,83.32911622477695,733,1.6016804129191458,0.02053960335555234,10,230980,1000000,20.1703106475203,20.164465746161056,20.16138353217138
2,537,231475,25.722482172306627,495,2.3470087458892746,0.020518919707985604,10,231475,1000000,20.1578799753773,20.15133673025637,20.13997138081765
2,538,231873,17.952191730961204,398,2.175005445572046,0.020498379049300706,10,231873,1000000,20.15323265515841,20.15360228220622,20.144573228787152
2,539,232297,-2.997130688279867,424,2.6821578813805464,0.020489237437069305,10,232297,1000000,20.309337702251614,20.303609727677845,20.299770157677788
2,540,232403,-84.16433787718415,106,1.511688489317894,0.020475673005025927,10,232403,1000000,20.211003141403197,20.21194952964783,20.196632566452028
2,541,232529,-80.35820822790265,126,3.0086918152868747,0.020445034895756258,10,232529,1000000,20.331035900115968,20.336699978510538,20.321525859832764
2,542,232785,-40.05128080258146,256,1.8579784902334213,0.02042943530308463,10,232785,1000000,20.237912132263183,20.22723123168945,20.226144401550293
2,543,233014,-47.6353101907298,229,1.7442039438269354,0.020408413481127114,10,233014,1000000,20.343615657633002,20.346742781725798,20.331471113725144
2,544,233323,-24.138290566857904,309,2.233890127191941,0.020397845829458354,10,233323,1000000,20.245961758295696,20.24248890240987,20.240316314697267
2,545,233495,-59.68002320220694,172,1.6045610206092105,0.020375876480143038,10,233495,1000000,20.27946236554314,20.274704069249772,20.270343903934254
2,546,233639,-72.4094196879305,144,2.4740236023174864,0.020347695936767482,10,233639,1000000,20.110080623626708,20.12986989702497,20.113027109418596
2,547,233797,-63.60087596066296,158,3.3686072254925965,0.02032871221972368,10,233797,1000000,20.227277323404948,20.22324904123942,20.207762285868327
2,548,234209,14.28637025039643,412,1.9943711105098085,0.020305298531156642,10,234209,1000000,20.0726668218287,20.071018844697534,20.0636094907435
2,549,234495,-44.14349112007767,286,2.5262151545711924,0.020289761902469623,10,234495,1000000,20.13891088621957,20.138177067892894,20.120972837720597
2,550,234880,-4.795700948685408,385,2.06539040750971,0.020265674197703653,10,234880,1000000,20.44343297857987,20.43611186680041,20.429860376056872
2,551,235116,-45.10055484692566,236,1.7791288780453411,0.02024833053771592,10,235116,1000000,20.028823553997537,20.034997239320173,20.02716008061948
2,552,235264,-73.83018148690462,148,2.605694085199918,0.020224376156460833,10,235264,1000000,20.036372348240445,20.040485709054128,20.023897184644426
2,553,235598,-3.621597107965499,334,2.770234897710157,0.020196547329974404,10,235598,1000000,20.280192516789292,20.27919638662627,20.26269907806859
2,554,235776,-67.00228458829224,178,2.6822749932022654,0.020184338342911307,10,235776,1000000,19.97137336730957,19.991093736536364,19.95703166512882
2,555,235934,-63.06196921505034,158,3.1091458870470525,0.02016355787079284,10,235934,1000000,20.255483741760255,20.26324811299642,20.23067273457845
2,556,236245,-12.910299229202792,311,2.1327291405008686,0.020146519598664685,10,236245,1000000,20.27285964719711,20.274998910965458,20.27227370354437
2,557,236424,-66.61714729294181,179,2.3186200720422407,0.02012476008331547,10,236424,1000000,20.181037218430465,20.182168248120476,20.17025747860179
2,558,236556,-73.74503676779568,132,1.444189908527411,0.020110641600434295,10,236556,1000000,20.13366366166335,20.12026017995981,20.11933984022874
2,559,236758,-43.99985448643565,202,2.1391661524400116,0.020081295314665567,10,236758,1000000,20.357170114517213,20.36852729320526,20.3623526096344
2,560,236909,-69.0142525844276,151,2.464611538698276,0.0200717033109457,10,236909,1000000,20.370056610107422,20.369137992858885,20.343088048299155
2,561,237171,-31.134003210114315,262,1.4533363885604418,0.020050938090695455,10,237171,1000000,20.241627539121186,20.24130630493164,20.23306476886456
2,562,237321,-71.72286561876535,150,1.7816838853061199,0.020034142375552906,10,237321,1000000,20.33192070007324,20.331527163187662,20.33409529368083
2,563,237658,-13.093626429326832,337,2.5873964784046013,0.020012408244922217,10,237658,1000000,20.262512467124246,20.258936552567917,20.25019185326316
2,564,237856,-49.19675738271326,198,1.693125666285816,0.020003312506081387,10,237856,1000000,20.254876879641884,20.25854321529991,20.24123134613037
2,565,238083,-40.961897602304816,227,1.4914163383570584,0.019981566140950154,10,238083,1000000,20.24053325653076,20.24077581058849,20.23289904160933
2,566,238359,-33.739469998981804,276,3.0643632092961557,0.019960496334833055,10,238359,1000000,20.282835716671414,20.29362024024681,20.27216991495203
2,567,238523,-69.26574044022709,164,1.1849724739789962,0.019943865503204837,10,238523,1000000,20.074884915351866,20.080192983150482,20.07757638692856
2,568,238751,-46.38743742369115,228,2.7470365581525997,0.019925133090211506,10,238751,1000000,20.212730238654398,20.21115319512107,20.212214721332895
2,569,238965,-48.5519736148417,214,2.377687929251364,0.019907682404409727,10,238965,1000000,20.298576872689384,20.309589408692858,20.303509371621267
2,570,239259,-12.01648750435561,294,1.964340532005861,0.019888340202920476,10,239259,1000000,20.327918371660957,20.33234462080331,20.31521084555264
2,571,239466,-53.57585445791483,207,2.6877961515635254,0.019874848000808944,10,239466,1000000,20.401780729293822,20.41425142288208,20.397163457870484
2,572,239645,-56.803918754681945,179,2.0067113304839417,0.019860116812050237,10,239645,1000000,20.26374568939209,20.250951015248017,20.26099915223963
2,573,239893,-42.50086440611631,248,2.527514380309731,0.01983721606278171,10,239893,1000000,20.458693035443623,20.45438007513682,20.42451194127401
2,574,240111,-37.521955301985145,218,2.409485200863509,0.019821385865714976,10,240111,1000000,20.358239846002487,20.343004535493396,20.33641761598133
2,575,240250,-75.50098714791238,139,1.8320023350990735,0.019797172901634432,10,240250,1000000,20.4076196377094,20.40590258378249,20.38902903336745
2,576,240445,-56.77784981764853,195,1.8339389644171062,0.019779655137830747,10,240445,1000000,20.331276963886463,20.33124088990061,20.324549865722656
2,577,240630,-56.19852581899613,185,2.7067340524660217,0.019755726280123957,10,240630,1000000,20.32969723807441,20.316011905670166,20.317151991526284
2,578,240843,-47.769567431882024,213,1.4215041588459696,0.01974026646318273,10,240843,1000000,20.35142315909976,20.35520737511771,20.34450418381464
2,579,241052,-40.8405047012493,209,2.389730829373002,0.01972109141270795,10,241052,1000000,20.207591276168824,20.210962982177733,20.203445305824278
2,580,241222,-64.7990536307916,170,1.7999124419163255,0.019701375848581677,10,241222,1000000,20.377338117711684,20.37618340323953,20.369831629360423
2,581,241409,-54.582990888506174,187,2.013754686506258,0.019680976584983457,10,241409,1000000,19.815603897306655,19.816804970635307,19.807643365859985
2,582,241533,-76.19526982586831,124,1.7300147844478488,0.01966312258530997,10,241533,1000000,20.048595102628074,20.048392883936565,20.042083915074667
2,583,241826,-8.936375902732834,293,2.211018089795935,0.019644622208491974,10,241826,1000000,20.346337745929585,20.33811456088362,20.32981712078226
2,584,241986,-64.53337781876326,160,2.220820583589375,0.019624035478711634,10,241986,1000000,20.51770511865616,20.52635001540184,20.493688780069352
2,585,242369,21.057235702872276,383,1.7168449477537682,0.019601530439862604,10,242369,1000000,20.43721147838392,20.431211356112833,20.427973501305832
2,586,242557,-59.36120577994734,188,1.8661334405342738,0.019576658370134756,10,242557,1000000,20.2982414510515,20.28392694261339,20.287594339582654
2,587,242754,-52.35405514296144,197,2.8539787654029696,0.019559388728573032,10,242754,1000000,20.281258161444413,20.265718982094214,20.26685064215409
2,588,243037,-15.690454728901386,283,2.137057271147413,0.01954004271781143,10,243037,1000000,20.123188635281153,20.1336172751018,20.119517196927752
2,589,243241,-45.66063342196867,204,2.3787110747769473,0.019525831779134684,10,243241,1000000,20.468672618865966,20.45588267326355,20.45538318634033
2,590,243385,-63.96741827391088,144,2.088825979722398,0.019499926907712954,10,243385,1000000,20.38528996876308,20.387101268768312,20.375928619929724
2,591,243520,-71.18485782109201,135,2.2307688529101704,0.01947825434928139,10,243520,1000000,20.502903248713565,20.499595950200007,20.48958063859206
2,592,243762,-27.691249791532755,242,2.518463738169521,0.01946756486770169,10,243762,1000000,20.303716810544334,20.28766473929087,20.281837407747904
2,593,244119,13.491888764314353,357,2.7624568617982526,0.019446007981283344,10,244119,1000000,20.254626285008023,20.250211086273193,20.23282495226179
2,594,244401,-24.094379272311926,282,2.5359220383688807,0.01942669858849155,10,244401,1000000,20.25460864135197,20.25382282733917,20.254332722936358
2,595,244592,-48.58560357242823,191,1.6235298201441766,0.019412608570233768,10,244592,1000000,20.45415671499152,20.453609376204643,20.45551203677529
2,596,244831,-37.24094624072313,239,2.582596653084392,0.019397793422285696,10,244831,1000000,20.26554646699325,20.262907351618228,20.260231548806896
2,597,244959,-81.23528158664703,128,1.6618871514995892,0.01937399993019342,10,244959,1000000,20.105672756830852,20.11897301673889,20.104328934351603
2,598,245216,-22.505638431059197,257,2.490120968401432,0.019359812843437973,10,245216,1000000,20.10714418029785,20.09767128753662,20.08979563522339
2,599,245469,-25.601995824836195,253,2.9176831421256066,0.019338681365683473,10,245469,1000000,20.344038589477538,20.337942798614502,20.31490544128418
2,600,245782,-5.818099870346487,313,2.319090666910333,0.019330560103273983,10,245782,1000000,20.194307305735926,20.19353785053376,20.190623941729147
2,601,246132,16.126853853464127,350,2.1271035536485057,0.019311817801466936,10,246132,1000000,20.11925134931292,20.121708199637276,20.111188569750105
2,602,246222,-87.79892103234306,90,3.228555735283428,0.019289883902406903,10,246222,1000000,20.34833486345079,20.34526326921251,20.33360660341051
2,603,246433,-38.78969628363848,211,1.5494320239694346,0.019280646963899764,10,246433,1000000,20.205240095229374,20.218864331926618,20.215298280261813
2,604,246729,-10.761624332517385,296,2.5225101910274605,0.01926730750870845,10,246729,1000000,20.444412573452652,20.43548251184924,20.428852844238282
2,605,246932,-45.836746379733086,203,1.5773826839774847,0.01924645115926671,10,246932,1000000,20.34809910774231,20.338836889266968,20.341949815750123
2,606,247173,-28.431318518240005,241,1.9900498467187087,0.0192415278583358,10,247173,1000000,20.42387888034185,20.422083946069083,20.414231499036152
2,607,247325,-73.22837076056749,152,2.3718370015422505,0.019219028033985272,10,247325,1000000,20.521991755167644,20.51185604095459,20.498710467020672
2,608,247704,16.813183246180415,379,1.8762946155224298,0.019203344151040885,10,247704,1000000,20.527079901824127,20.532502746582033,20.52256746549864
2,609,248112,22.29188585933298,408,2.033825907409191,0.019181745711127178,10,248112,1000000,20.469445948600768,20.47096800327301,20.461796319484712
2,610,248560,53.90430628601462,448,2.5824106155302036,0.019175296328451816,10,248560,1000000,20.420940618081527,20.42020082473755,20.404383594339546
2,611,248758,-50.018815320916474,198,2.0672380824622354,0.01917004964906479,10,248758,1000000,20.537261300337942,20.538289260864257,20.53278169130024
2,612,249082,-3.0201325844973326,324,2.3067425141343847,0.019158950857907645,10,249082,1000000,20.5000563621521,20.498255527019502,20.48921783566475
2,613,249389,-8.188910847529769,307,2.23709446494778,0.01913970900017293,10,249389,1000000,20.429547605514525,20.430045541127523,20.419880949656168
2,614,249719,-7.563050154596567,330,2.3949296270356033,0.019121455031649186,10,249719,1000000,20.46885041034583,20.47280386433457,20.459408173416602
2,615,249984,-26.647581146564335,265,3.3374253440361756,0.019108516585750458,10,249984,1000000,20.476186216794527,20.477140522003175,20.468610631502592
2,616,250212,-35.65319122746587,228,2.6164917487989774,0.019098816331491242,10,250212,1000000,20.292019124464556,20.284744054620916,20.28216779015281
2,617,250962,175.83708859235048,750,2.6511995944579443,0.019076604804793687,10,250962,1000000,20.262667532602947,20.26576196797689,20.25464236831665
2,618,251250,-13.684205429628491,288,3.2372413323659983,0.019069610729775564,10,251250,1000000,20.392408657073975,20.39163751261575,20.370938995906286
2,619,251604,-2.9337438978254795,354,3.069468570138727,0.01905835368729067,10,251604,1000000,20.400915516444616,20.40250744138445,20.388571706499373
2,620,251836,-44.18094401899725,232,1.9921152887460978,0.01904656311385814,10,251836,1000000,20.425267654916514,20.424085169253143,20.408541185959525
2,621,252432,93.52018401678652,596,2.233038467913866,0.019034330390277517,10,252432,1000000,20.463715444985084,20.463829940860553,20.4558459492053
2,622,252732,-15.948817835189402,300,2.752370322247346,0.01902633713101156,10,252732,1000000,20.55445471763611,20.544673512776694,20.527588818868
2,623,252987,-29.130457505583763,255,2.815642304748297,0.019006878740038775,10,252987,1000000,20.569399696350096,20.564896533966063,20.556036785125734
2,624,253129,-70.92279183398932,142,2.0721542461642195,0.01899620109437569,10,253129,1000000,20.46272043500628,20.45627020427159,20.44724144254412
2,625,253369,-37.176201624795794,240,2.0079302076250314,0.018973699694828667,10,253369,1000000,20.679543487230937,20.675749333699546,20.66858643690745
2,626,254282,293.8435310064815,913,2.739934792713477,0.018963807676506034,10,254282,1000000,20.746575076763445,20.74428206538106,20.725924535898063
2,627,254354,-96.80216314736754,72,1.7472994167889868,0.01895969566195383,10,254354,1000000,20.741209493364607,20.759137398856026,20.73953119005476
2,628,254838,38.36943301744759,484,2.548990405444056,0.018947409610906456,10,254838,1000000,20.83564710021019,20.83848522901535,20.823603759209316
2,629,254938,-86.6713727414608,100,3.4844729402661323,0.018935496374789994,10,254938,1000000,20.51306888580322,20.518884449005128,20.50486934661865
2,630,255917,287.17687703482807,979,2.7048897165382644,0.01891411745867737,10,255917,1000000,20.708236784787523,20.710059075503004,20.69852442004017
2,631,256385,55.89579024538398,468,2.3066291274907798,0.0189118948608791,10,256385,1000000,20.739579619532048,20.741638643845267,20.730527546094812
2,632,256809,35.966147656552494,424,2.6815051786601543,0.018906094482502876,10,256809,1000000,20.832203224727085,20.846763315654936,20.828433154878162
2,633,257442,112.04831984266639,633,3.13069695869372,0.018896989646807544,10,257442,1000000,20.815648421030197,20.8218474948217,20.80344253116184
2,634,257770,-8.47751107160002,328,3.720518426317722,0.018877584155568634,10,257770,1000000,20.83745097517967,20.843863183259963,20.809674078226088
2,635,258188,25.149911677464843,418,3.039917498136439,0.018860721772547745,10,258188,1000000,20.944375238185977,20.94117979189245,20.924527805607493
2,636,258485,-10.989741563796997,297,2.620146714587664,0.01885181521453584,10,258485,1000000,20.964995903804386,20.963366291440767,20.94883290652571
2,637,259390,289.43667147681117,905,2.8953680654118457,0.018836792455423104,10,259390,1000000,20.963491507636178,20.972244594362046,20.95556692229377
2,638,259595,-51.36179246194661,205,2.7473675656318663,0.018815926899480737,10,259595,1000000,21.078022527694703,21.071971535682678,21.059630937576294
2,639,260483,291.46249444410205,888,2.5590613671409135,0.01880916710195966,10,260483,1000000,21.098905376954512,21.100550210475923,21.08772128495303
2,640,260886,25.704294328577816,403,2.710293200593442,0.01879656736121456,10,260886,1000000,21.06541657924652,21.063507237434386,21.055572121143342
2,641,261688,170.69744003005326,802,2.7161518324539067,0.018784854997291864,10,261688,1000000,21.130877470970155,21.135808250904084,21.12271711587906
2,642,261963,-24.505076253786683,275,2.6844794027783254,0.018776036744520545,10,261963,1000000,21.135160043504502,21.131567340426976,21.123333782619902
2,643,262635,101.15232688793913,672,3.103705603240141,0.01875559966404291,10,262635,1000000,21.091695885160075,21.090297906790205,21.07839551185494
2,644,263191,71.33578448370099,556,2.946243505667556,0.018742569584732617,10,263191,1000000,21.098463367115368,21.105838676799426,21.095777523734352
2,645,264087,290.7304747682065,896,2.837816217734238,0.01872766825096288,10,264087,1000000,21.19466034106994,21.19471770725893,21.177807572182644
2,646,264845,132.9816628145054,758,2.7144219978948434,0.018728498914337758,10,264845,1000000,21.33023504257202,21.32634080505371,21.316029549916585
2,647,265366,60.81483268737793,521,3.0051145623939544,0.018713851904509762,10,265366,1000000,21.388575645593498,21.38590716948876,21.36840824347276
2,648,266298,288.6087758913636,932,2.8150736477105847,0.01870263835794006,10,266298,1000000,21.25944256115985,21.257427199168873,21.244380069035355
2,649,267105,153.8763221371919,807,2.9841045329533515,0.018697290409129496,10,267105,1000000,21.300347962379455,21.30360699534416,21.288199886083603
2,650,267624,50.67620865628123,519,2.8196025663000697,0.018693408989709153,10,267624,1000000,21.46567055945303,21.47241071813247,21.45638271406585
2,651,268040,20.689975691959262,416,3.0586558731590827,0.018677553871566315,10,268040,1000000,21.532569187443432,21.529678935539433,21.522100313698374
2,652,268427,0.4637098200619221,387,2.8248570920605407,0.018655946936110845,10,268427,1000000,21.480440581472298,21.48393446771722,21.47107004868357
2,653,268836,16.22471947222948,409,2.3215411603450775,0.018645793130637904,10,268836,1000000,21.53643102645874,21.541702466011046,21.534229784011842
2,654,269164,-14.499450888484716,328,3.1336765023181217,0.01862768486461469,10,269164,1000000,21.52320550084114,21.533114570379258,21.511918395757675
2,655,270065,288.96254090406,901,3.0033585697081353,0.01862019752912859,10,270065,1000000,21.625936794281007,21.63180447260539,21.611227037641736
2,656,270963,288.79290461167693,898,2.97729148672203,0.01860084494582927,10,270963,1000000,21.730818852413908,21.7325294666076,21.715508538149717
2,657,271327,-6.6589126996695995,364,2.823474097562333,0.018599132057244137,10,271327,1000000,21.71226651933458,21.703127341800265,21.694227107365926
2,658,271656,-16.711248027160764,329,2.6537274677539244,0.018578656259742424,10,271656,1000000,21.699731427431107,21.695248121023177,21.68198418021202
2,659,272357,117.59082009643316,701,2.7963431404318126,0.018566613700129665,10,272357,1000000,21.6886200932094,21.691034529549736,21.67745749609811
2,660,272569,-46.87809859029949,212,2.8482767932471775,0.018547524213054948,10,272569,1000000,21.881410190037318,21.877977934337796,21.87014980316162
2,661,272892,-16.086855351924896,323,2.6641470003640277,0.018542173597144714,10,272892,1000000,21.724353897571564,21.71417019367218,21.70825423002243
2,662,273821,288.4533283235505,929,3.5409350889775415,0.01853703385455088,10,273821,1000000,21.751773194644763,21.755592311983524,21.73663780067278
2,663,274015,-52.079594830051064,194,2.6310821731231715,0.01853046808705445,10,274015,1000000,21.78643804851331,21.802417845475045,21.777513594376412
2,664,274346,2.674411404877901,331,3.118541265482252,0.018516529067724108,10,274346,1000000,21.72836216435288,21.72200387318929,21.715554971405954
2,665,274615,-25.690255666617304,269,3.2234795036224217,0.01850670524593124,10,274615,1000000,21.821058801504282,21.83117300913884,21.807812309265138
2,666,275380,134.33277358161286,765,3.056729144642228,0.018486941373265297,10,275380,1000000,21.894793841713355,21.89816047517877,21.879217433929444
2,667,276302,285.9367887619883,922,2.924081172834596,0.018469609483152398,10,276302,1000000,21.669544286313265,21.665409326553345,21.659243417822797
2,668,276663,-0.9359318818897009,361,3.151607273022334,0.01846199016856961,10,276663,1000000,21.629229884677464,21.6241128815545,21.6161641491784
2,669,277484,163.81516573764384,821,3.2031408204719787,0.018442887973937172,10,277484,1000000,21.695605316394712,21.697356799753702,21.67671650909796
2,670,277898,19.912651425227523,414,3.141114438634093,0.018433617863766263,10,277898,1000000,21.674944463590297,21.66975123707841,21.65425200113436
2,671,278843,283.7249356987886,945,3.219020602867958,0.018423542470403714,10,278843,1000000,21.68242271403049,21.685434847689688,21.67001129414173
2,672,279254,23.547712083905935,411,2.9395024151336857,0.018413697302348302,10,279254,1000000,21.644865254658026,21.646736880046564,21.630171980508944
2,673,279624,8.618930889293551,370,3.8520149777467187,0.01839960088714137,10,279624,1000000,21.842962504721978,21.845382223902522,21.825804416553396
2,674,279944,-13.430737858638167,320,3.459830722678453,0.018387576987653042,10,279944,1000000,21.91753830909729,21.91310489177704,21.895547777414322
2,675,280599,112.5628148727119,655,3.1499110197447813,0.0183806330767682,10,280599,1000000,21.81253757770245,21.819674952580378,21.799940687326284
2,676,280969,13.688961269333959,370,2.8296293828938457,0.01837195233235684,10,280969,1000000,22.003151568850956,21.997854603947818,21.984847831726075
2,677,281648,121.5919928541407,679,3.0477699172140946,0.018365045468286427,10,281648,1000000,22.01303062438965,22.0125904595674,21.997686850135008
2,678,281907,-28.415786067023873,259,3.0903680697083473,0.018355139162842975,10,281907,1000000,21.941374954223633,21.941807518005373,21.923108055114746
2,679,282334,29.81075786240399,427,3.472723463656647,0.01835495007931825,10,282334,1000000,21.964130342574347,21.955893339429583,21.943161755516414
2,680,282583,-31.536068092100322,249,3.6296092994200686,0.018343818091933323,10,282583,1000000,21.775006262461343,21.77499729792277,21.758719944953917
2,681,282686,-93.54223398584872,103,3.1878101473301648,0.018330349940801,10,282686,1000000,21.7046106338501,21.70747329711914,21.69383270263672
2,682,283596,289.59838437475264,910,3.802480625942513,0.01831839339023654,10,283596,1000000,21.979992487142376,21.98003011431013,21.965466048691297
2,683,284489,290.34918651450425,893,2.963133641432845,0.018310043081647926,10,284489,1000000,21.817520310905543,21.81777339892441,21.80054591318195
2,684,284763,-30.024293653666973,274,3.0207238042244207,0.018304885207026295,10,284763,1000000,22.072239162303784,22.056834143179433,22.038176797937464
2,685,285646,292.4467011578381,883,3.327864840558984,0.018292212003129544,10,285646,1000000,21.93899085304954,21.938369226455688,21.921771597862243
2,686,285865,-44.52393274009228,219,2.5603612939516704,0.018290720500764735,10,285865,1000000,21.988784326825822,21.99840939839681,21.981544658115933
