seo-minseok/DOB-RL/cycles/Cycle_4/results/mbrl_real_ratio=0.2/seed_1_progress.csv
seed,episode,total_steps,reward,episode_length,td_loss_avg,model_loss_avg,horizon_length,real_buffer_size,model_buffer_size,q1_avg,q2_avg,target_q_avg
1,1,55,-102.82629775069654,55,nan,nan,0,55,0,nan,nan,nan
1,2,1655,-81.17089911096264,1600,nan,nan,0,1655,0,nan,nan,nan
1,3,3255,-90.55625731492182,1600,nan,nan,0,3255,0,nan,nan,nan
1,4,3330,-96.6986011043191,75,nan,nan,0,3330,0,nan,nan,nan
1,5,4930,-78.27528614428593,1600,nan,nan,0,4930,0,nan,nan,nan
1,6,5037,-98.07833778858185,107,nan,nan,0,5037,0,nan,nan,nan
1,7,5109,-100.31593102868646,72,nan,nan,0,5109,0,nan,nan,nan
1,8,5196,-109.85954670142382,87,nan,nan,0,5196,0,nan,nan,nan
1,9,5256,-112.1329510062933,60,nan,nan,0,5256,0,nan,nan,nan
1,10,5319,-111.9113848246634,63,nan,nan,0,5319,0,nan,nan,nan
1,11,6919,-85.66024655126967,1600,nan,nan,0,6919,0,nan,nan,nan
1,12,7014,-106.44906882569194,95,nan,nan,0,7014,0,nan,nan,nan
1,13,7142,-99.95282046543434,128,nan,nan,0,7142,0,nan,nan,nan
1,14,7232,-97.54075109492987,90,nan,nan,0,7232,0,nan,nan,nan
1,15,7342,-102.86634769570082,110,nan,nan,0,7342,0,nan,nan,nan
1,16,7408,-100.11587440036237,66,nan,nan,0,7408,0,nan,nan,nan
1,17,7498,-100.46427077520639,90,nan,nan,0,7498,0,nan,nan,nan
1,18,7658,-121.96468242444098,160,nan,nan,0,7658,0,nan,nan,nan
1,19,7754,-122.07092252653092,96,nan,nan,0,7754,0,nan,nan,nan
1,20,7851,-103.81470024073496,97,nan,nan,0,7851,0,nan,nan,nan
1,21,9451,-83.28791000589263,1600,nan,nan,0,9451,0,nan,nan,nan
1,22,9518,-100.69780445750803,67,nan,nan,0,9518,0,nan,nan,nan
1,23,9583,-101.28967557474971,65,nan,nan,0,9583,0,nan,nan,nan
1,24,9656,-101.26980378106236,73,nan,nan,0,9656,0,nan,nan,nan
1,25,11256,-116.5049284636043,1600,17.272052351696903,nan,0,11256,0,-0.28114546937202767,-0.2806407131964252,-0.4118589511702931
1,26,11357,-113.07700588740408,101,52.100536623448136,0.1808851631343827,1,11357,15360,-0.5613164080912247,-0.5684308795258403,-0.7353607308864594
1,27,11519,-115.55675826687366,162,58.85470133908093,0.11774638669960427,1,11519,30720,-0.7494934169575572,-0.7448529220884665,-1.0043753447942436
1,28,11788,-126.44341641152278,269,60.33106896785589,0.08617796954331976,1,11788,46080,-1.2399269131513742,-1.2485048569165744,-1.4306994463388736
1,29,11872,-116.64201216958463,84,65.51212947517634,0.0787507035702035,1,11872,61440,-1.4440147064626216,-1.4669874034821988,-1.6813993439078332
1,30,11919,-117.77730090916157,47,63.54420418739319,0.07636903171306071,1,11919,76800,-1.5667970284819603,-1.5890027165412903,-1.7442120373249055
1,31,11995,-117.39916518516839,76,61.641029603140694,0.07475201720776765,1,11995,92160,-1.6685731896332332,-1.6811840951442718,-1.770526431288038
1,32,12129,-125.66872895695269,134,64.37915254189419,0.07340905211757923,1,12129,107520,-1.8506982390697186,-1.8741068234810463,-1.9913424647771396
1,33,12201,-100.3053113501519,72,49.286622054236275,0.07212914528576195,1,12201,122880,-1.7543456605502536,-1.7474061965942382,-1.8677736120564596
1,34,12304,-112.8013861272484,103,52.25795744895935,0.0711124487802492,1,12304,138240,-1.9291331666707991,-1.9397347176074982,-2.0489670729637144
1,35,12348,-125.12231539189816,44,55.74029871225357,0.0700565427231292,1,12348,153600,-2.1745925426483153,-2.177060753107071,-2.265301412343979
1,36,12397,-120.47656588256359,49,55.034620916843416,0.06937176498274009,1,12397,168960,-2.269762635231018,-2.2823004156351088,-2.4319746136665343
1,37,12448,-123.49658961594105,51,50.31413558006287,0.06867181038380497,1,12448,184320,-2.393158459663391,-2.3821609687805174,-2.406769154071808
1,38,12620,-120.52747794426978,172,43.132433889893925,0.06806533287486269,1,12620,199680,-2.3485231634448556,-2.348289001338622,-2.427026300570544
1,39,12694,-111.00229799002409,74,44.63318898337228,0.06696558702661067,1,12694,215040,-2.797783008643559,-2.8042942251477925,-2.870683450358255
1,40,12770,-112.28691364545375,76,40.51913527079991,0.06657647880769911,2,12770,245760,-2.9154626148087637,-2.9241560901914325,-2.9489770548684255
1,41,12853,-105.93929671309888,83,39.44076290726662,0.06612138874372657,2,12853,276480,-2.972964438796043,-2.9825378492474557,-3.0287281930446626
1,42,12899,-124.3268204703927,46,40.03116672039032,0.06568896905084451,2,12899,307200,-3.392855280637741,-3.3761271476745605,-3.4195400714874267
1,43,12945,-124.75731581263244,46,39.422458338737485,0.06528341107070446,2,12945,337920,-3.315303471684456,-3.317050355672836,-3.283740609884262
1,44,12993,-124.47081474401057,48,37.600266301631926,0.06490558154384295,2,12993,368640,-3.545718625187874,-3.5488371521234514,-3.62170957326889
1,45,13040,-124.9117963835597,47,38.803314769268034,0.06455579056342443,2,13040,399360,-3.6432083547115326,-3.6527433812618257,-3.653292143344879
1,46,13133,-124.06421643681824,93,33.47393309805128,0.0641733442246914,2,13133,430080,-3.7090557641453215,-3.701608063115014,-3.734180270300971
1,47,14733,-106.43076149979606,1600,18.50389463532716,0.063669782652964,2,14733,460800,-3.3141391285602,-3.31557619179599,-3.3574090832239016
1,48,14869,-96.70512663014233,136,13.08551762012335,0.05921613162285403,2,14869,491520,-3.144712005211757,-3.1400574931731593,-3.177444922007047
1,49,14964,-115.86833144165576,95,12.983879227108426,0.058390891329310406,2,14964,522240,-2.920764077372021,-2.916978660557005,-2.95205603937308
1,50,15025,-111.82833662489429,61,15.748350544770558,0.057852772370665925,2,15025,552960,-3.202485118309657,-3.2031429102023443,-3.242804926633835
1,51,15103,-114.72151433629915,78,14.438809331825802,0.057511285534021496,2,15103,583680,-3.1879277638026644,-3.1824128653321946,-3.2390322966235026
1,52,15179,-104.35419979132712,76,12.214935779571533,0.057201750096918524,2,15179,614400,-2.9942419895104,-3.005016050168446,-3.043093412263053
1,53,15235,-110.60026765568182,56,13.781386706829071,0.05685725032357173,2,15235,645120,-3.222891809940338,-3.204965494275093,-3.235481395125389
1,54,15330,-115.52401154581457,95,11.891934349801804,0.056570913916253775,2,15330,675840,-3.0065751403570173,-3.00346685482396,-3.0442316962613
1,55,15363,-106.67436647601426,33,10.02414976755778,0.05621803519079241,2,15363,706560,-2.7774505356947583,-2.7717646956443787,-2.815481436252594
1,56,15395,-107.07556316442788,32,10.998384888966878,0.055932123851444984,2,15395,737280,-3.24598601659139,-3.2433695157368976,-3.2704323212305706
1,57,15424,-106.08674360113218,29,14.306197518110276,0.05563931410511335,2,15424,768000,-3.757431310415268,-3.691977310180664,-3.771066725254059
1,58,15453,-106.01716060563922,29,12.342823877930641,0.055350599115093546,2,15453,798720,-3.3294249355792997,-3.3185078680515288,-3.336559772491455
1,59,15483,-106.49290925671812,30,13.779245392481487,0.05506564465247923,2,15483,829440,-3.1039284904797872,-3.10705667535464,-3.1274956663449607
1,60,15558,-114.97929484164342,75,10.885624597753797,0.05475170084585746,3,15558,875520,-3.0930500032646315,-3.1037196014608655,-3.139167064854077
1,61,15588,-106.23887516744435,30,13.274107865492503,0.05445373288459248,3,15588,921600,-2.9740613475441933,-2.983096119761467,-3.0599610408147178
1,62,15665,-115.7256086091511,77,11.430274499314171,0.054144858171542486,3,15665,967680,-3.06774031072855,-3.073438158631325,-3.0945492082408497
1,63,15694,-105.99808724829927,29,11.787292283773422,0.05372169087411927,3,15694,1000000,-3.4066012620925905,-3.3873310506343843,-3.469512736797333
1,64,15732,-110.17577268183231,38,13.807656228542328,0.053412084228516926,3,15732,1000000,-3.72866051197052,-3.742914688587189,-3.7409538904825848
1,65,15775,-110.68563157133758,43,13.18234783411026,0.0531206384993316,3,15775,1000000,-3.494989800453186,-3.488732744753361,-3.522906431555748
1,66,15818,-110.93816580693237,43,11.761268356442452,0.05273803238823114,3,15818,1000000,-3.6168813824653627,-3.607573887705803,-3.655270144343376
1,67,15855,-109.16917611000827,37,15.434369218349456,0.0524051808920063,3,15855,1000000,-3.9042559385299684,-3.9302857001622518,-3.9786450187365214
1,68,15887,-106.65563503000885,32,11.685178744792939,0.05205878973658619,3,15887,1000000,-3.063200664520264,-3.0305959656834602,-3.0713321050008138
1,69,15935,-111.03765531349927,48,13.678164266049862,0.05177652070759445,3,15935,1000000,-3.40384418964386,-3.441145159304142,-3.45208185762167
1,70,16315,-130.41989818867296,380,13.132388481497765,0.051430900563155454,3,16315,1000000,-3.3274664486709393,-3.331763862112635,-3.371699099556396
1,71,16452,-113.19828944094479,137,13.874871732179935,0.050905371946159496,3,16452,1000000,-3.102581566342941,-3.1009515977822817,-3.1378935873508453
1,72,16945,-135.60152043575363,493,12.658576352498969,0.05054795299268638,3,16945,1000000,-2.6528034263423512,-2.657032125656094,-2.7029882909387957
1,73,16988,-110.78919468820095,43,11.777681151032448,0.049621833484582226,3,16988,1000000,-2.315937487408519,-2.3310228761285545,-2.357090085744858
1,74,17024,-108.73462193273008,36,10.900747442245484,0.049320707443838166,3,17024,1000000,-1.9727844506502152,-1.9394742161035539,-1.9657502934336661
1,75,17098,-114.01903377193958,74,10.520295926502772,0.04907313207484255,3,17098,1000000,-1.9350324298654284,-1.9338603854179381,-1.9957004740834237
1,76,17152,-111.59897057432681,54,13.390845487117767,0.04877619852848125,3,17152,1000000,-2.271036612987518,-2.2931074035167693,-2.3283934384584426
1,77,17225,-110.4253625785932,73,13.345300819192614,0.04852080955656607,3,17225,1000000,-2.012926763721875,-1.9912439259035246,-2.04711758941412
1,78,17316,-115.5196502301842,91,11.782105015383827,0.04830045751967833,3,17316,1000000,-1.8185990980929798,-1.8259164848261409,-1.8556786346766683
1,79,17381,-114.42624051868916,65,10.089906245470047,0.0481038705663598,3,17381,1000000,-1.4621442976097265,-1.4780878499150276,-1.5245618369430303
1,80,17634,-116.99973162077367,253,10.638463699817658,0.04784990009383776,4,17634,1000000,-1.3643001876473426,-1.3507574416697026,-1.3924259013533593
1,81,17853,-123.51892267446965,219,11.31649149883361,0.047656396429474446,4,17853,1000000,-1.080499548145703,-1.0809145410323426,-1.1115627592873005
1,82,17915,-113.9727443009615,62,11.225217813253403,0.04721346181875841,4,17915,1000000,-0.7680967474977175,-0.7555365288009246,-0.8133571738998095
1,83,17991,-115.22824630327523,76,9.892825169222695,0.04695666640421043,4,17991,1000000,-0.7899600164166518,-0.7911109971680812,-0.8225654765963555
1,84,18117,-117.84464390133508,126,11.173230880002182,0.04668650037830784,4,18117,1000000,-0.5410054147243499,-0.5378025968248645,-0.5928629862765471
1,85,18238,-114.85812310129404,121,10.118261790772278,0.04648017256032853,4,18238,1000000,-0.27198384466270603,-0.2686504217485587,-0.29354492587347825
1,86,18288,-112.15068424679339,50,14.525882663726806,0.04618798937176315,4,18288,1000000,-0.31182961449027063,-0.3472850549221039,-0.38946340426802634
1,87,18407,-115.69492970174178,119,11.43746433691545,0.046066074709937045,4,18407,1000000,-0.25783047757365485,-0.268435523184863,-0.3003610348836942
1,88,18498,-116.2233342723921,91,13.677691270245447,0.04587491609750779,4,18498,1000000,-0.17207640177673764,-0.16902241160472234,-0.21859816933671633
1,89,18550,-111.88837951188907,52,7.670595775842667,0.04559194213124337,4,18550,1000000,0.33484592378139494,0.3366938155889511,0.2829732292890549
1,90,18597,-111.30509820021689,47,9.966286359727382,0.04543800125657408,4,18597,1000000,0.11058150064200163,0.11852499786764384,0.04856172725558281
1,91,18655,-114.16607828997076,58,11.313975558280944,0.04526456720023243,4,18655,1000000,0.22484176248311996,0.1932705196738243,0.18868545323610306
1,92,19121,-137.89971660077572,466,10.248235493509666,0.0451837106573361,4,19121,1000000,0.3584990778047106,0.3618967952449685,0.32386473959878737
1,93,19172,-112.32431473676115,51,10.403928954601287,0.0447788961701565,4,19172,1000000,0.49572620302438736,0.5100085842609405,0.44359819650650023
1,94,19238,-114.9404666107148,66,11.53007085621357,0.04467443644933335,4,19238,1000000,0.4617070344587167,0.44769583294788995,0.40560818240046503
1,95,19422,-123.01369346771389,184,10.56646395292547,0.04446843986047639,4,19422,1000000,0.4931523018827041,0.494958653797706,0.4617988945295413
1,96,19477,-113.1283003911376,55,11.068266369104386,0.044068397723966174,4,19477,1000000,0.5569428408145904,0.5691654312610627,0.5499449338018895
1,97,20613,-159.43612135155126,1136,9.736635772580595,0.043906324595343646,4,20613,1000000,0.8047690925476826,0.8063126081188695,0.7647540117061771
1,98,20678,-114.6274902485311,65,8.708044127623241,0.043501757777606447,4,20678,1000000,1.0429427355527878,1.0497124771277109,0.985789115478595
1,99,20774,-118.08780704066157,96,10.803025678462452,0.043277153233066204,4,20774,1000000,0.7911176410814126,0.7803574280606376,0.7468421838763687
1,100,20871,-116.80782626615837,97,8.557572532362409,0.04305375380280577,5,20871,1000000,0.8833412835995357,0.9125851965612836,0.8692136021951834
1,101,20940,-114.3818497210741,69,8.654476050535838,0.04284362055882505,5,20940,1000000,1.0280396761993567,1.0479160495102406,0.96197058831652
1,102,20996,-113.19529961887747,56,9.944268433451652,0.04270211889297383,5,20996,1000000,1.0052789455652238,0.9871652910113334,0.9584800606966019
1,103,21070,-115.93160694092512,74,7.336747705084937,0.04257775638101062,5,21070,1000000,0.9831285536289215,0.9816232720656054,0.959797346166202
1,104,21142,-115.7507483009249,72,8.98145871588162,0.04235285616563103,5,21142,1000000,1.1260375837130205,1.1241903256092753,1.0628122172185352
1,105,21257,-101.61511874292046,115,7.914648538556966,0.0422097526248393,5,21257,1000000,1.1378446253185923,1.1396962411024354,1.0857200802727178
1,106,21377,-100.21094560902566,120,8.937987460196018,0.04209772844510864,5,21377,1000000,1.0672063160066803,1.0511802211093406,1.0334330937514702
1,107,21479,-101.12673852685839,102,6.6268833050131795,0.041996585003223764,5,21479,1000000,1.0809112811088561,1.0784914883971215,1.0511290341615678
1,108,21542,-114.25994910858572,63,6.135971746842066,0.041953452164868274,5,21542,1000000,1.045445973177751,1.0164548829197884,0.9982926184932391
1,109,21597,-113.83250122517347,55,7.3653587287664415,0.04181792909013374,5,21597,1000000,1.1033807763457297,1.0819879278540612,1.0774007621407509
1,110,21666,-116.10608542896807,69,7.016856340070565,0.04166661872277184,5,21666,1000000,1.0176910730699698,1.02560203820467,1.017221992959579
1,111,21730,-112.6778621468693,64,7.628503302733104,0.04145749916159917,5,21730,1000000,0.7703533840676149,0.7949769221246242,0.742428790529569
1,112,21793,-114.1262532249093,63,9.251325749854248,0.04129795870551514,5,21793,1000000,0.8504389834900697,0.8563748386998972,0.8120992022256056
1,113,21836,-109.1235418766737,43,9.57730166465044,0.04116168800668389,5,21836,1000000,0.7883035998791457,0.8155971389263869,0.7967953953891993
1,114,21899,-113.29951284453273,63,7.85334000090758,0.04105713844007137,5,21899,1000000,0.9241934767613809,0.900370455160737,0.8691399236520131
1,115,21979,-115.02309816377237,80,8.4756081815809,0.04090199997612074,5,21979,1000000,0.558865726646036,0.5470608700066805,0.5501810044050217
1,116,22084,-96.80894332565367,105,8.441437173187733,0.04078210434492897,5,22084,1000000,0.5563538871705532,0.5665560039877892,0.5178693300485611
1,117,22829,-111.75992689281702,745,7.5438369374822924,0.0406765915713338,5,22829,1000000,0.4375532737555536,0.4408675215735629,0.406627668384966
1,118,22889,-111.53902478609234,60,8.532942790786425,0.040601115018017726,5,22889,1000000,0.07874446362257004,0.10676371057828267,0.08919171256323656
1,119,22953,-114.77477019838989,64,6.286092054347197,0.04044842377639889,5,22953,1000000,0.5112142550448576,0.502816284696261,0.49489136015375457
1,120,23238,-115.30594410002232,285,8.014456891907113,0.040302464578035616,6,23238,1000000,0.10137965100418245,0.09647843675421817,0.05402600501797029
1,121,23321,-117.44984746165574,83,8.071413965523243,0.04006263514359792,6,23321,1000000,-0.20503827622160314,-0.19069092483259736,-0.2258484048768878
1,122,23459,-108.93542169453576,138,7.5665334043594505,0.03985471290710208,6,23459,1000000,-0.10600490747736051,-0.07792776456246009,-0.11961548890058811
1,123,23655,-93.1120299261529,196,7.007161771937421,0.039742574974512446,6,23655,1000000,-0.23495064652279804,-0.24067586585879325,-0.28066979260428954
1,124,23801,-93.57410021312535,146,7.6935742999826155,0.03955647800846592,6,23801,1000000,-0.13693028310579913,-0.13847776970693043,-0.17710284393812928
1,125,24004,-101.30860042991117,203,7.810410300344229,0.03940383416964956,6,24004,1000000,-0.16271356359124184,-0.16409972930327058,-0.19616928853094578
1,126,24200,-95.4802957708016,196,7.877807255795127,0.039135871453738126,6,24200,1000000,-0.3715131400055007,-0.3808156029958474,-0.41180873419109143
1,127,24323,-100.25905579980463,123,7.931362128878633,0.03894803680294583,6,24323,1000000,-0.6355706730857491,-0.6406569946557283,-0.6932506275052825
1,128,24461,-94.10942991543561,138,7.587764290892161,0.0388473418551056,6,24461,1000000,-0.6887380304244849,-0.7224858978046821,-0.7380630974586193
1,129,24808,-99.04609747580253,347,7.231708741363357,0.03873718431644273,6,24808,1000000,-0.7618013411979465,-0.7602447567398057,-0.7968921577886624
1,130,24961,-100.5071013411507,153,7.67034978479147,0.03861877194398807,6,24961,1000000,-0.997856768220663,-1.0130761297543844,-1.0571952658394972
1,131,25014,-110.92620484437793,53,5.831757675409317,0.03843305454016551,6,25014,1000000,-0.8314568963646889,-0.8573664063215256,-0.8486605663597584
1,132,25094,-116.41358353756368,80,7.47337102741003,0.038307179981695416,6,25094,1000000,-0.6324553114362061,-0.6313831642270088,-0.7097963833250105
1,133,25178,-100.1300603095442,84,8.464629158750176,0.03815123573275042,6,25178,1000000,-0.9639655007049441,-0.9472025860100984,-1.00986940395087
1,134,25253,-116.06667116843164,75,6.307203942537308,0.037978236789048526,6,25253,1000000,-1.0982559489352361,-1.1242211765476635,-1.1261728689074517
1,135,25307,-112.25077490322292,54,4.5116858994960785,0.037823923354094124,6,25307,1000000,-0.5659521125257015,-0.529843980371952,-0.5790368956327439
1,136,25366,-114.47399248927832,59,6.366640617251396,0.03769659692054095,6,25366,1000000,-1.0869063982367515,-1.0555502465367317,-1.119192313849926
1,137,25474,-97.42052428796887,108,10.527583903968335,0.03755591454780864,6,25474,1000000,-1.2448610612750053,-1.2300950627028941,-1.2709135095030069
1,138,25544,-101.01676297094673,70,6.8346686235495975,0.037405231459574265,6,25544,1000000,-1.1432090553854193,-1.1700070787753378,-1.1928506757531847
1,139,25604,-110.7585443649441,60,6.406787495315075,0.03731195351692161,6,25604,1000000,-0.9775274189809958,-0.9801890452081958,-0.9810580189029375
1,140,25663,-111.92332680895925,59,6.291803534030914,0.03718708238750696,7,25663,1000000,-1.1216666685044765,-1.1032615825533867,-1.1596996547281742
1,141,25762,-102.14999627321959,99,7.705037539866235,0.03707590888813138,7,25762,1000000,-1.2215130673514472,-1.2286345109343528,-1.2651035961177615
1,142,25840,-116.26503451541066,78,6.4371748745441435,0.03697342113653819,7,25840,1000000,-1.3771392657288484,-1.38153093286923,-1.39813258094447
1,143,25898,-110.84635177440941,58,7.014926100075245,0.0368184689929088,7,25898,1000000,-1.145692930817604,-1.2039129883050919,-1.2220458637177944
1,144,25979,-99.87077619321644,81,7.417291650548577,0.036718451730882375,7,25979,1000000,-1.4769645558670164,-1.454914971627295,-1.4893387901596724
1,145,26031,-101.90059486962855,52,6.359626739025116,0.03660963137108501,7,26031,1000000,-1.618706933259964,-1.6119162118434907,-1.6611323177814483
1,146,26121,-120.79954076372087,90,10.206394991609786,0.03651000144015444,7,26121,1000000,-1.6864924768606822,-1.706167437798447,-1.719948314378659
1,147,26179,-104.93319698236883,58,6.498036636710167,0.036370208273866986,7,26179,1000000,-1.3071644283831119,-1.3453895026445388,-1.2984639824926854
1,148,26273,-102.90368998423219,94,6.805981479419602,0.036281882203336245,7,26273,1000000,-1.6125887965162595,-1.61297870328029,-1.6551205658250385
1,149,26334,-110.70050671231002,61,7.864148066937924,0.036193272219422985,7,26334,1000000,-1.5249381087720395,-1.5765320166945458,-1.6015341167648633
1,150,26396,-105.5617409972474,62,6.231111623843511,0.036066596866189654,7,26396,1000000,-1.7424114207426706,-1.740816342830658,-1.7541783295571804
1,151,26455,-112.88418149203062,59,8.996177464723587,0.03596267551907058,7,26455,1000000,-1.5335856741666793,-1.5143731838464738,-1.5789002627134323
1,152,26514,-102.42673823423684,59,7.674089829921723,0.035861770000947715,7,26514,1000000,-1.6124824744462967,-1.614888345003128,-1.6950748410820962
1,153,26573,-100.77053927071393,59,4.9851279670000075,0.03575873633298095,7,26573,1000000,-1.4719240656495094,-1.4688926243782043,-1.5007846421003341
1,154,26625,-102.5571340592578,52,11.665769417285919,0.03568577323844325,7,26625,1000000,-1.7964060704410076,-1.7963780412077903,-1.8509353387355805
1,155,26687,-98.90321951080114,62,8.95629010895888,0.035581855504558633,7,26687,1000000,-1.1496545227865378,-1.142906374235948,-1.200126039981842
1,156,26763,-99.46998241264373,76,9.628609899537905,0.03554237825222886,7,26763,1000000,-0.7651042007974216,-0.7372160898787635,-0.8006895501698766
1,157,26828,-99.07020434178412,65,9.705409368375937,0.03549164487526585,7,26828,1000000,-1.0055543693403404,-0.9818382711460193,-1.0467221890886624
1,158,26889,-99.60795626416802,61,6.80336255778869,0.035436339462653565,7,26889,1000000,-0.4530096113681793,-0.4581619882956147,-0.47776981654266515
1,159,26950,-97.69839206151664,61,7.480013271172841,0.03535871424372234,7,26950,1000000,-0.5546071581542492,-0.5990688306589921,-0.6305851501723131
1,160,27006,-103.490005585365,56,6.592145913839341,0.03530950894786252,8,27006,1000000,-0.4296471883356571,-0.42801297158002855,-0.44646706074476245
1,161,27059,-102.04124513547868,53,11.046982346773147,0.03524521021615891,8,27059,1000000,-0.3218821933865547,-0.3343295163661242,-0.3818343399465084
1,162,27121,-99.6836725473404,62,8.026195267339547,0.03515351690825016,8,27121,1000000,-0.24545399695634842,-0.2655641117443641,-0.30243853194018205
1,163,27191,-99.37245309352875,70,7.86309732070991,0.035075043671660956,8,27191,1000000,-0.03912415483168193,-0.016184474102088384,-0.040431033713477
1,164,27253,-97.86412039864808,62,10.236952264110247,0.03501773285533085,8,27253,1000000,-0.12872057110071183,-0.1509593605995178,-0.16052675371368727
1,165,27313,-101.57218587677926,60,9.028379767636459,0.034933419792719606,8,27313,1000000,-0.2667258232211073,-0.24391789237658182,-0.31888114909331006
1,166,27394,-100.4995970223099,81,8.436496958136559,0.034843547541484145,8,27394,1000000,0.05582222193479538,0.06603665761649609,0.0011625465005636216
1,167,27455,-98.95159108564258,61,8.78595074514548,0.03479190010612256,8,27455,1000000,0.22074532409509023,0.2353399047628045,0.17030108297864596
1,168,27544,-99.10814287234098,89,12.49278631620109,0.03470063164273155,8,27544,1000000,0.4776198161765933,0.4667714547365904,0.3970068279653788
1,169,27623,-98.21285378746688,79,9.427033647469111,0.03461040140498093,8,27623,1000000,0.5342608281544277,0.5378634037716048,0.4893901366208281
1,170,27678,-101.69525896944106,55,10.15792755484581,0.03453828635570416,8,27678,1000000,0.7320661345124244,0.675015609562397,0.6634352770447731
1,171,27739,-103.15341507922858,61,7.907807250320912,0.03445473956289115,8,27739,1000000,0.6767171022171775,0.6965300055841604,0.6328182083865007
1,172,27813,-98.63981476146728,74,10.143738026704106,0.03437177921058955,8,27813,1000000,0.8005000569990703,0.800329583457538,0.7643701502255031
1,173,27877,-100.12937736324966,64,9.30096974869569,0.034270530689599704,8,27877,1000000,1.1047497724493345,1.1011477512617907,1.0480808888872464
1,174,27926,-102.13512602448463,49,7.499972049146891,0.03418202150130162,8,27926,1000000,1.3851889610290526,1.3063175827264786,1.2716307856142521
1,175,27993,-100.09044753201306,67,10.156704567869504,0.034095013430997134,8,27993,1000000,1.0221125728140275,1.0159380840758483,0.9727518605689208
1,176,28061,-100.32588994316757,68,10.570404908557732,0.03397608574149441,8,28061,1000000,1.2734138769408068,1.2699802406132221,1.234392084678014
1,177,28127,-101.4609933886677,66,8.302512579162915,0.03386224736473794,8,28127,1000000,1.4670511541267237,1.4709846106668314,1.4295028959711393
1,178,28194,-99.31816262868233,67,8.274495073656242,0.033762258844911505,8,28194,1000000,1.5087093035380046,1.523365198696653,1.5028308724363646
1,179,28247,-102.54842893965542,53,7.925839514732361,0.03368018985020392,8,28247,1000000,1.6005678766965865,1.619077051281929,1.572549885213375
1,180,28302,-101.59881794266403,55,8.283340570330619,0.0335994830738866,9,28302,1000000,1.4189297524094582,1.4407362779974937,1.3763471114635468
1,181,28399,-119.04177137743682,97,9.620614387260543,0.03353336147625338,9,28399,1000000,1.6701075047254563,1.6785087320539687,1.6484619004858865
1,182,29999,-112.22636864613742,1600,8.48473906791769,0.03357442342083562,9,29999,1000000,1.8987009953521192,1.9005652966210618,1.8620690687280148
1,183,30053,-103.5496968254447,54,6.271300495862961,0.03340271912791111,9,30053,1000000,2.26868967205286,2.216224026083946,2.243827737569809
1,184,30103,-105.96325466968119,50,7.639621074795723,0.032866172935081345,9,30103,1000000,2.2865296041965486,2.34784307539463,2.2937189817428587
1,185,30161,-98.67032614629716,58,6.8798375725746155,0.032679262125806255,9,30161,1000000,2.3080882489681245,2.2428082597255705,2.250265815258026
1,186,30214,-100.20534760132432,53,10.054500945210457,0.032556552978025545,9,30214,1000000,2.257277008891106,2.2387488001585005,2.2298585522174834
1,187,30268,-102.55912016145885,54,7.974535662531853,0.03243227136863322,9,30268,1000000,1.9826889568567276,1.991111766397953,1.9069529916346073
1,188,30327,-102.57055352255702,59,10.535328712463379,0.032330213975434924,9,30327,1000000,1.7799866837263107,1.8247530853748322,1.744601700603962
1,189,30383,-98.99690539203584,56,10.476341305077076,0.03223356994784485,9,30383,1000000,1.8066073992848397,1.8469322711229323,1.782898533642292
1,190,30437,-100.12387794163078,54,9.027082341313362,0.03216419895889901,9,30437,1000000,2.038887404501438,2.0623233318328857,2.0103545224666597
1,191,30489,-102.71788973687217,52,6.37887346804142,0.032051451886230604,9,30489,1000000,2.1890731167793276,2.1876557701826096,2.149686080813408
1,192,30550,-99.44627099297941,61,8.383153360088667,0.03194937860431457,9,30550,1000000,1.938740548491478,1.9281848222017288,1.8990616475542386
1,193,30604,-102.68155108136125,54,8.84834804713726,0.03188095310238563,9,30604,1000000,2.232261427640915,2.2148300474882125,2.1974926039576532
1,194,30661,-100.52331636846066,57,5.792434132695198,0.03177342937022698,9,30661,1000000,2.6553678774833678,2.6478231996297836,2.6268323385715484
1,195,30716,-100.48945967666805,55,6.33049946308136,0.031693734598009525,9,30716,1000000,2.3944421929121016,2.4224416053295137,2.3733173051476477
1,196,30764,-101.47388998419046,48,7.46204004958272,0.03159270228124132,9,30764,1000000,2.1782185159623624,2.148345246911049,2.1718998208642004
1,197,30814,-105.73799193277955,50,8.10505627989769,0.03151109851172401,9,30814,1000000,2.32814566552639,2.329146717786789,2.2962005972862243
1,198,30866,-102.8273662365973,52,9.015076748132707,0.03142269758507609,9,30866,1000000,2.2843870535492896,2.2874138590693476,2.231778923869133
1,199,30921,-102.74439430050552,55,5.948110563158989,0.0313267780881789,9,30921,1000000,2.125090615153313,2.1172349882125854,2.1180284065008164
1,200,30969,-101.44856754131615,48,5.600318675860763,0.03125038203265932,10,30969,1000000,2.666770151257515,2.651797340810299,2.6598002523183824
1,201,31021,-102.6099530607462,52,7.811426326036453,0.031164524126797915,10,31021,1000000,2.390160656273365,2.378593226671219,2.3195407503843306
1,202,31077,-100.30099783930928,56,8.363735792636872,0.031071071629476612,10,31077,1000000,2.353615143299103,2.3567941504716874,2.307891520857811
1,203,31132,-99.76985262706876,55,6.020951127409935,0.031021438707333295,10,31132,1000000,2.5817724162340165,2.5469898945093155,2.517413237094879
1,204,31180,-101.80400669248775,48,6.287301265448332,0.030937336733149103,10,31180,1000000,2.4291309867054225,2.4075827836990356,2.413479009270668
1,205,31226,-103.104779351037,46,6.785493068397045,0.03084988610269938,10,31226,1000000,2.9496769860386847,2.9172626953572034,2.89144734069705
1,206,31281,-101.90937950625084,55,5.690250520706177,0.0307821209991438,10,31281,1000000,2.979461209177971,2.978083105683327,2.938509706258774
1,207,31331,-101.34710647491738,50,6.325107613801956,0.03071944871764691,10,31331,1000000,2.5700820231437684,2.5880457258224485,2.5448822647333147
1,208,31392,-100.72837292216718,61,6.8719827950000765,0.030620565933119404,10,31392,1000000,2.8879772946238518,2.8790531386931737,2.8673043243587015
1,209,31445,-100.62431867048144,53,6.283580431938171,0.030564923707619717,10,31445,1000000,2.482712116241455,2.5011126416921616,2.468519515693188
1,210,31515,-101.11631091684103,70,6.766383959991591,0.030512293589001146,10,31515,1000000,2.7558615018214496,2.766208401109491,2.7351542860269547
1,211,31566,-102.82476704753935,51,3.779083607196808,0.03046002971932171,10,31566,1000000,3.0124419701099394,3.038191165924072,3.0186045360565186
1,212,31615,-102.12112375674769,49,5.200826328247786,0.030369012543381393,10,31615,1000000,2.8840788036584852,2.9010361421853306,2.8701214358210563
1,213,31662,-101.84253752906807,47,4.662155339866876,0.03028439695474901,10,31662,1000000,2.895912481099367,2.8197217343375085,2.8703324273228645
1,214,31713,-102.80874849949032,51,7.525016618967056,0.030196094595723682,10,31713,1000000,2.6720693176984787,2.650883536338806,2.6110176914930343
1,215,31767,-102.77231759717688,54,5.673156533241272,0.030122919451334287,10,31767,1000000,2.7307134544849396,2.7384071487188337,2.7118600964546205
1,216,31820,-102.07043586112559,53,4.78756697177887,0.030050182813197695,10,31820,1000000,2.7370711767673495,2.7483279106020926,2.71191074937582
1,217,31879,-99.55208692140877,59,7.096966220736504,0.02995600264960079,10,31879,1000000,3.0155873036384584,3.0029447329044343,2.9901275208592413
1,218,31933,-102.38533719070256,54,5.258720821738243,0.02989623814180333,10,31933,1000000,3.2129183900356293,3.209517617225647,3.191798596084118
1,219,31984,-102.20341532956809,51,5.706810809373856,0.02982296767414257,10,31984,1000000,2.999151018857956,2.9434339350461958,2.9589200806617737
1,220,32047,-105.77389227505773,63,5.468408929308255,0.02973027345874617,10,32047,1000000,2.9416041394074757,3.004421055316925,2.938987366358439
1,221,32108,-98.54386260267347,61,6.515883980194728,0.029669888300697007,10,32108,1000000,2.9005469073851904,2.8750254452228545,2.8975997790694237
1,222,32172,-98.70549340173602,64,4.818546101947626,0.029634729324777922,10,32172,1000000,2.890373452504476,2.914868872364362,2.8747228128214677
1,223,32220,-102.88579837419093,48,6.536383531987667,0.029593045363823574,10,32220,1000000,3.1984316281974317,3.1560559928417207,3.1350336372852325
1,224,32277,-101.54000393673778,57,5.158599313497543,0.029523455502589543,10,32277,1000000,2.9936400079727172,3.0241796803474426,2.971544427871704
1,225,32338,-101.93091374542564,61,6.875972706079483,0.02946352110633617,10,32338,1000000,2.7482799256841344,2.7214089954892793,2.7253001098831495
1,226,32425,-98.29254832514562,87,4.659457566216588,0.029381591829633902,10,32425,1000000,3.0638120785355567,3.0699344374239446,3.0522038146853445
1,227,32484,-99.18956104293466,59,5.025245936512947,0.029370195246129126,10,32484,1000000,3.3042464733123778,3.33096289396286,3.3112001991271973
1,228,32557,-101.14431937318295,73,5.554767045804432,0.029302931455747475,10,32557,1000000,2.6003632328339985,2.5959588944911958,2.5676836218152728
1,229,32635,-99.29802674427629,78,4.228350410716875,0.029263540265441253,10,32635,1000000,2.907378875570638,2.935996904543468,2.9261889679091317
1,230,32707,-101.30804317444563,72,5.12551149896213,0.02923704901138159,10,32707,1000000,2.847559304322515,2.816981786063739,2.8083033289228165
1,231,32797,-100.33870771760121,90,5.534045392274857,0.029203834530367002,10,32797,1000000,2.8661084284385043,2.8679400397671593,2.846481930712859
1,232,32841,-109.62240332365036,44,4.884373062103987,0.029161060102827225,10,32841,1000000,2.5157208755612372,2.5470971576869488,2.537728674709797
1,233,32895,-106.73954516462982,54,6.468836238980293,0.02910665777065636,10,32895,1000000,2.675163643658161,2.657236543893814,2.6333973628282545
1,234,32945,-106.6465600291267,50,5.333074276447296,0.029035988155131538,10,32945,1000000,2.6832577270269393,2.693271143138409,2.6405461943149566
1,235,32988,-108.46622357517481,43,5.965385591983795,0.028978916147025302,10,32988,1000000,2.7873900778591634,2.772112166136503,2.7582315534353254
1,236,33033,-106.71584406122565,45,3.9552716098725798,0.0289103854825953,10,33033,1000000,2.560236580297351,2.532720585167408,2.5138440661132337
1,237,33121,-102.62458519171923,88,6.340519442781806,0.028853604592171133,10,33121,1000000,2.8456737004220485,2.855942153185606,2.8117651645094157
1,238,33175,-104.09174321591854,54,5.512139852046967,0.028808212381347207,10,33175,1000000,2.7178064298629763,2.749431262910366,2.7099425160884856
1,239,33219,-106.00557447224855,44,4.483906288444996,0.028746188159560357,10,33219,1000000,3.0377153500914575,3.055958704650402,2.999357967078686
1,240,33308,-100.84853085502982,89,4.829491913691163,0.028673897058888308,10,33308,1000000,2.8293233536183835,2.7927260652184485,2.7957809034734966
1,241,33389,-99.77380311489105,81,4.60484274700284,0.028616392663083016,10,33389,1000000,2.837496833503246,2.828254647925496,2.8174614857882263
1,242,33454,-100.2878542970866,65,4.515410762528578,0.028585590701072645,10,33454,1000000,2.765314021706581,2.7514653036991756,2.729523878296216
1,243,33510,-101.69461839366704,56,4.5997068697214125,0.028535714527735342,10,33510,1000000,2.9017062252759933,2.9000294256210326,2.897787136435509
1,244,33559,-105.57499144691974,49,2.789704018086195,0.02849651509943681,10,33559,1000000,2.6685315750539305,2.6507318928837775,2.6541358143091203
1,245,33732,-133.79903697595,173,3.941690058392637,0.028442346321717472,10,33732,1000000,2.6306286404238026,2.634870139903882,2.6144142848603864
1,246,33810,-103.80627999641001,78,3.721928827251707,0.028399055653059755,10,33810,1000000,2.8397121020725797,2.813025208030428,2.8166323781013487
1,247,33869,-103.65820758417249,59,3.8425319743156434,0.028348551574868687,10,33869,1000000,2.861953240633011,2.8724566924571993,2.865888610482216
1,248,33930,-102.76413163356483,61,3.706033003330231,0.028281324139485756,10,33930,1000000,2.608474798997243,2.6497706736127538,2.6357197826107344
1,249,33995,-100.15420500189066,65,3.664571767052015,0.02824683781393399,10,33995,1000000,2.7422583346565563,2.7429296925663946,2.7163802569111186
1,250,34062,-100.49559759069234,67,4.0258283461133635,0.028219007875657443,10,34062,1000000,2.5416675368944803,2.528300794959068,2.5219840869307517
1,251,34125,-101.9494146881625,63,3.6394671604037283,0.028159967505543452,10,34125,1000000,2.7726815208792686,2.7731885984539986,2.740312482913335
1,252,34190,-100.95466905087233,65,3.3912526493271193,0.02809383457335165,10,34190,1000000,2.582540867726008,2.571729533871015,2.552889546751976
1,253,34248,-100.88654964230955,58,2.945149610042572,0.028038600925589564,10,34248,1000000,2.5904811429977417,2.6192799842357637,2.5729578232765196
1,254,34307,-101.99671827722341,59,3.8862091726064683,0.028000006029256303,10,34307,1000000,2.4604615461826325,2.459634095430374,2.426244255900383
1,255,34368,-100.82643379364163,61,3.083755069474379,0.0279605045571775,10,34368,1000000,2.4200097357233363,2.4032928578555586,2.4035375182827314
1,256,34429,-102.45351793989539,61,3.7878663127621013,0.02790642297405064,10,34429,1000000,2.1749525169531503,2.1672684299449125,2.162336285163959
1,257,34483,-101.86342265084386,54,2.788092297911644,0.027890621044149445,10,34483,1000000,2.6873501032590865,2.6676422530412673,2.6806873047351836
1,258,34545,-100.80226299725473,62,2.82088120530049,0.027838861576249055,10,34545,1000000,2.347239177922408,2.375548980633418,2.3170947154362995
1,259,34610,-103.019097100012,65,3.1579409703612327,0.027799337010700906,10,34610,1000000,2.7083292563756305,2.710122489929199,2.6904347439606986
1,260,34681,-101.58416732028127,71,2.8916781744786673,0.027752886843166232,10,34681,1000000,2.512892936382975,2.5304997878415243,2.5148477779967444
1,261,34746,-100.84736179746687,65,3.001991958419482,0.027711771240020975,10,34746,1000000,2.3719581005473933,2.339453107366959,2.3774288897713025
1,262,34806,-100.44753705011681,60,3.0032696694135668,0.027681776187670083,10,34806,1000000,2.370009563366572,2.3882894590497017,2.366931664943695
1,263,34885,-108.16408707387745,79,2.6976435640028544,0.027635847964772472,10,34885,1000000,2.5110504861388887,2.5116226383617946,2.48466862482684
1,264,34948,-102.35701059154235,63,2.693133072555065,0.027599442323815882,10,34948,1000000,2.704671987891197,2.706782402594884,2.7036683365702627
1,265,35028,-97.98567494004965,80,3.0378328777849672,0.027545920866267646,10,35028,1000000,2.271113134175539,2.283388967812061,2.2533316340297462
1,266,35085,-101.22112803068012,57,2.5709572446346285,0.0274908564427831,10,35085,1000000,2.6496542143821715,2.6591602104902266,2.650245399475098
1,267,35148,-104.72483369614929,63,2.678962895274162,0.027453680752511443,10,35148,1000000,2.7817547895014285,2.7957396996517976,2.7794465149442353
1,268,35205,-104.09991013165563,57,2.444482102394104,0.02740776181366032,10,35205,1000000,2.1993599647283553,2.193932558596134,2.2024789094924926
1,269,35263,-102.41358299087733,58,2.4153800415992737,0.027373153759832798,10,35263,1000000,2.5658361494541166,2.5804348623752595,2.5693985772132875
1,270,35320,-103.6166537317913,57,2.6849421095848083,0.027322178421918204,10,35320,1000000,2.554685950875282,2.5645546263456342,2.555151392221451
1,271,35373,-102.91518655605614,53,2.619245864152908,0.027273175181082274,10,35373,1000000,2.5837131571769714,2.5750657933950425,2.5657256454229356
1,272,35436,-105.82640443742275,63,2.7102620720863344,0.027215422703412134,10,35436,1000000,2.579404243826866,2.569964893658956,2.5549779002865156
1,273,35496,-107.30619753070641,60,2.604624542593956,0.027140672794646686,10,35496,1000000,2.4526100595792135,2.4496409351627033,2.4452773441871005
1,274,35564,-111.02401382289827,68,2.201653682688872,0.0271027651116036,10,35564,1000000,2.093368617196878,2.1085793221990268,2.0787713840603828
1,275,35616,-102.73191873927135,52,2.0993185770511626,0.02706135535063807,10,35616,1000000,2.2154956993460657,2.2018674474954607,2.1968920582532885
1,276,35666,-102.28248378494754,50,2.833519096374512,0.027022954999364253,10,35666,1000000,2.2003149560093878,2.1915255284309385,2.1827253764867782
1,277,35718,-102.81600237870589,52,2.145310768485069,0.026996842352785082,10,35718,1000000,2.674939772486687,2.6572067725658415,2.653873569369316
1,278,35779,-102.62999663408846,61,2.224908295770486,0.026955082659705653,10,35779,1000000,2.18740059286356,2.1938586215178173,2.1923180297017097
1,279,35834,-102.05820355378091,55,2.5519008004665373,0.026901004548302944,10,35834,1000000,2.202361176609993,2.2022122031450273,2.1835788106918335
1,280,35901,-102.60052784113213,67,2.297462098300457,0.026888558700037517,10,35901,1000000,2.496732288102309,2.4884236067533494,2.483187410235405
1,281,35966,-102.9941439004615,65,2.0943416277567546,0.02683307049529893,10,35966,1000000,2.0262103681763013,2.0184465646743774,2.013848213851452
1,282,36031,-103.65138322114944,65,2.494756104548772,0.02680825963350279,10,36031,1000000,1.851188487559557,1.8466344398756822,1.8423619536062081
1,283,36096,-105.9328696122393,65,2.1277188767989474,0.026774495839185657,10,36096,1000000,2.2572226718068125,2.2689014223714667,2.252627122650544
1,284,36156,-102.99442583834752,60,2.3643690168857576,0.026716422832991495,10,36156,1000000,2.0008010476827622,2.0092233672738073,2.004985718180736
1,285,36216,-103.65999144222587,60,1.9675866092244785,0.026675211576564373,10,36216,1000000,2.33849615752697,2.3417574752122166,2.327884226044019
1,286,36273,-104.24516477808356,57,1.894310432076454,0.026636449885213347,10,36273,1000000,1.7712558981776239,1.8050941616296767,1.7734187254309655
1,287,36336,-110.89516193978488,63,2.1349183743198714,0.026608834976669462,10,36336,1000000,1.8858945069213708,1.8556214043249686,1.8887881609300772
1,288,36393,-107.6827197438106,57,2.245971779823303,0.026559790424632686,10,36393,1000000,1.5302593871951102,1.5332096293568611,1.5403606760501862
1,289,36467,-105.35850836150348,74,1.8615301617554256,0.026527059034492487,10,36467,1000000,2.0681859054735727,2.0666916885546276,2.0581373272197587
1,290,36540,-107.17226253123954,73,1.939936356459345,0.026493328460820125,10,36540,1000000,1.51712535066264,1.5133629739284515,1.5043045701725142
1,291,36592,-103.9265922922641,52,2.3246163815259933,0.02647427388340095,10,36592,1000000,1.4847847163677215,1.4563724491000176,1.462197035253048
1,292,36651,-104.7305062264204,59,1.6898371356725692,0.026443913709284835,10,36651,1000000,1.9996833324432373,1.9940236219763756,2.004085809588432
1,293,36713,-102.87508374638855,62,1.82290568202734,0.026410539629749763,10,36713,1000000,1.710096115867297,1.7030426080028216,1.6988412529230117
1,294,36782,-111.23992554098368,69,2.299885734419028,0.026374067426908822,10,36782,1000000,1.5165767222642899,1.5140901520848273,1.514207902053992
1,295,36839,-104.49011711869389,57,2.1513896787166598,0.026342901712530977,10,36839,1000000,1.5344159767031669,1.548324528336525,1.5281698107719421
1,296,36892,-103.30700407829136,53,2.362226364016533,0.02631946678831305,10,36892,1000000,1.6388265159726143,1.650139192044735,1.638348135948181
1,297,36973,-101.83475179271773,81,1.8895197201520204,0.02628493491060066,10,36973,1000000,1.3210893211886288,1.3222350874915718,1.3372298190370202
1,298,37096,-112.3036242784001,123,2.2707186698913575,0.026252394332550465,10,37096,1000000,1.5103211169441542,1.5061595509449641,1.4973498011628787
1,299,37163,-101.34328710334376,67,2.745832925538222,0.02623668321304851,10,37163,1000000,1.3186117271582285,1.311002753674984,1.2970633419851463
1,300,37214,-102.36504525691271,51,2.616837885379791,0.02622036156383739,10,37214,1000000,1.5868231880664825,1.5752646350860595,1.5898039349913597
1,301,37280,-103.26903636194766,66,2.6569160262743634,0.026219746045682623,10,37280,1000000,1.0783535016079744,1.063742989798387,1.070906675606966
1,302,37340,-106.14237510599196,60,2.4691268811623255,0.026204334443499303,10,37340,1000000,1.3809156738221646,1.3741445942471424,1.3670482123891512
1,303,37396,-103.23091675434262,56,2.5900626575946806,0.0261799427472997,10,37396,1000000,0.9431903222203255,0.9495689243078231,0.9323823180794716
1,304,37455,-105.45756190549582,59,2.6123854553699495,0.026135462171240756,10,37455,1000000,0.9107244163751602,0.8811825059354306,0.9019302678108215
1,305,37574,-98.46653761342168,119,2.416598593104969,0.02611824653311271,10,37574,1000000,0.8337068564512513,0.8389288902282714,0.8284500739791176
1,306,37632,-105.27634935081005,58,2.2336659061908724,0.02610594832070478,10,37632,1000000,0.7267215663194656,0.7162256383895874,0.7159563530981541
1,307,37703,-102.30344152078032,71,2.4192007669380735,0.02607416237985331,10,37703,1000000,0.41504072110567775,0.4132589448775564,0.4009075390441077
1,308,37759,-104.67710825242102,56,1.97987209379673,0.026067678967402096,10,37759,1000000,0.5184095034003258,0.5177233716845513,0.524956128001213
1,309,37828,-104.51114909723401,69,2.1383803402384123,0.026039266435095784,10,37828,1000000,0.6526512960592906,0.6523489390810331,0.6520404189825058
1,310,37882,-106.27864644490182,54,2.0562273424863817,0.026006773786615082,10,37882,1000000,0.972122994363308,0.9624299030005932,0.9705690303444863
1,311,37972,-95.10312625952065,90,2.2633270849784215,0.02596253070245389,10,37972,1000000,0.10536349912484487,0.0960188239812851,0.10419277085198296
1,312,38040,-101.46261016651988,68,2.115356456736724,0.02596983477590723,10,38040,1000000,0.6859335077305635,0.6805211613575618,0.6833500655988852
1,313,38112,-100.02862366847694,72,2.3120331653526853,0.02596617085808838,10,38112,1000000,0.3078957197921617,0.3055911251476833,0.30789069139531683
1,314,38194,-105.61810437496752,82,2.075621396303177,0.02595339145947684,10,38194,1000000,0.5253772055730224,0.5237591218203306,0.5316895101219415
1,315,38280,-104.91930832900107,86,2.2801110960543154,0.0259070387155951,10,38280,1000000,0.510072716511786,0.5172946652397513,0.504617121256888
1,316,38348,-105.8246220452711,68,2.128753572702408,0.025895148354855426,10,38348,1000000,-0.2576367750763893,-0.2524615116417408,-0.2634499621888002
1,317,39948,-86.07426353404298,1600,1.8478955247066915,0.0258892622295042,10,39948,1000000,-0.212731932294555,-0.210680166548118,-0.21427571500651538
1,318,41548,-85.42805785825476,1600,1.6135383532196284,0.026025130216064108,10,41548,1000000,-1.2479907499346883,-1.2468583615659736,-1.2491041435301304
1,319,41630,-104.12000667490065,82,1.5545280262827874,0.02567454606999831,10,41630,1000000,-2.2308925190009177,-2.2419210147112607,-2.225554211065173
1,320,41693,-118.95282063633204,63,1.5508346830805142,0.025546121089086857,10,41693,1000000,-1.8203944846987725,-1.8172016565998395,-1.8164718906084696
1,321,41809,-131.5278293727897,116,1.4903930319981142,0.025484022241346386,10,41809,1000000,-1.438485032861883,-1.4439493045210838,-1.4404815539717675
1,322,43409,-110.96333856321871,1600,1.518649905771017,0.025487828415443316,10,43409,1000000,-2.391200992485974,-2.390217922972515,-2.3912347430177032
1,323,43785,-93.96801867568865,376,1.469518613734761,0.02513953139399283,10,43785,1000000,-2.5755891273553306,-2.57426152535387,-2.575595857927928
1,324,43980,-101.8451826767996,195,1.5366859456426218,0.02536560335717587,10,43980,1000000,-2.716952387282723,-2.709421028902656,-2.7147648167453315
1,325,44108,-115.05909063434228,128,1.4658229614297549,0.025387117886084328,10,44108,1000000,-2.8199613351374864,-2.8228474641839663,-2.8245534657190245
1,326,44200,-111.01410668157041,92,1.5174598938888975,0.025377474819100642,10,44200,1000000,-2.614330196711752,-2.6151165670818752,-2.6158877157502705
1,327,44257,-111.33552415110171,57,1.8350829684734344,0.025334516778415025,10,44257,1000000,-2.6737346804141997,-2.6876464557647703,-2.6924003159999845
1,328,44337,-122.73963246122003,80,1.5923347108066082,0.02528430490588495,10,44337,1000000,-2.6189966931939126,-2.6089031774550677,-2.5979971956461667
1,329,44403,-114.9470911230892,66,1.3957625523209571,0.025247494479451106,10,44403,1000000,-2.372210505604744,-2.371285307407379,-2.375242398182551
1,330,44476,-114.96459030732512,73,1.5872796612126487,0.025215589374964178,10,44476,1000000,-3.18408428302833,-3.1720278433391025,-3.1838758758136203
1,331,44518,-106.42315095476806,42,1.425908727198839,0.025195793958240852,10,44518,1000000,-3.373513026535511,-3.364916044473648,-3.3661441430449486
1,332,44604,-117.35579982027411,86,1.5806233067065478,0.025147928041989173,10,44604,1000000,-3.787895765528083,-3.783581645786762,-3.7811291225254537
1,333,44838,-123.63739541079849,234,1.5639818402736083,0.025121651054627592,10,44838,1000000,-3.431566820649997,-3.4352910362831923,-3.4309484625640123
1,334,44892,-113.11348912678659,54,1.537971829175949,0.025151064788301786,10,44892,1000000,-3.582425826191902,-3.5825781345367433,-3.5859779900312425
1,335,44951,-117.07590673491359,59,1.4759929966926575,0.025117838128691627,10,44951,1000000,-4.243393105268479,-4.235224140882492,-4.243543726205826
1,336,45004,-110.85892930720001,53,1.3186788535118104,0.025090618599738393,10,45004,1000000,-3.7558522713184357,-3.7556575173139572,-3.753503004312515
1,337,45068,-118.94388743676245,64,1.4447202652692794,0.025058978417090007,10,45068,1000000,-3.7392990107337636,-3.7291841578980285,-3.735626320540905
1,338,46668,-100.99359977245331,1600,1.5244853744283318,0.025024274772625754,10,46668,1000000,-4.36224539110437,-4.3603576640971005,-4.3614253290742635
1,339,46749,-108.90683551877737,81,1.5786415614187717,0.024231185672647787,10,46749,1000000,-4.729328195005655,-4.713120870292187,-4.731600942090154
1,340,48349,-94.47027125395834,1600,1.523450756892562,0.024213134533565342,10,48349,1000000,-5.1813418665993956,-5.1828096552938225,-5.1832778006326405
1,341,49949,-102.09302189387381,1600,1.5969239157065749,0.02384602663946067,10,49949,1000000,-6.2438398940395565,-6.242449053153396,-6.245530579127371
1,342,50019,-104.44553069444373,70,1.5319554959024702,0.023324638930523497,10,50019,1000000,-7.070805733544486,-7.074412652424404,-7.078319583620344
1,343,50106,-108.92121573723853,87,1.6114041954278946,0.023288631522630016,10,50106,1000000,-6.109346656501293,-6.1050650537014,-6.105625128746032
1,344,50189,-107.9954424817115,83,1.4792581751942635,0.023257763581907648,10,50189,1000000,-6.1648621968925,-6.172053900361061,-6.160353405773639
1,345,50262,-106.995375784114,73,1.3584746377808707,0.023212478529079025,10,50262,1000000,-5.541600110275405,-5.537025584493365,-5.542026099562645
1,346,50364,-104.16109154443257,102,1.4973758783936502,0.023153172360517744,10,50364,1000000,-5.893067082464695,-5.895456983447075,-5.89464279204607
1,347,50443,-106.95675899181515,79,1.4960030053343092,0.02314008619116784,10,50443,1000000,-6.054416171142033,-6.062035254069737,-6.061470523902348
1,348,50510,-106.41682187095284,67,1.3774979690710702,0.023101364822456276,10,50510,1000000,-5.626494320233663,-5.637595348556837,-5.633535223205884
1,349,50595,-110.39319534413517,85,1.5643113180994987,0.023061132963664844,10,50595,1000000,-6.0010130494833,-5.986043532192707,-5.986549764871597
1,350,50704,-110.68020306248218,109,1.405295161008835,0.023043498872777735,10,50704,1000000,-5.456722337901592,-5.464189925789833,-5.459625121951103
1,351,50800,-111.8873720150441,96,1.549121261636416,0.02303054906390231,10,50800,1000000,-6.321025419235229,-6.32519224219852,-6.329494976997376
1,352,50887,-106.43497438635677,87,1.408178847283125,0.0229927202021885,10,50887,1000000,-6.084665681421757,-6.084366612136364,-6.084177935123444
1,353,51000,-110.88771924562752,113,1.4671491479331797,0.02296578277040411,10,51000,1000000,-5.89800104173747,-5.8991532304070216,-5.909003001722422
1,354,51094,-111.09048223681748,94,1.5566830962896347,0.022951394897359898,10,51094,1000000,-6.312610454029507,-6.307492762141758,-6.311053223080105
1,355,51213,-106.22936769016087,119,1.5138250919905576,0.02292326069694368,10,51213,1000000,-6.478300809318369,-6.477017196741971,-6.478547074578025
1,356,51353,-105.87716363091022,140,1.4761507798518454,0.022914659811804693,10,51353,1000000,-6.136380405936922,-6.136139079076903,-6.135933141197477
1,357,51457,-109.95089164189994,104,1.5976532086730004,0.022912017434524992,10,51457,1000000,-6.589758366942406,-6.599930561184883,-6.59845642209053
1,358,53057,-130.3016730900854,1600,1.5367138788476586,0.022879851083726827,10,53057,1000000,-6.851658628582954,-6.848150393217802,-6.85130077351816
1,359,53200,-110.93267525406554,143,1.631972189460482,0.022305215313586733,10,53200,1000000,-7.17946212376867,-7.178133591583797,-7.174105753643172
1,360,53316,-103.26155614666641,116,1.6314440949396654,0.02228365447162238,10,53316,1000000,-6.903094465082342,-6.890670800209046,-6.897330394658176
1,361,54916,-109.14312628924381,1600,1.7101471072994172,0.02225273251414108,10,54916,1000000,-7.237585029341281,-7.236225336436182,-7.237899912633002
1,362,54994,-106.91625722125173,78,1.7452408969402313,0.02209389154448223,10,54994,1000000,-6.649335462706429,-6.647404439108712,-6.647640875407627
1,363,55073,-104.40979605168104,79,1.7449811007295335,0.022037902114350014,10,55073,1000000,-6.885646111624581,-6.885466519423893,-6.889337742328644
1,364,55163,-106.43068916350603,90,2.062991448243459,0.022000503686162853,10,55163,1000000,-6.795598189367189,-6.793689398633109,-6.818157445391019
1,365,55253,-106.45118974428624,90,1.8320960574679905,0.021991857910572097,10,55253,1000000,-6.298100749651591,-6.306587706671821,-6.2966897567113245
1,366,55332,-107.32390033826232,79,1.7779529056378773,0.021977983586952205,10,55332,1000000,-6.766130985532488,-6.765062275954655,-6.768914631434849
1,367,55411,-110.22713797912002,79,1.9810850650072098,0.021961029456859387,10,55411,1000000,-6.166846268517631,-6.175244178090777,-6.160801039423261
1,368,55544,-107.83020800445229,133,1.7045335877400178,0.021921056037320308,10,55544,1000000,-6.59262823508336,-6.599582430949578,-6.600852077282392
1,369,55643,-101.48832431063056,99,2.0474772426817154,0.021897449848862986,10,55643,1000000,-6.860904926723904,-6.854235104719797,-6.853328132629395
1,370,55735,-106.09325034823269,92,2.0153589963912966,0.021888430905278013,10,55735,1000000,-6.3021510856019125,-6.302291170756022,-6.306249641047584
1,371,55812,-103.88035676814616,77,1.9232087586607252,0.021876674345172313,10,55812,1000000,-6.796844152041844,-6.783918252161571,-6.781892185551779
1,372,55902,-107.14939565979876,90,1.7544774893257353,0.02185703451497429,10,55902,1000000,-6.659825223022037,-6.657739775710636,-6.6600852701399065
1,373,57502,-89.76252333866432,1600,1.8009981786087155,0.021840771778688883,10,57502,1000000,-7.670948446244001,-7.675511941090226,-7.672552207633853
1,374,57578,-100.8186682574451,76,1.6118801998240606,0.021741758171923548,10,57578,1000000,-8.478058167866298,-8.482382437161037,-8.482961593355451
1,375,59178,-123.33906100317836,1600,1.8167669149674475,0.02168735362661426,10,59178,1000000,-8.197864949554205,-8.19730777297169,-8.198535588979722
1,376,59259,-101.30288336984813,81,1.8894424431025982,0.021469406692195592,10,59259,1000000,-8.318669688701629,-8.313470506668091,-8.325279423594475
1,377,60859,-80.71587181754876,1600,1.8585701017081737,0.021450348302700473,10,60859,1000000,-9.032644921317697,-9.03651995614171,-9.035525031015277
1,378,62459,-50.51356972102076,1600,1.8487837376073002,0.02134944955135909,10,62459,1000000,-9.459412823468448,-9.457070300877094,-9.457075325846672
1,379,62542,-100.60596361756325,83,1.7399313744157552,0.021350883614573376,10,62542,1000000,-8.833797645568847,-8.8399329662323,-8.840705507993698
1,380,62775,-113.29726536059752,233,1.782433154401572,0.021308981319584076,10,62775,1000000,-9.168378543853759,-9.166018432119618,-9.171513089926346
1,381,62887,-95.37207621894777,112,1.7524989978833632,0.021339808737947826,10,62887,1000000,-9.290748617865823,-9.287309581583196,-9.289318717609753
1,382,64487,-78.66478402889334,1600,1.7077055393438787,0.02130869673476333,10,64487,1000000,-9.496893586963415,-9.498003567457198,-9.499486345499754
1,383,64708,-101.18451445549726,221,1.7849389680407264,0.021011261292207605,10,64708,1000000,-9.202148864486,-9.20456769249656,-9.200692059777
1,384,64796,-101.12857118993998,88,1.5701228316873312,0.021019835502313323,10,64796,1000000,-9.095708602666855,-9.095838195085525,-9.106992042064666
1,385,65198,-117.4953339677304,402,1.612126108929515,0.021000009881914132,10,65198,1000000,-9.224343900680543,-9.222628548145295,-9.222268475294113
1,386,65655,-120.5722701009363,457,1.553438028494517,0.02099710496685167,10,65655,1000000,-9.294562329186334,-9.295001378589205,-9.296052731408013
1,387,67255,-117.57359161414206,1600,1.5960624983720482,0.021073029230319663,10,67255,1000000,-9.383638426661491,-9.381702175438404,-9.384701672047377
1,388,68441,-191.35064550163224,1186,1.6885396461365587,0.0208039087660459,10,68441,1000000,-9.332757184465052,-9.334920279050278,-9.336215895515377
1,389,68567,-120.62520854175091,126,1.5396681658923626,0.020609742768118146,10,68567,1000000,-9.253049731254578,-9.261105249325434,-9.253435264031092
1,390,68915,-126.38265642849728,348,1.6053655065157835,0.020589675118544426,10,68915,1000000,-8.755517367755665,-8.753114341988283,-8.752536582245547
1,391,68982,-119.7619394659996,67,1.5570917417605719,0.020628055994303104,10,68982,1000000,-8.489324768384298,-8.485244091351827,-8.495465644200642
1,392,69474,-90.26187614165246,492,1.7133372428465863,0.020578615209999433,10,69474,1000000,-8.587739499734372,-8.58538642756793,-8.588555450828707
1,393,69660,-105.86965223378502,186,1.8229268113772075,0.020670275613069902,10,69660,1000000,-8.383672205607096,-8.376553449365828,-8.382174473338656
1,394,69730,-123.48002561926842,70,1.6275707227843148,0.020653164899433214,10,69730,1000000,-7.754743279729571,-7.755427724974496,-7.752268699237279
1,395,69816,-124.65612670779228,86,1.967179774865508,0.020609953145578723,10,69816,1000000,-8.402687707543373,-8.402864751219749,-8.398138213157655
1,396,69947,-119.50009336136281,131,1.7191259707395847,0.02057001571919696,10,69947,1000000,-8.148452778962943,-8.15474591071789,-8.160549879074097
1,397,69998,-118.44677886366844,51,1.8036070334911347,0.02055063659077344,10,69998,1000000,-8.32213475227356,-8.334741296768188,-8.328893489837647
1,398,70657,-116.70240913983434,659,1.7809613830997393,0.020522412878798916,10,70657,1000000,-8.294583530792822,-8.297947229422055,-8.29924411214315
1,399,71353,-87.69577900972217,696,1.7080522418454074,0.02053881724441541,10,71353,1000000,-8.249710074369458,-8.252616100553153,-8.25470322266869
1,400,71435,-119.26621045917273,82,1.760578989982605,0.020589368455379987,10,71435,1000000,-8.496842685341836,-8.484937742352486,-8.49160526394844
1,401,71779,-152.97961991187185,344,1.7687735121916321,0.020571526496258333,10,71779,1000000,-7.962598459159627,-7.967876727440778,-7.969562559969285
1,402,72123,-131.0563022486167,344,1.7718893813736298,0.02055314152856313,10,72123,1000000,-8.140079712166505,-8.142075286893284,-8.145093518846176
1,403,72237,-138.51229682564735,114,1.8973444204438816,0.020576345110102198,10,72237,1000000,-8.249447285045276,-8.237966188517484,-8.252201138843189
1,404,72414,-141.87081964686513,177,1.87541402017369,0.02056465740480744,10,72414,1000000,-8.45385506994584,-8.447371189734515,-8.45164721292608
1,405,72637,-137.32869846373796,223,1.7529863035137003,0.020533342973657182,10,72637,1000000,-8.13006020730192,-8.128044519099323,-8.133948843045669
1,406,72763,-132.18045509047806,126,1.8159388919671378,0.020516306151349636,10,72763,1000000,-8.323171309630077,-8.326146312554677,-8.324090496699016
1,407,73301,-156.8598424345255,538,1.8095622444490216,0.020498885212798423,10,73301,1000000,-8.247339147216868,-8.251321028313546,-8.250867515015152
1,408,73522,-120.78690847102553,221,1.742255618355491,0.020514514247098794,10,73522,1000000,-8.123415900360454,-8.124284894899889,-8.126026690006256
1,409,73606,-127.5313186943531,84,1.9237395081669093,0.020497531835184487,10,73606,1000000,-7.895005306601524,-7.902988940477371,-7.896803978085518
1,410,73694,-106.2887133108452,88,1.7811921268701554,0.02047534072349815,10,73694,1000000,-7.892717486619949,-7.892779552936554,-7.893598902225494
1,411,73737,-109.5627471730113,43,1.881476828455925,0.020445848003670174,10,73737,1000000,-8.200619900226593,-8.196278011798858,-8.197156912088394
1,412,73960,-143.76310828281567,223,1.95907074294307,0.02041777852789016,10,73960,1000000,-8.036533756689591,-8.018486385995692,-8.03517708453265
1,413,74025,-113.9515908434987,65,1.7480708015461763,0.020413918596804487,10,74025,1000000,-8.382433183987935,-8.380977336565653,-8.379864899317424
1,414,74073,-110.60788866505027,48,2.1116826690733435,0.02040033856774181,10,74073,1000000,-8.618894183635712,-8.621259951591492,-8.61982444524765
1,415,74325,-98.57281520683318,252,2.213673302054405,0.020373811063194493,10,74325,1000000,-8.051913927078248,-8.046959891319275,-8.056313178062439
1,416,74633,-107.81192078907043,308,1.9190617948770523,0.020388107972926107,10,74633,1000000,-8.025578887462617,-8.028413458665211,-8.024730434417725
1,417,76031,-168.52354230871424,1398,1.8382127536929769,0.02039738923528862,10,76031,1000000,-8.04010033899074,-8.03538944017973,-8.03890588043405
1,418,76145,-95.26303084054962,114,1.8579499645666642,0.020497195695124162,10,76145,1000000,-7.735828655416316,-7.737724775617773,-7.741170504960147
1,419,76304,-109.19308857619762,159,2.1274702362219493,0.020477099582034464,10,76304,1000000,-7.820738698641459,-7.815462813377381,-7.811698826154073
1,420,76392,-111.774175722152,88,2.6288566548377275,0.020468098758792783,10,76392,1000000,-8.262677985429765,-8.264952328801154,-8.272618982195855
1,421,76525,-114.86971386428922,133,2.3502831862523004,0.020445421935211226,10,76525,1000000,-8.098467047397907,-8.094059720406165,-8.108167967429528
1,422,76901,-110.07387118716724,376,2.549066984371559,0.020417976628372265,10,76901,1000000,-7.88206128333066,-7.880525314968986,-7.889060805294965
1,423,77069,-98.85843008477241,168,2.296709224767983,0.02044940916924841,10,77069,1000000,-7.801966917514801,-7.809345081448555,-7.799783809483051
1,424,77337,-97.4755292359041,268,2.7059001558102094,0.020443675492540548,10,77337,1000000,-7.761734601167532,-7.7631366436298075,-7.7696495523819555
1,425,77611,-94.42878114059567,274,2.4379843048475407,0.02048280555302602,10,77611,1000000,-7.679944086957861,-7.6774274199097245,-7.691710565708302
1,426,78087,-106.829266655026,476,2.6661433720842322,0.020482862042621744,10,78087,1000000,-7.508446169914083,-7.507896324675134,-7.512800832504921
1,427,78536,-129.70960298762657,449,2.335755911537192,0.020521630094961715,10,78536,1000000,-7.4911578598347575,-7.491991427811709,-7.4989409828727895
1,428,78969,-87.99929396808147,433,2.8546924321457396,0.020492194896291997,10,78969,1000000,-7.461360719869303,-7.463712516496348,-7.47314764954323
1,429,79074,-100.86988878063858,105,2.4823859375715256,0.02051562286844856,10,79074,1000000,-7.582346336841583,-7.596656496524811,-7.605985825061798
1,430,79904,-71.91777299530804,830,2.398649750201099,0.020476634713349404,10,79904,1000000,-7.457606877476336,-7.4564676465758355,-7.463182057530047
1,431,80056,-102.2722901412053,152,2.5229458415508272,0.020559087470293235,10,80056,1000000,-7.578886357148488,-7.568602745532989,-7.578951574166616
1,432,80632,-122.75641561578959,576,2.2937242334871963,0.02051683026385836,10,80632,1000000,-7.264311914276658,-7.2638609398875325,-7.271559839290485
1,433,81609,-69.23928847437492,977,2.237011168113689,0.020559192997563605,10,81609,1000000,-7.310137816741294,-7.310446180326423,-7.310729791792397
1,434,81916,-87.9177721934393,307,2.1420666314661503,0.020620687135282426,10,81916,1000000,-7.332385128339132,-7.330213620662689,-7.337464677890142
1,435,82054,-113.52541009662673,138,2.404205359174655,0.020618366824741337,10,82054,1000000,-7.196219677191515,-7.2017502729709335,-7.208839445847731
1,436,82272,-98.11988043878227,218,2.330717982848485,0.02060185113727736,10,82272,1000000,-7.042668375514802,-7.040952870391664,-7.037394758065542
1,437,83872,-107.57271625287831,1600,2.209109910139814,0.0205787164827389,10,83872,1000000,-6.8818256216496225,-6.881513515338302,-6.88559783872217
1,438,83979,-127.43435735069215,107,2.508274293988943,0.02040402148902477,10,83979,1000000,-6.758726387023926,-6.7638475441932675,-6.775976359844208
1,439,85579,-152.63969335705042,1600,2.379872139832005,0.020377425688538488,10,85579,1000000,-6.543152872184291,-6.5454062563925985,-6.54832312213257
1,440,87179,-132.43507714010775,1600,2.356055027199909,0.020055199950792177,10,87179,1000000,-6.076414391249418,-6.075975600033998,-6.08095114861615
1,441,88779,-110.70572026865557,1600,2.294366413252428,0.019669419334032663,10,88779,1000000,-5.954055963344872,-5.954567516678944,-5.962244376894087
1,442,90029,-184.96091538737528,1250,2.2778015495300292,0.019634151768642756,10,90029,1000000,-5.583684880328178,-5.585325630390644,-5.590160570573807
1,443,90185,-112.90093729970977,156,2.323435511191686,0.0198098573317187,10,90185,1000000,-5.034560451110204,-5.032592274347941,-5.026225368579229
1,444,90762,-122.72806420410052,577,2.105058968119454,0.019788097440632004,10,90762,1000000,-5.231267650399292,-5.233320942991658,-5.235542973823715
1,445,92362,-102.50677655637264,1600,2.1365837057773023,0.019889155289302046,10,92362,1000000,-5.000286048343405,-5.00354796860367,-5.007154302373529
1,446,93962,-81.45279278198723,1600,2.271533305728808,0.0202126390012671,10,93962,1000000,-4.74985873427242,-4.750064813168719,-4.7570771274529395
1,447,95562,-96.15886751236394,1600,2.1995261804852633,0.0204285039425194,10,95562,1000000,-4.436265175826848,-4.436563478107564,-4.445583707494661
1,448,97162,-105.38549445103854,1600,2.2652657594997434,0.0205682219529626,10,97162,1000000,-3.973103057155386,-3.9752537170425057,-3.9846130346227437
1,449,98762,-124.5277424743399,1600,2.1521947014518084,0.020695845426282236,10,98762,1000000,-3.734789770357311,-3.7336957954149694,-3.7425211264472455
1,450,100362,-120.12413249444216,1600,2.2489830956887453,0.020781466561768738,10,100362,1000000,-3.4576630523521454,-3.4591253628674896,-3.463904410107061
1,451,101962,-104.54528725706041,1600,2.248401496540755,0.020866896416263363,10,101962,1000000,-3.1655853254906834,-3.164205122489948,-3.1754856723546983
1,452,103562,-104.54955872427672,1600,2.2998315225169064,0.02093699771951466,10,103562,1000000,-2.888896184056066,-2.890015226174146,-2.9000957847293467
1,453,105162,-86.069609654136,1600,2.33184559956193,0.021010465915668325,10,105162,1000000,-2.5424636897910387,-2.543214932642877,-2.553126993267797
1,454,106762,-117.67861840035766,1600,2.1884964505489917,0.021037009417768416,10,106762,1000000,-2.203176822038367,-2.20983485551551,-2.218526535895653
1,455,106861,-94.63020133785903,99,2.5217007658547823,0.02103194845937115,10,106861,1000000,-2.1301325604319574,-2.1410027671191427,-2.151080949438943
1,456,108461,-106.63058146554977,1600,2.171531655834988,0.020987787617029522,10,108461,1000000,-1.8142888609552756,-1.8145029547740705,-1.8221983157936483
1,457,110061,-100.3886922635138,1600,1.9666489799227564,0.020984950653879873,10,110061,1000000,-1.568892995561473,-1.5677754724095576,-1.5774980732472614
1,458,111661,-108.27690717671067,1600,2.1000160619290544,0.020956675328383773,10,111661,1000000,-1.397098154402338,-1.396631753772963,-1.4063013447681443
1,459,113261,-108.220533776097,1600,2.097671766206622,0.02098345238735347,10,113261,1000000,-1.1986250528646634,-1.1975340425758623,-1.2091765658860094
1,460,114861,-104.68160754535347,1600,1.8798682073317468,0.020908721742328384,10,114861,1000000,-1.0476845646603032,-1.0434502130839973,-1.0522098576882855
1,461,116461,-86.19803330209106,1600,1.971827390831895,0.02086334000008979,10,116461,1000000,-0.9177925085462629,-0.917554374767933,-0.92626112065278
1,462,116629,-144.0621934607625,168,1.33082194654271,0.02081531540992589,10,116629,1000000,-0.9504712282679975,-0.9495018674060702,-0.9536786995828151
1,463,118229,-100.89495146926492,1600,1.8084977747267112,0.020780023668411668,10,118229,1000000,-0.602334205918014,-0.5992166342400015,-0.6108187651215121
1,464,118351,-125.31179160252213,122,2.4426781332120298,0.020717473700777266,10,118351,1000000,-0.6741501420736313,-0.6826861729845405,-0.6923024148990711
1,465,119951,-101.91910226515029,1600,1.9330739452969283,0.020682782181209385,10,119951,1000000,-0.38646181404590607,-0.3892809713445604,-0.3960400660103187
1,466,121551,-83.20260713924654,1600,1.882952851592563,0.020619964875424137,10,121551,1000000,-0.3247609281144105,-0.32132075148634615,-0.3295905636693351
1,467,123151,-62.32241072808392,1600,1.9957820778898894,0.020622948642149464,10,123151,1000000,-0.2099240169301629,-0.2076613152725622,-0.219670429546386
1,468,123211,-114.497617341578,60,2.1316359035670756,0.02066812015339288,10,123211,1000000,-0.47958691921085117,-0.4836089392503103,-0.4961142760391037
1,469,124811,-90.51724484656006,1600,1.9406525231478735,0.020636908936153577,10,124811,1000000,-0.06680619531311095,-0.0706131961196661,-0.0783128750976175
1,470,124849,-111.55069306120276,38,1.7324801415205002,0.02076844211825865,10,124849,1000000,0.050434820850690204,0.037127825617790225,0.039375998576482135
1,471,124899,-115.68747636582702,50,1.3684132117033005,0.020722764694118524,10,124899,1000000,0.08263686746358871,0.08531032040715218,0.06585973560810089
1,472,126499,-76.56748582236469,1600,1.6632873589033261,0.020692579997837298,10,126499,1000000,0.16845240589464083,0.16331873926334084,0.15846840923652053
1,473,128099,-11.256864869676065,1600,1.7751389072509483,0.020751116638211345,10,128099,1000000,0.20289900459814816,0.20368853102438153,0.19364627568284049
1,474,128383,-101.29977124743164,284,1.691906630327659,0.020784973848611117,10,128383,1000000,0.14259334140058075,0.13988077150923864,0.12858494727739267
1,475,129983,-52.69016684603412,1600,1.8755148757901043,0.020760924396237095,10,129983,1000000,0.1419290114659816,0.1394460542825982,0.13398336080368609
1,476,130116,-116.2479870179668,133,1.8373077049278297,0.020858152602100593,10,130116,1000000,0.2918901986800707,0.29376537948846815,0.2932897712175663
1,477,130438,-109.14759498368949,322,1.7298565643373878,0.020826309773303433,10,130438,1000000,0.45490847032051535,0.45312242498621347,0.4472384811844677
1,478,132038,124.79848402994685,1600,1.9196005157288163,0.020802487720953108,10,132038,1000000,0.14307866117917,0.14252530698664487,0.138894139691256
1,479,133134,37.24299143766984,1096,1.8186802445816885,0.020810993906580706,10,133134,1000000,0.4488529212909554,0.4538529586149465,0.44519003965302345
1,480,134217,-10.075886586448178,1083,1.6885342291590792,0.02080688059747888,10,134217,1000000,0.5090153765347268,0.511127987579891,0.506085349916032
1,481,135817,98.52267607487738,1600,1.6388008656399324,0.02083062952509951,10,135817,1000000,0.6479244427150115,0.640054449820891,0.6378505409229547
1,482,137075,-120.72586396499537,1258,1.853190856808424,0.020900721700873766,10,137075,1000000,0.8279353872358799,0.8288028373539448,0.8240026700437069
1,483,138675,43.40250341920182,1600,1.9684180314093829,0.020891208178436274,10,138675,1000000,1.1065700827026739,1.1100765672675335,1.0979404067853467
1,484,140275,19.30637173051946,1600,2.0611147251771764,0.02088270649470008,10,140275,1000000,1.2394997338484972,1.2435987380100415,1.232681841647718
1,485,141875,9.845278307097033,1600,1.9502868149941788,0.020870992646874413,10,141875,1000000,1.5649763856129721,1.5686102149961516,1.5590563061507419
1,486,143475,36.11564562213607,1600,2.2067324691452086,0.020835577159062046,10,143475,1000000,1.7927608696650714,1.7918281817995012,1.783341595013626
1,487,145075,32.829311192035675,1600,2.3624408772215246,0.020820948070114746,10,145075,1000000,2.0066258606640623,2.0051511967740954,1.9886071191588417
1,488,146675,69.82613931130618,1600,2.0747009146539495,0.02078215079831817,10,146675,1000000,2.081149962595664,2.0789670382719487,2.0705866568814963
1,489,148275,19.414801174774766,1600,2.1403070732951166,0.020836105244776932,10,148275,1000000,2.1740319201909006,2.1735475049586968,2.166826302194968
1,490,149875,51.569562438409775,1600,2.1230864367680624,0.020867173136391547,10,149875,1000000,2.264470764165744,2.2681693567475305,2.2562944918638097
1,491,151475,71.28303266735747,1600,2.0919381535612045,0.020898011075359293,10,151475,1000000,2.3494011940155177,2.3537109078746288,2.343191244341433
1,492,153075,72.6840504235588,1600,2.0252813817886635,0.020930793452787318,10,153075,1000000,2.4316530095692723,2.4335471967351623,2.422664296599105
1,493,154675,118.22863649111241,1600,2.0661603333009406,0.02095246530376637,10,154675,1000000,2.6409187526907774,2.6476436994271353,2.630628569836263
1,494,156275,119.18463896261528,1600,1.9914462440554053,0.020975207474913292,10,156275,1000000,2.7262287333002315,2.7253476321324706,2.718105825521052
1,495,157875,165.16520166792907,1600,1.7492052938695997,0.020966505062221828,10,157875,1000000,2.7373126734606923,2.7373491748794914,2.730260513359681
1,496,158550,-58.912710992153734,675,1.739688498504571,0.020943786539399423,10,158550,1000000,2.9502944927829415,2.954409459322246,2.934256451565828
1,497,159977,43.12923505390063,1427,2.100093641090141,0.020906737825934066,10,159977,1000000,3.10144691961542,3.0971581632245173,3.0869500423506113
1,498,160101,-100.89157211594284,124,1.80130030742536,0.020880365256681785,10,160101,1000000,3.1968869355817637,3.210243745148182,3.195275059590737
1,499,160670,-47.021416534204036,569,2.58812664328143,0.020848621155818304,10,160670,1000000,3.0963880308105476,3.087509728954839,3.073527147940227
1,500,161841,-12.062966962810606,1171,2.0918876742769,0.020825978176215745,10,161841,1000000,3.393662599162159,3.3874156315803017,3.3752739755643737
1,501,162302,-56.53853033226915,461,2.406760213896632,0.020817442933679067,10,162302,1000000,3.510286024957895,3.4982133483757143,3.4977096828429595
1,502,162926,-58.76964556449093,624,2.1092002906265757,0.020802471315632405,10,162926,1000000,3.501233256247736,3.510743014466378,3.494115710246467
1,503,163673,-22.472228784114122,747,1.870788801401048,0.020796702690793503,10,163673,1000000,3.644134573517619,3.6599968497616215,3.6438472392792636
1,504,165273,191.1675138042774,1600,2.0747833501780404,0.02082624710138244,10,165273,1000000,3.675172635661438,3.6753035896923394,3.664852531873621
1,505,165755,-67.12812276557088,482,2.0333944769731414,0.020879166078409638,10,165755,1000000,3.697955204670628,3.711284563379983,3.6988742917155224
1,506,165914,-77.68553785420954,159,2.171568759828806,0.020861846182086554,10,165914,1000000,3.7681876852114997,3.7676114696264267,3.7648993907372157
1,507,167514,189.02966095507145,1600,2.0437231157766655,0.0208215469405354,10,167514,1000000,3.9276903286296876,3.929363876674324,3.917612864859402
1,508,167733,-68.00832806155086,219,2.4017617294830935,0.02085462763172619,10,167733,1000000,3.721493839649927,3.731621681508564,3.708717290134657
1,509,169333,235.8770726234652,1600,2.4802286866120995,0.020832034133981353,10,169333,1000000,4.018963951729238,4.017765207197517,4.007929974114522
1,510,169774,-42.816887171939015,441,1.9821702068671585,0.020843343391537334,10,169774,1000000,4.399930133602836,4.4075701620768415,4.3902338724244725
1,511,171185,129.1741911387071,1411,2.183989817807649,0.020835593919367602,10,171185,1000000,4.355663259850537,4.350658340641159,4.341573354136859
1,512,172785,129.26331422291696,1600,2.255324646960944,0.020851384226545068,10,172785,1000000,4.612802482657134,4.616758932434022,4.605523850638419
1,513,174385,-115.1099917080719,1600,2.376662276298739,0.020809316311057372,10,174385,1000000,4.8315834498219195,4.830684860236943,4.821357771158218
1,514,175438,19.08591497328598,1053,2.0910026919912723,0.020644704820118695,10,175438,1000000,5.046719731560775,5.045493296555111,5.027945659813427
1,515,176162,40.046853070613,724,2.323104029573086,0.020686404813996487,10,176162,1000000,5.158614755256308,5.160988949570391,5.147914526363214
1,516,176320,-91.85560331633314,158,2.0655290680130323,0.0206871017903927,10,176320,1000000,5.310463356177012,5.306784047285716,5.289309185345967
1,517,176697,-38.2912586866878,377,2.2514200346896778,0.020652631604087417,10,176697,1000000,5.250396758479041,5.27154106384999,5.2513301164717285
1,518,178297,-108.65101892361417,1600,2.0840437342831866,0.020646333116588096,10,178297,1000000,5.273240760192275,5.277603939902037,5.265741157270968
1,519,178843,-10.664664559997618,546,2.1467896856229616,0.020620574344706034,10,178843,1000000,5.327305122934006,5.32537258769627,5.317660656129872
1,520,179099,-66.53036165097728,256,2.552391294747591,0.020620194977503396,10,179099,1000000,5.526367475494743,5.52658477807045,5.5063779985904695
1,521,179614,11.617574063595384,515,2.20974788601492,0.02059727490665973,10,179614,1000000,5.548200075006952,5.542042005237411,5.540706780728172
1,522,180549,110.24312301073223,935,2.3601259042819343,0.020612400799770045,10,180549,1000000,5.600275207991882,5.609235641937102,5.589859657069688
1,523,180743,-72.68270264565945,194,2.636489421835071,0.02063205824138918,10,180743,1000000,5.544870481993023,5.52520757788106,5.532277921626442
1,524,181201,-27.69037416577339,458,1.806278400603268,0.02060050686594447,10,181201,1000000,5.709540763960944,5.712028555075327,5.6991505853335065
1,525,181453,-55.44122278690338,252,2.307163933634758,0.020609431212020617,10,181453,1000000,5.790781798839569,5.792515295505524,5.784390402197838
1,526,181833,-31.05570244556293,380,2.241264095039744,0.02057987478493297,10,181833,1000000,6.01982520191293,6.017634106623499,6.009673289876235
1,527,182228,-24.277099311817437,395,2.0366141530565725,0.0205711938661169,10,182228,1000000,5.985256939362257,5.977264027412121,5.974844588988867
1,528,182501,-44.246464459225535,273,1.5909808287190066,0.020566055451969947,10,182501,1000000,6.056643836586564,6.073664346447697,6.060464764965905
1,529,182781,-47.45625307224691,280,2.158469899424485,0.020542839816980733,10,182781,1000000,5.946335818937847,5.938389669145857,5.935140629325594
1,530,183005,-65.25961016956717,224,2.5532959362322636,0.020515810036722634,10,183005,1000000,6.033643340522593,6.038152399930087,6.021880385008726
1,531,183169,-95.06784273963422,164,2.0375469907186927,0.020500567406902905,10,183169,1000000,6.122756981849671,6.105200979858637,6.097588574886322
1,532,183698,4.644885815680027,529,2.6207649460062385,0.020493046689109926,10,183698,1000000,6.225785745336459,6.2285473773112665,6.209849524039488
1,533,183995,-76.52034715376794,297,2.2610430605709553,0.02049509277883337,10,183995,1000000,6.313539302760157,6.311237555125664,6.291496819463269
1,534,184274,-42.4381405711174,279,2.0743012512447656,0.020481373810018227,10,184274,1000000,6.4458132902781164,6.414418892065684,6.430213303919191
1,535,184817,-8.190233984962106,543,2.5053961190360563,0.020468755712405393,10,184817,1000000,6.1914367981531,6.195819104931973,6.188727252461292
1,536,185663,91.67603403981775,846,2.6194894930968684,0.020473603114496076,10,185663,1000000,6.243946411567075,6.240913363723528,6.229846802176464
1,537,186901,274.8227500489447,1238,2.1802259040617846,0.02048159274852824,10,186901,1000000,6.238813106146285,6.233375183644333,6.226200036328983
1,538,187980,152.1191827384755,1079,2.389591461252943,0.02055109319681106,10,187980,1000000,6.500627106929493,6.501989490963588,6.488067197688272
1,539,188321,-59.697467983700335,341,1.9949415983303505,0.020622434221262233,10,188321,1000000,6.629462700030383,6.624903583175996,6.621205217347425
1,540,188359,-112.98575706034899,38,2.62446768283844,0.02061091298748509,10,188359,1000000,6.1605369567871096,6.1505191644032795,6.125687130292257
1,541,189593,269.626198080834,1234,2.686242071042458,0.020586514309589285,10,189593,1000000,6.872730895222687,6.874222243970972,6.861455458475322
1,542,190855,267.4655273165554,1262,2.4908016371644206,0.0206909868202533,10,190855,1000000,7.169252830270737,7.167216152047354,7.15867206974635
1,543,192085,273.0586956879124,1230,2.598837564613034,0.020800597724531855,10,192085,1000000,7.433649169962581,7.433575591614576,7.417070140295881
1,544,193291,278.61442312039435,1206,2.4669135713577273,0.020861560207357008,10,193291,1000000,7.584869487732649,7.5908203917741774,7.573500720163186
1,545,194478,284.0033701353241,1187,2.3854299015412894,0.02089248263447753,10,194478,1000000,7.901759778645079,7.904179244122263,7.894121581417019
1,546,195542,128.17928197514266,1064,2.400920905587527,0.02092325815314989,10,195542,1000000,8.173366352971994,8.171874382810772,8.157814772174044
1,547,196310,56.13015118800104,768,2.1037116926653603,0.02093329072826981,10,196310,1000000,8.430285232004367,8.42448887166224,8.427328041980141
1,548,197448,275.85475572105497,1138,2.2466165546954207,0.020943147965826036,10,197448,1000000,8.628195413656995,8.629660859994129,8.617494652756548
1,549,198569,277.7751306928694,1121,2.369520644065259,0.020968973486842502,10,198569,1000000,8.956487239045757,8.959378011950426,8.94657056012324
1,550,199691,277.2389042880386,1122,1.998507786648614,0.02100801049148844,10,199691,1000000,9.150579293072223,9.14626888611487,9.140832134016923
1,551,200455,78.11099093966186,764,2.2344865314564424,0.021030424259698543,10,200455,1000000,9.473575660743212,9.471326578918257,9.461827002073589
1,552,201502,281.3752033524215,1047,2.490520823130814,0.021034203118871837,10,201502,1000000,9.679609994934156,9.679636452289728,9.666074603796005
1,553,202575,280.9272128737066,1073,2.5143939359374694,0.02105176772863897,10,202575,1000000,10.006725217694434,10.006265337444912,10.001198207997831
1,554,202679,-123.24067818745971,104,3.1782879188656805,0.021066580135791275,10,202679,1000000,9.797607440948486,9.783664407730102,9.762650804519653
1,555,202924,-49.02175146806985,245,2.188609751313925,0.021039640592561082,10,202924,1000000,10.05974439382553,10.070811821023623,10.066001798709234
1,556,203570,55.67475588666275,646,2.706055866519455,0.021013879292701005,10,203570,1000000,10.319200065732002,10.31196825876832,10.297972653806209
1,557,204677,282.7363113500178,1107,2.4517219486290758,0.020997816879044538,10,204677,1000000,10.515678218711507,10.51452642917633,10.504124976071445
1,558,205225,11.867568270303309,548,2.293264624338459,0.021004172612228738,10,205225,1000000,10.644884324073791,10.650253255278976,10.64238283722489
1,559,205971,71.29204716999084,746,2.314508388312282,0.02099055043246118,10,205971,1000000,10.78463504958797,10.78302938229329,10.778390542236535
1,560,207085,279.81642826646566,1114,2.2606335548532974,0.020993438862869595,10,207085,1000000,11.039209358971398,11.04423843461114,11.029890215074694
1,561,207314,-59.5724935377948,229,2.4678844441744414,0.021020537103517072,10,207314,1000000,10.97208731174469,10.9566063078967,10.954841470718383
1,562,207560,-50.38549012131989,246,2.2816105356129506,0.021004220833491533,10,207560,1000000,11.253977147738139,11.253406925996144,11.241652085383732
1,563,208375,105.93134880904108,815,2.312771131374218,0.020984430236611593,10,208375,1000000,11.086274066972145,11.089738270088478,11.071210939501539
1,564,208832,9.895430142991245,457,2.7636994974811873,0.021003645767777388,10,208832,1000000,11.355678375032213,11.351853002972073,11.33451980802748
1,565,209193,-32.98676432855427,361,2.3132635021789207,0.02099515836091678,10,209193,1000000,11.422036107381185,11.425067112180923,11.41136078039805
1,566,209925,100.70535284467041,732,2.3011464162334185,0.02098218114208392,10,209925,1000000,11.563236776769978,11.561917269066589,11.55208390706206
1,567,211006,279.795832243748,1081,2.249259064498323,0.02098012781898847,10,211006,1000000,11.60378424194124,11.600301769706938,11.593454936477873
1,568,211360,-21.633132057264447,354,2.8556034818291662,0.02100432216616281,10,211360,1000000,11.787011883599417,11.792636093412126,11.773597033364432
1,569,211726,-30.519013902870938,366,2.011111909813351,0.020994928543164273,10,211726,1000000,11.762410725487603,11.765228884749943,11.759286896387737
1,570,212874,274.23761521372944,1148,2.124738278409891,0.020992296376985943,10,212874,1000000,11.897847206550733,11.894816314128407,11.886053200771935
1,571,213912,285.56686461437494,1038,2.082703194456193,0.021025514397792582,10,213912,1000000,12.051387051239754,12.047920071962968,12.038217216787986
1,572,215011,280.6863931203261,1099,2.3241788106705616,0.021038810076069333,10,215011,1000000,12.316854905207222,12.314072192043339,12.304812447084199
1,573,216014,287.60312843788415,1003,2.438754816509783,0.021052237555390554,10,216014,1000000,12.496321763515473,12.497998612880707,12.489377405643463
1,574,216109,-126.71929597482085,95,1.5306012012892298,0.02106336267298981,10,216109,1000000,12.743025408850777,12.764781718783908,12.755255360073514
1,575,216509,-17.134647764265537,400,2.0650419641472397,0.021030843045744946,10,216509,1000000,12.57066717505455,12.574047683477401,12.562673174142837
1,576,217605,281.3399162562564,1096,2.3427549529308025,0.021021643554170927,10,217605,1000000,12.771203636029444,12.776364094182986,12.761530811852271
1,577,218615,285.66060076933354,1010,2.1107965451213393,0.021045472879985382,10,218615,1000000,12.958159607707865,12.954224189437262,12.945529205020112
1,578,219815,271.5061952590477,1200,2.1988872567688427,0.021072694011783754,10,219815,1000000,13.234094081322352,13.23989591995875,13.225363588730493
1,579,221015,269.97557886550203,1200,2.502126994083325,0.021117412143986797,10,221015,1000000,13.39723610162735,13.395684429407119,13.387610102097193
1,580,222199,268.4901209305972,1184,2.397336301302253,0.02115786773080345,10,222199,1000000,13.542115771568428,13.541327069169384,13.52825178291838
1,581,223420,267.663209116552,1221,2.3167026663718167,0.021180446920948663,10,223420,1000000,13.720841840056123,13.72167691246408,13.709308156029122
1,582,224585,275.57145675085485,1165,2.6412991927743987,0.02120677940091773,10,224585,1000000,13.972472025608194,13.967717867884142,13.954734239084967
1,583,225771,162.3538826117292,1186,2.516838800667201,0.021234464440926634,10,225771,1000000,14.200514248266058,14.20225915585534,14.195375213784686
1,584,226834,136.35017306543887,1063,2.7292774897420182,0.021255797489059612,10,226834,1000000,14.328184103965759,14.325877296699668,14.321393600499855
1,585,226913,-122.57233208045363,79,2.894461770994323,0.021279180974141044,10,226913,1000000,14.400827162606376,14.405989497048514,14.37927372796195
1,586,228128,266.00257974420674,1215,2.0423612539987426,0.021254147696985033,10,228128,1000000,14.451389091271015,14.45889856638002,14.44840606973191
1,587,228427,-51.80635192152113,299,1.946722744379578,0.02131865318959354,10,228427,1000000,14.60417509736686,14.605307704004748,14.607249444106529
1,588,229522,275.4459840366617,1095,2.28801175195963,0.021305257598250013,10,229522,1000000,14.757206669203732,14.753179370810132,14.740640879114833
1,589,230679,272.8371201539412,1157,2.1971331691353218,0.021321603520551607,10,230679,1000000,14.926414286572001,14.923967494135317,14.919906651870065
1,590,231872,269.3972524823621,1193,2.0954670065340877,0.021334026017458162,10,231872,1000000,15.049233858925955,15.049996506666936,15.043610636126093
1,591,233046,268.9634365038946,1174,2.0548913144848795,0.021361458173114294,10,233046,1000000,15.281193241706262,15.285197057479467,15.277737429203132
1,592,234223,273.86536828707904,1177,2.0245731502325617,0.021370301369386606,10,234223,1000000,15.417049129192646,15.42599598566691,15.413995752579126
1,593,234336,-115.41050508990884,113,3.2676146375862034,0.021369297570602616,10,234336,1000000,15.653495320406828,15.650144472989169,15.627345405925404
1,594,235457,277.27963884407654,1121,2.309751140100083,0.02134283162734873,10,235457,1000000,15.623037001064846,15.62787544812475,15.611656562771117
1,595,236573,280.3177932826802,1116,2.084401330707578,0.021343448112178615,10,236573,1000000,15.804497035774025,15.81392703013377,15.799279959566958
1,596,237687,280.70490992441773,1114,2.2602861004369754,0.02134012416815506,10,237687,1000000,16.04040219074971,16.0486327669642,16.039621232866168
1,597,238818,276.3268427895382,1131,2.3855281616734194,0.021350363741331767,10,238818,1000000,16.200557392255394,16.207037973825912,16.194125308821686
1,598,240081,266.14346494711936,1263,2.351787143791952,0.02137179804049187,10,240081,1000000,16.42373148524572,16.42245260268923,16.413866825709267
1,599,241184,277.86457278579473,1103,2.237100865901871,0.021419485548079778,10,241184,1000000,16.595978623303502,16.604723684137518,16.588409552140668
1,600,242355,275.1881016122643,1171,2.2647253166788666,0.021434608450777676,10,242355,1000000,16.786494306417612,16.788208959856604,16.776452611450456
1,601,243537,272.5954392943531,1182,2.2097787141231664,0.021458731361003913,10,243537,1000000,16.963194511704526,16.966684478824423,16.955775399127248
1,602,244571,284.5751503929496,1034,2.366033652974564,0.021481494521908267,10,244571,1000000,17.032551169163973,17.028610334118593,17.022103605918513
1,603,245731,276.1066419053823,1160,2.1704870524270268,0.021486655737210005,10,245731,1000000,17.150240829073148,17.151688703997383,17.137420884494123
1,604,246527,54.051525751594454,796,2.164243478205385,0.021509502416617098,10,246527,1000000,17.27196190508106,17.26583732291113,17.265495266491854
1,605,247677,278.73701307177544,1150,2.0437986872636755,0.021499377395505923,10,247677,1000000,17.433025846895966,17.443347433338996,17.43000311644181
1,606,248749,283.3518313271925,1072,2.006966751305578,0.02149114628546826,10,248749,1000000,17.47681213450209,17.46954996964642,17.465455989302875
1,607,249817,283.1832278072834,1068,2.050948789272949,0.021498009605781444,10,249817,1000000,17.63612291048158,17.63761336848421,17.63203255185541
1,608,250979,274.2277575917542,1162,2.121604669100509,0.021493069394213013,10,250979,1000000,17.76858216071951,17.77189906218956,17.765197174302465
1,609,252081,279.9966491404921,1102,2.3155744396759705,0.021506957986335062,10,252081,1000000,17.786500466086647,17.794978416616267,17.77906707243486
1,610,253206,274.5079049570486,1125,2.254420832105513,0.021503407227223725,10,253206,1000000,17.84796772173473,17.848373527186258,17.84153624858175
1,611,254334,277.39698442444205,1128,2.404487105465627,0.021503859456850797,10,254334,1000000,17.96428592971393,17.97402076125145,17.959628411701747
1,612,255498,275.37778085144237,1164,2.247342155616859,0.021509730981080753,10,255498,1000000,18.163860273361205,18.16148724967036,18.154525009517013
1,613,256286,61.44289811514318,788,2.3773492719166174,0.021513604630548792,10,256286,1000000,18.33571962821178,18.334117577626156,18.32382284066616
1,614,257273,286.37561968062073,987,2.1914806401471094,0.021527144313664922,10,257273,1000000,18.273490232350873,18.27256348473685,18.260523748397826
1,615,257756,9.518098745495081,483,2.4904411236134667,0.021524612795237506,10,257756,1000000,18.257503519455593,18.258407572905224,18.248367561896643
1,616,258889,274.20524151436985,1133,2.0989988044431778,0.0215171180098923,10,258889,1000000,18.514912266857856,18.51565726373048,18.510266145351714
1,617,259997,275.86352422460914,1108,2.0094998978620224,0.021528124902980814,10,259997,1000000,18.55989500739358,18.561571774916214,18.55279449376193
1,618,260818,128.82016326487064,821,2.2331324508459103,0.021524754050195414,10,260818,1000000,18.593817805080878,18.588818861798543,18.581083330293982
1,619,261889,276.51462077116594,1071,2.127130183549685,0.021514294658053833,10,261889,1000000,18.648505537086557,18.644432711378435,18.63856960457062
1,620,262240,-7.532555950805545,351,1.8157033388529504,0.02152528499625441,10,262240,1000000,18.783781779153006,18.774134355272565,18.76714750834874
1,621,262696,11.980822352692485,456,1.9781204773154524,0.021504529287146093,10,262696,1000000,18.888475320604112,18.89470084084405,18.87333890914917
1,622,263440,101.06362118711695,744,1.9969434931471541,0.02148942128840478,10,263440,1000000,18.889530699961895,18.8788482124741,18.87586873801979
1,623,263922,11.663323691114783,482,2.424762951536104,0.021481986532418,10,263922,1000000,18.900175336996714,18.89466759165128,18.889190797011057
1,624,264194,-35.74888851493597,272,2.101670957356691,0.021457892266979205,10,264194,1000000,19.058354024533873,19.072796761548076,19.064354345533584
1,625,264591,7.736063988879323,397,1.9758125476730175,0.021438353771803472,10,264591,1000000,19.04755403567583,19.038560226636054,19.042149568215393
1,626,265018,17.847141026810277,427,1.9891111685317897,0.02142216625246849,10,265018,1000000,18.980368929817562,18.99017463638669,18.982853646505447
1,627,265472,36.07793733663857,454,2.1852614131404295,0.02140511233203605,10,265472,1000000,19.088097743988037,19.077269314659965,19.079580658806695
1,628,265876,17.104089429602027,404,2.120186546938494,0.021383230542097682,10,265876,1000000,19.06554695367813,19.067426450252533,19.058684701919557
1,629,266956,281.09162878617644,1080,2.2061445825560777,0.02137115033763337,10,266956,1000000,19.027393759621514,19.020779946998314,19.01295739279853
1,630,267985,282.0521467477083,1029,2.1287167388215367,0.02135250252067938,10,267985,1000000,19.037612528894464,19.039717729418886,19.030596135644352
1,631,268058,-98.72693872638047,73,2.8454739801585673,0.021346396509406007,10,268058,1000000,18.943388857160297,18.99348763057164,18.93970982687814
1,632,268362,-29.066276600584388,304,2.3986558544884127,0.021317723980283174,10,268362,1000000,19.250087401072186,19.236627130508424,19.223127524058025
1,633,268871,23.158895064145327,509,2.0168392616212367,0.021307534394423185,10,268871,1000000,19.045253797531128,19.04478841781616,19.039672700881958
1,634,269765,148.75719293113798,894,2.0066371546953583,0.02129763868995129,10,269765,1000000,19.02076254319609,19.02969266377138,19.019328661715047
1,635,270156,-9.674163024872541,391,1.868758049320716,0.021296162385848475,10,270156,1000000,19.193629030080942,19.202389071537898,19.186503635308682
1,636,270414,-36.208728979341686,258,1.9817082270979882,0.021280715480317344,10,270414,1000000,19.047783382415773,19.04761544418335,19.04572993850708
1,637,271192,106.77219767961651,778,1.8987500630706162,0.021259888606157736,10,271192,1000000,19.150300300895395,19.149891195668804,19.14109865659243
1,638,271436,-34.421063866466284,244,2.053169726083676,0.021238111959565705,10,271436,1000000,19.13113959232966,19.13420125246048,19.1269438068072
1,639,272426,289.38780661299825,990,1.8679641389259787,0.021222526071265152,10,272426,1000000,19.229444443095815,19.229567387128117,19.221776402598678
1,640,272630,-52.27664512209594,204,2.30665093831718,0.021209212566520506,10,272630,1000000,19.436688838005065,19.442909865379335,19.423042697906496
1,641,272819,-60.300009813159704,189,2.276164592885309,0.021191947684648976,10,272819,1000000,19.294619422488744,19.260685300827028,19.2731818040212
1,642,273686,167.58160431461874,867,2.0386968772425207,0.021170210949435293,10,273686,1000000,19.279868841171265,19.276816685255184,19.27671919312588
1,643,274681,291.4626816092059,995,2.2335959724780885,0.021153424630051355,10,274681,1000000,19.350708718733355,19.34390811920166,19.338315590945157
1,644,275588,298.5716516338289,907,2.029672239522139,0.02113292391257898,10,275588,1000000,19.343827499813504,19.339060995313858,19.340933871799045
1,645,275942,-5.580256920307875,354,2.104784879216126,0.021122819629222005,10,275942,1000000,19.43823966707502,19.437801230294365,19.432845393589563
1,646,276667,134.10695716366172,725,2.147618277215709,0.021105271117045153,10,276667,1000000,19.533913238843283,19.53717248969608,19.52449725733863
1,647,277097,26.371521631255746,430,2.017722576925921,0.02108829360805958,10,277097,1000000,19.64986688259036,19.648191161488377,19.646440113422482
1,648,277774,122.0018264260143,677,2.3285062459533785,0.02107528407380297,10,277774,1000000,19.564529055979715,19.568710298680546,19.56124207795556
1,649,278659,297.21729498170316,885,2.170238645180044,0.021061435704178157,10,278659,1000000,19.604152996973557,19.590404084595768,19.58434304974296
1,650,278925,-26.406925106421113,266,1.764944290742278,0.02104738203360124,10,278925,1000000,19.910592655035167,19.896229655926046,19.89847492804894
1,651,279264,12.917017916217446,339,1.8953039939882177,0.02102933286934097,10,279264,1000000,19.927119035431833,19.911676548466538,19.91911935517282
1,652,280121,301.62892070785165,857,2.3013607414417407,0.0210066838003695,10,280121,1000000,19.991655132069308,19.9888209141002,19.978752432430493
1,653,280199,-101.37714220490307,78,2.059372543011393,0.020989439538399088,10,280199,1000000,19.84723848615374,19.842655290876117,19.82092481340681
1,654,280586,4.738950391300023,387,2.3233992788940667,0.020979771204349528,10,280586,1000000,20.08247168189601,20.076799264707063,20.06797447706524
1,655,280904,-2.6219558157026768,318,2.0340455199922283,0.020951766479667504,10,280904,1000000,20.06623032477594,20.063271171815934,20.062494062608287
1,656,281070,-62.06065463274717,166,2.266199738672003,0.020931456647971795,10,281070,1000000,20.13781100511551,20.149228423833847,20.1249906539917
1,657,281288,-51.47427944652736,218,2.1471392003553254,0.020913772286286346,10,281288,1000000,19.970295420147124,19.9597996757144,19.95489139102754
1,658,281496,-41.17083634249866,208,2.098830117024481,0.020898362260671478,10,281496,1000000,19.965283999443056,19.97893033027649,19.964259691238404
1,659,282133,104.77084254473448,637,2.117650545790555,0.020875502012394343,10,282133,1000000,20.06104256614806,20.066227819049168,20.054772202930753
1,660,282749,102.32223029993474,616,2.2474062522781675,0.020864161940238563,10,282749,1000000,20.1461341326354,20.138361873001347,20.132097888383708
1,661,283353,74.61978607811034,604,2.4279656917477648,0.02085335343144834,10,283353,1000000,20.053854303359984,20.044061992963154,20.04347089767456
1,662,283677,-13.61582385841757,324,2.310047437227331,0.020835916256681398,10,283677,1000000,19.88330748081207,19.88055680692196,19.877071046829222
1,663,283879,-58.360447937622666,202,2.164723752513528,0.020816481025344842,10,283879,1000000,20.02195424079895,20.01305048942566,20.001234693527223
1,664,284165,-26.974265910685062,286,2.327209984111999,0.020804531637984906,10,284165,1000000,20.02908048289163,20.03180660520281,20.028855415752957
1,665,284550,26.010163376107812,385,2.070584888599421,0.02078164412379936,10,284550,1000000,20.203762440932426,20.20718574021992,20.19635239149395
1,666,284830,-26.94802119769156,280,2.3519693069426078,0.02076828809812142,10,284830,1000000,20.21616459574018,20.221442345210484,20.219461955342975
1,667,284988,-63.69292951468378,158,3.154128151535988,0.020760818732382027,10,284988,1000000,20.042252362569172,20.057637265523276,20.02126542409261
1,668,285367,3.5279909279197454,379,2.120067334014016,0.020740969547085347,10,285367,1000000,20.19744509104136,20.19358408386643,20.189346620198844
1,669,285784,25.35057375766337,417,2.269660874419823,0.02072165487980652,10,285784,1000000,20.247330009646532,20.243260234739722,20.23032848544237
1,670,286053,-20.60719871893525,269,2.2791478840777506,0.020708207603601855,10,286053,1000000,20.26385318682744,20.256097225042488,20.250601111925565
1,671,286905,301.1824038811028,852,2.2601550395173184,0.020685726911567708,10,286905,1000000,20.25000004600076,20.249310502444995,20.240400362575755
1,672,287834,296.8202247139998,929,2.242771889042595,0.020655391637479797,10,287834,1000000,20.322820942298225,20.32251990567083,20.32080351580744
1,673,288705,300.46295780222863,871,2.2807538975758113,0.02063789443639886,10,288705,1000000,20.38102648066378,20.38003990458346,20.36873726789979
1,674,289516,146.8792141736485,811,2.396450851213785,0.02061348930893742,10,289516,1000000,20.52058381681089,20.52484091417289,20.509033105402818
1,675,290441,295.7036675680429,925,2.378521585561659,0.02061048635921735,10,290441,1000000,20.485502366397693,20.485338436002316,20.47796403636103
1,676,291369,295.2406659992412,928,2.3918602970955165,0.020594422726441332,10,291369,1000000,20.629947440520578,20.62557373357856,20.61745203681614
1,677,291614,-40.41076171770692,245,2.232746370602399,0.020579507906758075,10,291614,1000000,20.75003978808721,20.741656084855396,20.734994995594025
1,678,292464,299.4070999957621,850,2.321853746876997,0.020562377073609903,10,292464,1000000,20.742406663333668,20.742608651553883,20.737437792385325
1,679,293371,294.1440434642136,907,2.3798054332368905,0.0205516162038641,10,293371,1000000,20.855252674950492,20.855728080537585,20.850801948971217
1,680,294302,294.89563638344407,931,2.2218916771152326,0.02052570964436127,10,294302,1000000,20.91282986569148,20.914623929095523,20.90566542943319
1,681,295376,283.0309458542615,1074,2.0358503046158316,0.02052021869686563,10,295376,1000000,21.06232387061431,21.060151436172912,21.053688595673748
1,682,296023,110.45340595394373,647,2.1220686881977597,0.020509401312349382,10,296023,1000000,21.096884454786778,21.097097936272622,21.084274622797967
1,683,296313,-32.868607942946255,290,2.1971720412758917,0.02048749441722453,10,296313,1000000,21.171620388688712,21.17871800784407,21.171495042998217
1,684,297230,294.5519266696647,917,2.384790047213108,0.020473209559730702,10,297230,1000000,21.112971972371195,21.112613417028072,21.104913994506166
1,685,298059,175.81847447808832,829,2.0818568741584698,0.020453933234257822,10,298059,1000000,21.13957332401741,21.137872456341256,21.128854760891052
1,686,299052,181.5716268401593,993,2.2179284998714324,0.020442068530246615,10,299052,1000000,21.26856817958331,21.272836814263854,21.26282916213527
1,687,299576,39.696550766937435,524,1.907891651457892,0.0204274151530053,10,299576,1000000,21.24709474490239,21.246587129739616,21.23323096862206
