seo-minseok/DOB-RL/cycles/Cycle_5/results/mbrl_real_ratio=0.2/seed_1_progress.csv
seed,episode,total_steps,reward,episode_length,td_loss_avg,model_loss_avg,horizon_length,real_buffer_size,model_buffer_size,q1_avg,q2_avg,target_q_avg
1,1,55,-102.7351047063712,55,nan,nan,0,55,0,nan,nan,nan
1,2,1655,-75.09625147143379,1600,nan,nan,0,1655,0,nan,nan,nan
1,3,3255,-83.9599878040317,1600,nan,nan,0,3255,0,nan,nan,nan
1,4,3330,-96.70824919641018,75,nan,nan,0,3330,0,nan,nan,nan
1,5,4930,-81.59089146970655,1600,nan,nan,0,4930,0,nan,nan,nan
1,6,5026,-99.90246374718845,96,nan,nan,0,5026,0,nan,nan,nan
1,7,5103,-101.34173898003064,77,nan,nan,0,5103,0,nan,nan,nan
1,8,5203,-109.02803677134216,100,nan,nan,0,5203,0,nan,nan,nan
1,9,5268,-111.361420691479,65,nan,nan,0,5268,0,nan,nan,nan
1,10,5339,-113.6004410344176,71,nan,nan,0,5339,0,nan,nan,nan
1,11,6939,-93.44627490162384,1600,nan,nan,0,6939,0,nan,nan,nan
1,12,7029,-107.57058416027576,90,nan,nan,0,7029,0,nan,nan,nan
1,13,7117,-114.63715886604041,88,nan,nan,0,7117,0,nan,nan,nan
1,14,7181,-102.20181862055324,64,nan,nan,0,7181,0,nan,nan,nan
1,15,7271,-115.21792799979448,90,nan,nan,0,7271,0,nan,nan,nan
1,16,8871,-76.86288443836384,1600,nan,nan,0,8871,0,nan,nan,nan
1,17,8948,-98.73110963823274,77,nan,nan,0,8948,0,nan,nan,nan
1,18,9057,-119.76223817979917,109,nan,nan,0,9057,0,nan,nan,nan
1,19,9174,-104.56553962547332,117,nan,nan,0,9174,0,nan,nan,nan
1,20,9301,-101.19264571927488,127,nan,nan,0,9301,0,nan,nan,nan
1,21,9353,-102.30559545045253,52,nan,nan,0,9353,0,nan,nan,nan
1,22,10357,-147.83631233265623,1004,16.815766585040063,nan,0,10357,0,-0.2721767884834359,-0.2697303553629253,-0.3689317752089765
1,23,10407,-106.59738852130249,50,62.28058460544795,0.1960668191810449,1,10407,15360,-0.6264343863725662,-0.6572261688113212,-0.9335517179965973
1,24,10531,-126.8374902009964,124,63.533665753280125,0.1325865355009834,1,10531,30720,-0.848039773106575,-0.8470881889263789,-1.0407371021807195
1,25,12131,-117.15095594432205,1600,37.525728705059734,0.09767641410595033,1,12131,46080,-1.5891965769045056,-1.5908899347111582,-1.7045985490642488
1,26,12171,-113.59098338335752,40,26.47688303887844,0.08317985101371793,1,12171,61440,-1.2627484604716301,-1.2691375717520714,-1.3631313808262349
1,27,12211,-113.47329289838672,40,22.941785696148873,0.08008850999969117,1,12211,76800,-1.3780308611691,-1.384758162871003,-1.4186378821730614
1,28,12250,-112.7926042471081,39,25.978071373701095,0.07845938216287193,1,12250,92160,-1.4197691162427266,-1.4295635481675466,-1.4403829753398896
1,29,13850,-65.34034697851166,1600,18.375218640575184,0.07722575566236009,1,13850,107520,-0.3621832137770252,-0.3616961205995176,-0.41813258901820516
1,30,13892,-101.60642074421048,42,18.674187786877155,0.07023827388514707,1,13892,122880,0.4228520510252565,0.4079862076789141,0.38912669867277144
1,31,13931,-102.48688529245555,39,18.2865121965607,0.06859889382749428,1,13931,138240,0.722604775428772,0.7036278958121935,0.5634905909498532
1,32,13971,-102.41912100091577,40,24.38962024450302,0.06766388011567387,1,13971,153600,0.49805290848016737,0.5088180426508189,0.40963264368474483
1,33,15571,-46.698519008699805,1600,16.80033386209514,0.0669583843997967,1,15571,168960,1.2314201886532827,1.2322891721851192,1.1758738804841413
1,34,15966,-128.94392791157588,395,18.224868027865888,0.06448428149852488,1,15966,184320,1.9178747066702597,1.9151406436394423,1.8540524776547382
1,35,16045,-121.24622148647904,79,14.652179247779506,0.06332458230837058,1,16045,199680,2.0472353913954326,2.045509838632175,1.9899004948990686
1,36,16089,-104.08239445090294,44,17.839391887560488,0.0627921054079648,1,16089,215040,2.0718530356884,2.1372102558612824,1.976484926789999
1,37,16169,-119.80777143966407,80,12.940895492210984,0.06231400846473632,1,16169,230400,2.2333623319864273,2.242175284028053,2.213835144788027
1,38,16268,-133.67339963838458,99,16.176234080890815,0.06178526343413131,1,16268,245760,2.0694091412756177,2.0792632340557047,2.02593064043257
1,39,16504,-103.85441290866584,236,15.468566339981297,0.06130389405227212,1,16504,261120,2.0692080096058225,2.0669256051597387,1.9990460345278616
1,40,17295,-149.17642217269167,791,16.667136914198156,0.060540860642989476,2,17295,291840,2.1504336382957954,2.1474415802502933,2.0919532052135166
1,41,17406,-123.02831634227186,111,15.46441545161334,0.060101003800310304,2,17406,322560,2.440366261655634,2.4379737799817867,2.3694550687616522
1,42,18037,-127.76359838549979,631,14.76751062868843,0.05975206495814062,2,18037,353280,2.4243051176506376,2.4245690249024876,2.373692649981332
1,43,19637,-92.99685431923717,1600,10.6285904545011,0.058956073646744094,2,19637,384000,2.4247721538692715,2.4231602456327526,2.391292317258194
1,44,19695,-107.92323828395456,58,9.792420773804189,0.055708257821306846,2,19695,414720,2.2407383888959886,2.2305001309514045,2.193118178844452
1,45,19748,-126.00730060040951,53,7.394444058537483,0.05501099871308134,2,19748,445440,2.377497022151947,2.380087389945984,2.330209255218506
1,46,19790,-117.2762845158577,42,8.791670206189156,0.05462410191630388,2,19790,476160,2.4154760196805,2.4257552050054074,2.3889237247407435
1,47,21390,-120.47996720089577,1600,7.865959731596522,0.05424459112154973,2,21390,506880,2.445070587359369,2.44481904592365,2.4148685221839696
1,48,22990,-106.80187520477921,1600,5.8876840086793525,0.05232723278992148,2,22990,537600,2.6638314595539123,2.6611274083517493,2.6345924291200937
1,49,23093,-99.32240662677214,103,6.808382031470537,0.05112274831600404,2,23093,568320,2.6881170693039893,2.6770917743444445,2.636830648183823
1,50,23261,-112.46471281908453,168,5.955088184960187,0.050425107592233905,2,23261,599040,2.6928667368367316,2.693175629992038,2.657112435810268
1,51,23330,-100.48142715031281,69,4.781883644809326,0.050164668822178134,2,23330,629760,2.627528370420138,2.6303979054093363,2.622272167603175
1,52,23439,-99.47904002293944,109,6.217798310816288,0.04971993239425914,2,23439,660480,2.6716046178340913,2.6746143341064452,2.6529588890075684
1,53,23499,-104.81798821128905,60,5.717135815819105,0.04928103839576026,2,23499,691200,2.6522592415412265,2.6339921404918036,2.603141582260529
1,54,23565,-109.55670063197613,66,6.488696877658367,0.04892512557707427,2,23565,721920,2.7431024303038916,2.725365276634693,2.691230680545171
1,55,23635,-103.14187732338905,70,6.072585484598364,0.048613224391812,2,23635,752640,2.651294409802982,2.643574350646564,2.626049800855773
1,56,25235,-136.50487581494963,1600,4.767723172912374,0.048269897475298765,2,25235,783360,2.6600032435171306,2.659686704315245,2.636611822741106
1,57,25400,-134.99406031891704,165,4.292406665161252,0.04623578244528803,2,25400,814080,2.5724364422261714,2.570942652784288,2.539350026100874
1,58,25596,-133.07071872614324,196,4.256750404991601,0.045820360693465984,2,25596,844800,2.6777523508197385,2.6548257219163993,2.646206472421947
1,59,25710,-123.48437128961086,114,4.632705008983612,0.04552701618585121,2,25710,875520,2.7338226567615163,2.7270426387136633,2.706944252686067
1,60,27310,-149.74822701141238,1600,5.153327045538463,0.04514403588324785,3,27310,921600,2.5675317823700605,2.5647592438943683,2.538900529332459
1,61,28910,-151.17387455678545,1600,4.935873691551388,0.04248661624982297,3,28910,967680,2.4488499482441695,2.4440562044642866,2.42515515842475
1,62,28958,-108.86859646812081,48,3.8882488835603,0.04015746587621314,3,28958,1000000,2.3741191126406194,2.3942719459533692,2.3711234420537948
1,63,29040,-121.02428709995002,82,4.73667227961123,0.03990511839830242,3,29040,1000000,2.2557557757943867,2.225230860337615,2.2228937737643717
1,64,29105,-113.17311338416766,65,6.163537751883268,0.03966586817286711,3,29105,1000000,2.2843067650993665,2.245823801557223,2.233803850412369
1,65,29153,-109.33155859075487,48,6.162218792922795,0.039437184993804025,3,29153,1000000,2.304897453635931,2.263068164885044,2.267997346818447
1,66,29193,-106.38184699043632,40,3.780577939376235,0.039216893601470286,3,29193,1000000,2.207451677322388,2.215911192446947,2.1770385310053824
1,67,29259,-114.18336981162429,66,5.552279298876723,0.03901727619902258,3,29259,1000000,1.950900570054849,1.9544372739891211,1.9285359794894854
1,68,29304,-102.28333877306432,45,6.264395238645375,0.03880313892919592,3,29304,1000000,2.0737193025648595,2.086451756954193,2.037652964890003
1,69,30904,-123.71704745758325,1600,5.441669713924639,0.03859416499995349,3,30904,1000000,1.9221889871079474,1.9188881448842585,1.8918356669135392
1,70,30949,-104.75173288397491,45,5.587054508458823,0.03663735539341966,3,30949,1000000,1.4259144261479377,1.4413350909948348,1.42832785025239
1,71,31016,-113.81190862040967,67,4.39749589090546,0.03646385151065058,3,31016,1000000,1.5863769908746084,1.6208458602428437,1.5731326992313066
1,72,31067,-105.90330648049712,51,5.700342991948128,0.03627511439511434,3,31067,1000000,1.5902141179144382,1.5935056176781655,1.6035907456278802
1,73,31118,-100.2950718998909,51,4.684978083223104,0.03614009246845876,3,31118,1000000,1.5584634196758271,1.5598131465911864,1.5163102447986603
1,74,31171,-107.49142801668495,53,4.302020245343447,0.03599592585824738,3,31171,1000000,1.6141374862194062,1.5924560701847077,1.5675476229190826
1,75,31221,-105.69881674461067,50,5.659480653107166,0.03587387583472512,3,31221,1000000,1.6033789283037185,1.606145043373108,1.5935529226064682
1,76,31268,-107.15175572782755,47,4.8143498646095395,0.03573893528257192,3,31268,1000000,1.4793180318549275,1.478722640313208,1.4307712353765965
1,77,31314,-106.32305444777012,46,5.596404137462377,0.03556869193769055,3,31314,1000000,1.4230132672935725,1.4240679040551185,1.3941971596330405
1,78,31359,-106.2282858081162,45,7.401750716008246,0.03541733362696699,3,31359,1000000,1.5119986794888973,1.5181663870811462,1.4598220456391573
1,79,31414,-102.82384670525789,55,4.051199061721563,0.03529070391233176,3,31414,1000000,1.3871654933691024,1.3898500245809555,1.361609696149826
1,80,31462,-100.7413034774363,48,4.098771938867867,0.03518092643693497,4,31462,1000000,1.3879198804497719,1.3724272444844245,1.3666641391813754
1,81,31511,-100.88860546797514,49,7.1854563623666765,0.035045788641713684,4,31511,1000000,1.1086365699768066,1.1151323847472667,1.170590302348137
1,82,31561,-105.47836401872337,50,7.102274491041899,0.03491470573273132,4,31561,1000000,1.4913643050193786,1.4933225685358047,1.4792332434654236
1,83,31605,-103.06785931810737,44,11.629296842217446,0.03482288173967745,4,31605,1000000,1.308728951588273,1.314496359229088,1.2396093778312207
1,84,31657,-104.90636065974832,52,5.672520611733198,0.034715505070519966,4,31657,1000000,1.126856161057949,1.128715482354164,1.108756448030472
1,85,31711,-102.74343155138195,54,5.2379517792165275,0.03461862934455477,4,31711,1000000,1.3814528582990169,1.3709192436933517,1.3584174516797065
1,86,31766,-101.58658192679286,55,6.285956875979901,0.03451536045911997,4,31766,1000000,1.3864299884438516,1.3743614239990711,1.320937197804451
1,87,31816,-100.53509544581175,50,8.077034993171692,0.03441061764975549,4,31816,1000000,1.101940381228924,1.0670773214101792,1.056381243467331
1,88,31881,-102.88212620280683,65,9.207265733430782,0.03428218350194955,4,31881,1000000,1.0443218345443408,1.0498795648415884,0.9953645584483941
1,89,31942,-106.17756952531636,61,8.497797168791294,0.034196589762965836,4,31942,1000000,1.0173407167196273,1.003692825511098,0.9680097080767155
1,90,31987,-103.4342911504209,45,5.827839339524507,0.0340902423506142,4,31987,1000000,1.1964843410998582,1.2086206257343293,1.1549341842532157
1,91,32037,-101.64160115644336,50,7.353149354308844,0.033969422200474365,4,32037,1000000,1.0162844958901405,1.0530559992790223,0.976316497027874
1,92,32083,-103.90018994547427,46,6.465533896908164,0.03386060897608598,4,32083,1000000,1.0438021771609782,1.0408388033509255,1.022542989999056
1,93,32135,-104.50997586455196,52,4.784212524294853,0.03373814255098502,4,32135,1000000,1.1247062903642655,1.1407489848136902,1.0952759027481078
1,94,32180,-102.26436629379168,45,7.352180957049131,0.03362346517244975,4,32180,1000000,1.1349048245698214,1.1176171546801925,1.0741203522309661
1,95,32228,-104.01301509980112,48,7.198930373415351,0.03351139250298341,4,32228,1000000,0.7204919155687094,0.7567095145583153,0.6994767930358649
1,96,32277,-104.45841515343636,49,5.8940105907619,0.0333887448678414,4,32277,1000000,0.8152786626480519,0.8133863553404808,0.7952380567789078
1,97,32326,-104.73880932852626,49,6.599176517501474,0.0332833809916068,4,32326,1000000,0.9710467249155045,0.9886753708124161,0.933247023075819
1,98,32405,-102.27670063637197,79,5.03672620590244,0.03318064126861159,4,32405,1000000,0.7927444170628275,0.7817849713776793,0.7663281219346183
1,99,32455,-104.9736008848995,50,7.184727426916361,0.03304117812267529,4,32455,1000000,0.803763240724802,0.800673878788948,0.7539393997192383
1,100,32533,-103.33417869918048,78,6.298791206521647,0.032932608024705025,5,32533,1000000,0.8519094318151474,0.837314002428736,0.813773544558457
1,101,32584,-105.22826017253101,51,8.933265742957593,0.032799699980755805,5,32584,1000000,0.6265185353159904,0.6458360670506954,0.6178516009449959
1,102,32662,-106.00954863894731,78,5.2735959129674095,0.032694155587924746,5,32662,1000000,0.47615518953119007,0.5146991178393364,0.486010467261076
1,103,32714,-105.0006698295474,52,7.197859092950821,0.03257342831493206,5,32714,1000000,0.4684863722324371,0.4883462433516979,0.4815156674385071
1,104,32761,-105.27925020828843,47,5.889221383631229,0.03245803274096936,5,32761,1000000,0.64065757188946,0.6250867049209774,0.5692208748310804
1,105,32820,-103.5347334370017,59,9.302964335680008,0.03235256883494184,5,32820,1000000,0.36292767882347104,0.39545673683285715,0.32432354032993316
1,106,32914,-110.92258448153734,94,6.768162700368299,0.03227533622314998,5,32914,1000000,0.19409514036443498,0.19846351767579715,0.16635914908515081
1,107,33019,-112.81728877779096,105,6.657436159253121,0.03222979500327104,5,33019,1000000,0.29851986438035966,0.30014541059732436,0.25042177226394413
1,108,33092,-116.39838496223092,73,5.25316934798445,0.03221078325295821,5,33092,1000000,0.39594467537743705,0.3913745582103729,0.3961700631039483
1,109,33145,-106.91786066023633,53,6.64688023686409,0.03216569668755359,5,33145,1000000,0.1659861671924591,0.16368295073509218,0.06271755903959274
1,110,33193,-111.69185524247587,48,6.767096234858036,0.03207824010334582,5,33193,1000000,-0.08423898629844188,-0.06335572600364685,-0.09776550978422165
1,111,33279,-112.00718741677701,86,7.297997447103262,0.03199040339513651,5,33279,1000000,0.1457843143492937,0.15380073646083475,0.11743300147354603
1,112,33379,-119.20993875712156,100,7.072556049823761,0.03188281432756774,5,33379,1000000,-0.04137223660945892,-0.046817778274416924,-0.07159631915390491
1,113,33427,-104.33321664109826,48,6.395217315107584,0.03175336505071475,5,33427,1000000,-0.3866184839978814,-0.3940951094031334,-0.39509634729474785
1,114,33475,-106.52430154383183,48,8.292440574616194,0.031665184537951765,5,33475,1000000,-0.2521119762212038,-0.25735769271850584,-0.335594916343689
1,115,33527,-101.65614669118077,52,8.090961371660233,0.03156082143768286,5,33527,1000000,-0.14949128225445749,-0.15349008291959762,-0.17845689073204996
1,116,33575,-103.78092600032687,48,6.926750172674656,0.031486093709484124,5,33575,1000000,-0.12996489321812987,-0.14564000982791186,-0.15299863647669554
1,117,33623,-103.19060476869345,48,7.644242103770376,0.03140259938878564,5,33623,1000000,-0.26623252090066674,-0.2704873625189066,-0.31701650097966194
1,118,33673,-102.53582563251257,50,7.356269234716892,0.03132457811925703,5,33673,1000000,-0.2693544054031372,-0.2447868223488331,-0.29757457464933396
1,119,33719,-104.22368901409209,46,7.8108615972101685,0.03125833488488925,5,33719,1000000,-0.4843911474570632,-0.4786463646218181,-0.49150983393192293
1,120,33765,-103.9636792037636,46,9.264257976412773,0.031176919220892226,6,33765,1000000,-0.35140831135213374,-0.3372207202017307,-0.4066265031695366
1,121,33811,-103.12003489211202,46,7.725660385191441,0.0310894507004787,6,33811,1000000,-0.5867271818220615,-0.5943429686129094,-0.578155017644167
1,122,33861,-105.71235116571188,50,8.246730495393276,0.031011776182085577,6,33861,1000000,-0.5451285686343909,-0.541188128143549,-0.5451202467828989
1,123,33909,-104.0794349834323,48,9.74046756774187,0.030924747048905403,6,33909,1000000,-0.7188831578940154,-0.7042473759502172,-0.7469601871445775
1,124,33959,-105.12260022945702,50,8.125947112441063,0.03082847451753538,6,33959,1000000,-0.5750804081559181,-0.5805988571047783,-0.6144080059230328
1,125,34008,-104.7329718656838,49,6.681402000784874,0.03075352856475446,6,34008,1000000,-0.6349563768133522,-0.6372323546558618,-0.664596358127892
1,126,34055,-104.0903656873852,47,8.061264465749264,0.030663637990000273,6,34055,1000000,-0.709442082606256,-0.7058797173202038,-0.7318763814866542
1,127,34105,-104.04930741665885,50,10.038445138931275,0.030596934407389254,6,34105,1000000,-1.0720415449142455,-1.0535821568965913,-1.0678328385949134
1,128,34153,-104.98904516547918,48,7.0820361215621235,0.0305135175062899,6,34153,1000000,-0.6519735659472644,-0.6493192259222269,-0.6978459424339235
1,129,34202,-104.93386628851295,49,6.882922117039561,0.03043260045517656,6,34202,1000000,-0.8191163763403893,-0.8231825489550829,-0.852773693203926
1,130,34252,-105.38645759783685,50,7.403595757782459,0.03036431756832247,6,34252,1000000,-0.981019444167614,-0.9981806781888009,-1.011138640642166
1,131,34299,-104.23220575926825,47,8.164826902747155,0.030273994706328352,6,34299,1000000,-0.9817068867385388,-0.9815312931314111,-0.9829598881304265
1,132,34347,-104.8158209323883,48,7.3211214482784275,0.0301881540174547,6,34347,1000000,-1.176351754181087,-1.1774540301412344,-1.2266412986442448
1,133,34399,-102.94798180111684,52,7.544858417510986,0.03012364928550388,6,34399,1000000,-0.9010361546278,-0.9021849480271339,-0.9134276631474495
1,134,34446,-105.10480491537601,47,7.020680287852883,0.030041892151927475,6,34446,1000000,-1.253423361107707,-1.2024811754003166,-1.2670438837260007
1,135,34508,-103.83225778862834,62,7.633953526119391,0.029962703480908823,6,34508,1000000,-1.2843173203368983,-1.3017397778729598,-1.3212879200776417
1,136,34556,-104.69315772876143,48,8.303598070517182,0.029874791836931338,6,34556,1000000,-1.2377750748768448,-1.2450271592941136,-1.2798940496519209
1,137,34627,-109.73950467072427,71,6.158997308143547,0.029810398607630635,6,34627,1000000,-1.3662444531917572,-1.374111384898424,-1.3935018010437488
1,138,34680,-104.10590162500739,53,6.220804397463798,0.02979114845763018,6,34680,1000000,-1.4244396442174911,-1.3832906472682953,-1.4223816123604776
1,139,34749,-99.94514240976423,69,5.076491796473662,0.029721854055921235,6,34749,1000000,-1.3430017908414205,-1.3586320313314597,-1.3729157634079456
1,140,34815,-100.05406692810357,66,5.7410745866596695,0.02963419758519273,7,34815,1000000,-1.3692624683181445,-1.3717466870943704,-1.3975702633460363
1,141,34898,-101.93629556708038,83,5.371860501356423,0.029521551605911904,7,34898,1000000,-1.481050759088248,-1.4675374946556985,-1.4916441094130277
1,142,34963,-100.14370869239792,65,6.047162071367105,0.02943685615216108,7,34963,1000000,-1.6703603381911913,-1.6562399230897427,-1.6844359621405602
1,143,35025,-99.43842240422964,62,4.415556255355478,0.02935335089489087,7,35025,1000000,-1.545715293288231,-1.55390957146883,-1.5630763707061608
1,144,35085,-101.28348208218813,60,5.889924176534017,0.029265337751484384,7,35085,1000000,-1.8206040605902671,-1.8049892500042914,-1.852211002757152
1,145,35147,-101.39245018549263,62,6.004393370449543,0.029180355922946676,7,35147,1000000,-1.81538983831803,-1.8203271160523096,-1.8404204403360684
1,146,35202,-109.50364917796105,55,5.541764047443866,0.029100746345998598,7,35202,1000000,-1.8542281812429429,-1.849130498766899,-1.8777742207050323
1,147,35269,-102.6904095262289,67,5.431121544043223,0.029068263959130522,7,35269,1000000,-2.1759157344698905,-2.1505201070259017,-2.2027948598066964
1,148,35325,-100.73410472273827,56,6.825071084797383,0.02898619392311196,7,35325,1000000,-2.1410928255319597,-2.1625719875097276,-2.1944160994887354
1,149,35392,-103.23747568577528,67,5.996837017933528,0.028905345732459477,7,35392,1000000,-2.0591380412379903,-2.0607373617589473,-2.0864389397203924
1,150,35461,-99.41931151784956,69,4.883535644163688,0.028836237550105736,7,35461,1000000,-1.9278947261472543,-1.9439228119949499,-1.9617534990111987
1,151,35509,-102.3246940150857,48,4.657364290207624,0.028752050188860456,7,35509,1000000,-2.1798404529690742,-2.1631619065999983,-2.194950185716152
1,152,35565,-100.54830772429705,56,5.817691055238247,0.02866949930805083,7,35565,1000000,-2.042970404624939,-2.0422427785396575,-2.053102945685387
1,153,35619,-100.58287055976689,54,4.19186395034194,0.028607426199540136,7,35619,1000000,-2.1430820405483244,-2.155912072658539,-2.1744806814193725
1,154,35671,-105.06907252967358,52,4.110817825496197,0.028537078965589296,7,35671,1000000,-2.0908089101314546,-2.1010253900289535,-2.1268441754579546
1,155,35720,-103.34664481133223,49,7.933471679314971,0.028454979523408898,7,35720,1000000,-2.211031822860241,-2.270043233036995,-2.236634263396263
1,156,35772,-104.0307975616306,52,4.947015104293823,0.02838672104356386,7,35772,1000000,-2.239763170480728,-2.240988541841507,-2.2661669227480887
1,157,35821,-103.38394007273018,49,6.645379155129194,0.028296633284512183,7,35821,1000000,-2.2952193155884744,-2.312000600248575,-2.343639439344406
1,158,35879,-99.78013407438993,58,5.754081362187862,0.028217231160659585,7,35879,1000000,-2.4540234088897703,-2.4562991201877593,-2.4758563554286956
1,159,35939,-99.44224004633725,60,4.174843307087818,0.02814626864024571,7,35939,1000000,-2.4585024336973826,-2.463718989988168,-2.4888479157040515
1,160,35988,-102.10506648942828,49,4.700394424051046,0.02810532929198373,8,35988,1000000,-2.40823218524456,-2.426911446079612,-2.4463922441005708
1,161,37588,-86.14376140170498,1600,4.241368245473131,0.02803505356822695,8,37588,1000000,-2.9163647315837444,-2.9116271732840686,-2.935814687991515
1,162,37658,-102.5695197628811,70,3.9755379955683434,0.02827948839424952,8,37658,1000000,-3.518745025566646,-3.5368423087256295,-3.5544313873563493
1,163,37714,-104.05956712923944,56,3.413981192409992,0.028144764261586325,8,37714,1000000,-3.0357684348523617,-3.0159866708517074,-3.038541426062584
1,164,39314,-124.9195915395394,1600,3.0171426767762752,0.028044059628498257,8,39314,1000000,-3.5636620337329803,-3.5649006133526564,-3.5800618577376007
1,165,40914,-99.02915246528573,1600,2.823175455671735,0.02720840123678864,8,40914,1000000,-4.0134519458934665,-4.006647248417139,-4.027519541978836
1,166,42514,-90.97361919982359,1600,2.6299117628624664,0.026184678438512035,8,42514,1000000,-4.500196746625006,-4.503442213274538,-4.5200124731659885
1,167,42585,-99.78411701275036,71,1.2220844181520598,0.025533071303194068,8,42585,1000000,-4.390577244758606,-4.40169152532305,-4.40168092591422
1,168,42676,-99.11147335823625,91,2.945338083224164,0.0254396868016885,8,42676,1000000,-4.364131364557478,-4.369417504469554,-4.401781511306763
1,169,44276,-81.88161701802164,1600,2.2763885298231616,0.02534719383695638,8,44276,1000000,-4.451110866703093,-4.448076266236603,-4.463611860945821
1,170,44330,-103.73454233072698,54,2.8415688532590866,0.025663004130442705,8,44330,1000000,-4.722750053405762,-4.684512228965759,-4.679229302406311
1,171,45930,-104.19199902564287,1600,2.224210188528523,0.02556724988699304,8,45930,1000000,-4.377704608626663,-4.384185709916055,-4.394301949813962
1,172,47530,-93.31130473024677,1600,1.9477398847648875,0.02481352334887178,8,47530,1000000,-4.432401183247566,-4.426001008860767,-4.4435789734870195
1,173,47600,-103.75013025850058,70,1.7146924474409648,0.024445338738528458,8,47600,1000000,-4.378566430296217,-4.376374532495226,-4.38665120942252
1,174,47671,-101.53005410730839,71,1.5392077240028552,0.02434877610085784,8,47671,1000000,-4.3257343002728055,-4.324019610881805,-4.329318075520652
1,175,47738,-100.61829739809036,67,2.0439345692594846,0.024283567267239736,8,47738,1000000,-4.333570456504821,-4.347401543458303,-4.361673053105672
1,176,47810,-98.78661886043847,72,1.506341377752168,0.024197251429801347,8,47810,1000000,-4.137790792328971,-4.128034053530012,-4.136118248530797
1,177,47886,-99.05716513842344,76,2.259690769655364,0.024120715767892886,8,47886,1000000,-4.44534901550838,-4.444971992288317,-4.45917033808572
1,178,47976,-99.84879585821182,90,1.4129081721107164,0.02405607001507346,8,47976,1000000,-4.31579080025355,-4.330240899986691,-4.336608964867062
1,179,48042,-98.12580910976976,66,1.0480956664929788,0.023970949640182145,8,48042,1000000,-4.318052291870117,-4.316303563117981,-4.3237753431002295
1,180,48112,-98.73010755423456,70,1.5016843505203723,0.02389219499221354,9,48112,1000000,-4.092767368044172,-4.0298997930118015,-4.053129325594221
1,181,48185,-99.46589798666537,73,1.3621207926954542,0.023831809278238903,9,48185,1000000,-4.47555227960859,-4.464332170145852,-4.487454743044717
1,182,48260,-99.54286257736385,75,1.1529405401221344,0.023771321299281105,9,48260,1000000,-4.3077947071620395,-4.317793924467904,-4.322091957501002
1,183,48328,-98.66679813712835,68,2.2514941652615863,0.023719814774441593,9,48328,1000000,-4.3478945632775625,-4.339656913280487,-4.357554312547048
1,184,48444,-99.59928560256958,116,1.612015116553415,0.02365865185262358,9,48444,1000000,-4.622068842974576,-4.624081441489133,-4.646895378286188
1,185,48525,-98.5376495309174,81,1.4745297197252512,0.023566203298970294,9,48525,1000000,-4.591856935620308,-4.586118736863137,-4.595279610157013
1,186,48601,-98.7949136630632,76,1.518409173084157,0.023523292858055028,9,48601,1000000,-4.5499113048825945,-4.547560048103333,-4.5685090780258175
1,187,48672,-98.42548425868154,71,2.2775439467813285,0.0234543267479807,9,48672,1000000,-4.795079030309405,-4.78828683921269,-4.796131161281041
1,188,48740,-100.1970059517771,68,1.8452849103758733,0.023404367744530502,9,48740,1000000,-4.636781207720438,-4.640513437986374,-4.639010528723399
1,189,48814,-100.31329422723502,74,2.0848342995558466,0.023341403721194517,9,48814,1000000,-4.506751671859196,-4.5490010244505745,-4.543141211782183
1,190,48882,-99.37002197094262,68,1.9341311356673638,0.023283870991384775,9,48882,1000000,-4.601045475403468,-4.576098211606344,-4.593775618076324
1,191,48946,-101.27252547023818,64,0.5945212336877982,0.023237491241215092,9,48946,1000000,-5.0119338472684225,-5.031901097297668,-5.013366742928823
1,192,49024,-98.47249145433307,78,0.8837293028831482,0.02317352497049755,9,49024,1000000,-5.164061948231288,-5.159468354497637,-5.1598419087273735
1,193,49093,-100.15256855869666,69,0.8758941310768326,0.023127133659303294,9,49093,1000000,-4.77466733455658,-4.7641157627105715,-4.771322627862294
1,194,49167,-99.28674508072436,74,1.2959969441805568,0.023078723623048365,9,49167,1000000,-4.929217478207179,-4.930733633041382,-4.937570030348642
1,195,49644,-128.2916589102242,477,1.6413084742474429,0.02302341434535467,9,49644,1000000,-5.016199422897176,-5.014257611366029,-5.025651553590247
1,196,49727,-102.99572161771357,83,0.714535509981215,0.02289500490976224,9,49727,1000000,-5.3300882309675215,-5.321429961919785,-5.327163496613503
1,197,49803,-98.65319022536278,76,1.8414529399148056,0.02284326117991428,9,49803,1000000,-5.256563125337873,-5.26536112172263,-5.278014605385916
1,198,50562,-159.00798768177629,759,1.738478410243988,0.02277508850795092,9,50562,1000000,-5.423496025085449,-5.422494793574015,-5.438757487773895
1,199,50630,-115.53192681074142,68,1.582038505996267,0.022577467671077062,9,50630,1000000,-5.525683589776357,-5.538137745857239,-5.5535491863886515
1,200,52230,-99.85057902080007,1600,1.4678786062798463,0.022562701489253194,10,52230,1000000,-6.022141296416521,-6.022609018534422,-6.032914925962687
1,201,52415,-113.68620157334954,185,1.5460446243691774,0.023009418829776394,10,52415,1000000,-6.215051423178779,-6.199334402879079,-6.223699475659265
1,202,52487,-108.15152824297547,72,0.9860264529074941,0.022897233172118957,10,52487,1000000,-6.0875843218394685,-6.1169275385992865,-6.099142558234078
1,203,52566,-100.23384542390704,79,1.1534920120877878,0.02283124833814497,10,52566,1000000,-6.080247681481498,-6.086450334957668,-6.093042598451887
1,204,52739,-124.83693956956267,173,1.3591474594877047,0.022755808182121293,10,52739,1000000,-6.066258175232831,-6.069904659776126,-6.080212109229144
1,205,52815,-105.20742487721145,76,1.2954428604670933,0.022709932822649725,10,52815,1000000,-5.981763219833374,-5.976112120492118,-5.98767740726471
1,206,52929,-103.02313669398427,114,1.6956147834658624,0.022647309411787293,10,52929,1000000,-5.876669933579185,-5.884920993718234,-5.899616772478277
1,207,53001,-101.86123088560998,72,1.031712602611099,0.02255681361972948,10,53001,1000000,-5.711752043451582,-5.6993191582815985,-5.720180777141026
1,208,53113,-100.02540158480406,112,2.5135461193594066,0.022502149119913193,10,53113,1000000,-6.107362088290128,-6.115103075721047,-6.124055853756992
1,209,53206,-99.42433466203511,93,1.4014267558024989,0.02243788841385964,10,53206,1000000,-6.387939116689894,-6.38617584043079,-6.392081924279531
1,210,54806,-86.0642427674029,1600,1.3603067639353685,0.022387748583851324,10,54806,1000000,-6.2045035592466595,-6.202908805906772,-6.21375786870718
1,211,54887,-98.5313047170639,81,1.154582441598177,0.022342449190483844,10,54887,1000000,-6.147613647580147,-6.151012715697289,-6.161479264497757
1,212,54964,-105.20252713747323,77,0.7690686824066298,0.022258385398201762,10,54964,1000000,-6.585753856386457,-6.576562305859157,-6.580171169553484
1,213,56564,-48.63920721656177,1600,1.3621905994880945,0.022216009791371793,10,56564,1000000,-6.54186807975173,-6.539761801213026,-6.5477042374014855
1,214,56653,-101.12836033478379,89,2.278474502917379,0.022871942573198766,10,56653,1000000,-6.6716637253761295,-6.673933506011963,-6.695526486635208
1,215,56802,-102.94942240603268,149,1.7661207656775202,0.02279174185075641,10,56802,1000000,-6.643450786386217,-6.637943150315966,-6.6492529358182635
1,216,56889,-104.41380581073463,87,1.8465509177185595,0.022740740221145465,10,56889,1000000,-6.905452924966812,-6.91234068274498,-6.919513511657715
1,217,58489,-96.60827393340878,1600,1.4268832606403157,0.022667157427371444,10,58489,1000000,-6.838038733154535,-6.840215936154127,-6.84410526111722
1,218,58582,-105.77888856455684,93,1.4814061801466676,0.02230600437220208,10,58582,1000000,-7.165147847599453,-7.172511259714763,-7.168470101886325
1,219,60182,-56.26402355637401,1600,1.1631184413656592,0.02221471436120221,10,60182,1000000,-7.0491847650706765,-7.048348450809717,-7.052908610105515
1,220,61782,-76.92974411300384,1600,1.2919971966277808,0.022353476700207865,10,61782,1000000,-7.3027079391479495,-7.30073001652956,-7.3094464500248435
1,221,63382,-68.67492038046475,1600,1.3744583660317584,0.023003860687216122,10,63382,1000000,-7.323502947092056,-7.32291979983449,-7.331613660007715
1,222,63607,-104.57013122132048,225,1.5222803006456658,0.023486043500504112,10,63607,1000000,-7.273077845573425,-7.276001276753165,-7.282647332278165
1,223,63645,-108.3379997042939,38,3.9832356492678325,0.02339003107871019,10,63645,1000000,-7.233242066701253,-7.271063709259034,-7.288328329722087
1,224,63688,-114.05660970043391,43,3.8098986852914094,0.02330310077917191,10,63688,1000000,-7.18001469373703,-7.161021822690964,-7.192386448383331
1,225,63728,-112.35917656496167,40,4.074907313287258,0.023230724517125836,10,63728,1000000,-7.165636098384857,-7.126102769374848,-7.158124625682831
1,226,65328,-93.27134891483001,1600,2.4907140651065856,0.02316363744002076,10,65328,1000000,-7.113307905197144,-7.106068243384361,-7.126118742525578
1,227,66928,-60.51375407871092,1600,2.1907167509244756,0.023168347746718162,10,66928,1000000,-7.208904225379229,-7.211805285662413,-7.225673212707043
1,228,68528,-60.20915246196091,1600,1.9237102146726102,0.023413314856350956,10,68528,1000000,-7.140952519923449,-7.139429077357054,-7.1534998495876785
1,229,70128,-75.72540009347722,1600,1.7334881024248898,0.023874168960231073,10,70128,1000000,-7.133743218779564,-7.139207808971405,-7.147947691977024
1,230,70188,-110.89676819741726,60,1.285737853248914,0.024139303513899247,10,70188,1000000,-7.166489132245382,-7.1541154424349465,-7.188632265726725
1,231,70228,-110.99364107847214,40,1.6341680927202105,0.024029524233237527,10,70228,1000000,-7.3618295133113865,-7.391981208324433,-7.385826766490936
1,232,70268,-111.38100025802851,40,2.2207514682784675,0.023952870263996784,10,70268,1000000,-7.104361164569855,-7.078272831439972,-7.110600781440735
1,233,71868,-71.12954518466722,1600,1.3178286705585196,0.023875163176035795,10,71868,1000000,-6.999422346353531,-6.997756842151285,-7.0023092672228815
1,234,73468,-39.721501832129434,1600,1.3650776916742324,0.023773384250345683,10,73468,1000000,-6.964850719869137,-6.966492530852556,-6.975230875462294
1,235,75068,-56.355120181222446,1600,1.4639512854488566,0.023819159978614265,10,75068,1000000,-6.881867755055428,-6.882271214947105,-6.893093311190605
1,236,76668,-99.05705761141144,1600,1.5821722327591852,0.023858044641060634,10,76668,1000000,-6.87784906193614,-6.877003209739923,-6.889259260371327
1,237,78268,-82.52674372820184,1600,1.520889287525788,0.023898347040665322,10,78268,1000000,-6.836320412680506,-6.838979671597481,-6.848141882568598
1,238,79868,-89.5896871764271,1600,1.4964741368312389,0.02399273354336212,10,79868,1000000,-6.640316630899906,-6.6402765981853005,-6.651303552538156
1,239,81468,-75.58218030747958,1600,1.4621489959303289,0.024015562536168968,10,81468,1000000,-6.441969325691462,-6.441263272315264,-6.44933287397027
1,240,83068,-56.88960926304571,1600,1.586953936908394,0.023958882013144483,10,83068,1000000,-6.18604481741786,-6.1835438238084315,-6.195724348425865
1,241,84668,-48.49332551145926,1600,1.2684896933287382,0.023713987514208005,10,84668,1000000,-5.858785413950682,-5.857874375656247,-5.86805702932179
1,242,86268,-59.439022751525044,1600,1.0581339779449628,0.023435656746303796,10,86268,1000000,-5.567152451947331,-5.56494101524353,-5.57401374168694
1,243,87868,-63.451235949178226,1600,0.8628468307061121,0.02332303304823914,10,87868,1000000,-5.063122547008097,-5.0623076974973085,-5.0674132532626395
1,244,89468,-58.15629345783964,1600,0.9912672423757612,0.023335437274984182,10,89468,1000000,-4.592060005180538,-4.591575285401195,-4.596177072227001
1,245,91068,-64.55978451421834,1600,1.0201024302141741,0.02346827024816328,10,91068,1000000,-4.159514335561544,-4.158189360685647,-4.162806581389159
1,246,92668,-74.0449070064351,1600,0.7718198013375513,0.02339572908767792,10,92668,1000000,-3.696624426860362,-3.6953064945619554,-3.6995335149997843
1,247,94268,-85.58989811316133,1600,0.7775037139444612,0.02320704500527153,10,94268,1000000,-3.286071119746193,-3.2868891377095135,-3.2890872491244227
1,248,95868,-93.4984396394575,1600,0.8523602024419233,0.02333028690005396,10,95868,1000000,-2.881428308156319,-2.882218850236386,-2.8852502101799473
1,249,97468,-103.49247822386678,1600,0.8833338326145895,0.023546593505125526,10,97468,1000000,-2.4309108422370627,-2.4324979412276297,-2.438835899741389
1,250,99068,-102.21840735056321,1600,0.8393693096213974,0.02375766536482332,10,99068,1000000,-2.095462258043699,-2.0918013540375977,-2.0971486770454795
1,251,100668,-87.01417637162376,1600,0.7665869576740079,0.02398927660179622,10,100668,1000000,-1.9012108688941225,-1.9032530780718662,-1.9065019936021417
1,252,102268,-74.18070556531893,1600,0.7824639873276464,0.02414923088405474,10,102268,1000000,-1.700057676008437,-1.6989490010356532,-1.7024911220208743
1,253,103868,-61.6089307438815,1600,0.7690413582208566,0.024319951640832595,10,103868,1000000,-1.4578534078830854,-1.4597907237545587,-1.4621688791899943
1,254,105468,-74.8752838402288,1600,0.7702334149321541,0.02456638780457002,10,105468,1000000,-1.3300345971900969,-1.3293682645447553,-1.3345894423220306
1,255,107068,-84.9084888898069,1600,0.7597112242411822,0.024612128845169015,10,107068,1000000,-1.226114994738018,-1.2266438827384263,-1.2321528040827252
1,256,108668,-72.84548884644755,1600,0.6220371036347934,0.02472246370859076,10,108668,1000000,-1.022021688390523,-1.0195872098812833,-1.02131103126565
1,257,110268,-84.46320437802933,1600,0.6718555511673913,0.024834851094422006,10,110268,1000000,-0.7811025395826436,-0.779610384022817,-0.7860581142711454
1,258,111868,-72.43257895670831,1600,0.6119844944542274,0.02485487990861022,10,111868,1000000,-0.6209254259732552,-0.6176803122879937,-0.6218509817449376
1,259,113468,-79.04029408853967,1600,0.5819616503058933,0.024979134086257456,10,113468,1000000,-0.4414180343830958,-0.4396703795180656,-0.4405253763659857
1,260,115068,-73.93506198609248,1600,0.6662274921126664,0.025060741330915327,10,115068,1000000,-0.2836096583516337,-0.284263503580587,-0.2858644801704213
1,261,116668,-115.51798437070101,1600,0.7259663042775355,0.02511053215615512,10,116668,1000000,-0.05392530307872221,-0.05522515692748129,-0.06031373795121908
1,262,118268,-97.30907276459038,1600,0.6365321617340669,0.025193684868814743,10,118268,1000000,0.09236991303041578,0.09308759720763192,0.08889159648912028
1,263,119868,-106.34998857043684,1600,0.5842865118244663,0.025192461456141863,10,119868,1000000,0.2700874323141761,0.26887097287224604,0.26611863228376026
1,264,121468,-108.52786770183593,1600,0.6554418755532242,0.02518265183479061,10,121468,1000000,0.28603368033189325,0.2855750683322549,0.283689123170916
1,265,123068,-79.63325006514788,1600,0.7640485420636832,0.02513183171188907,10,123068,1000000,0.3959850649884902,0.3941184914810583,0.39151990683516485
1,266,124668,-82.19401944475248,1600,0.673183122985065,0.02513877866944919,10,124668,1000000,0.4903229216812178,0.4915138513967395,0.4862837141752243
1,267,126268,-82.80265318928286,1600,0.584022180067841,0.025173492902642005,10,126268,1000000,0.5726601861277595,0.5727015492366627,0.5691271942900493
1,268,127868,-85.55014568101615,1600,0.611279453735333,0.025090193714218577,10,127868,1000000,0.6469894053274765,0.6487249692855402,0.6436267497646623
1,269,129468,-72.31175713893026,1600,0.4796124522096943,0.025132679583165115,10,129468,1000000,0.7040271824039519,0.7016671855538152,0.7004013980226591
1,270,131068,-55.65164815168828,1600,0.6245915421331302,0.025194709225505492,10,131068,1000000,0.8196596408390906,0.8172110546170734,0.8148650278197601
1,271,132668,-29.5240893115988,1600,0.5779431143263355,0.025263821261230824,10,132668,1000000,0.9404330841219053,0.9435498060239479,0.938754143039696
1,272,134268,-47.59036560647655,1600,0.5876065563736483,0.025398024019127188,10,134268,1000000,1.1186667583417147,1.1186301037669182,1.116481870650314
1,273,135868,-54.520514013944194,1600,0.62966835901374,0.025526077667625654,10,135868,1000000,1.3123874995810911,1.314994931006804,1.3118838228471577
1,274,137468,-57.599640351952985,1600,0.6711474196123891,0.025667065343579407,10,137468,1000000,1.4823910381295717,1.481336717910599,1.4789626665785909
1,275,139068,-50.78192611550912,1600,0.6401425995398313,0.025760563545216303,10,139068,1000000,1.621139212474227,1.6221063423668967,1.6183175634825602
1,276,140668,-53.42217797157355,1600,0.6648837841232307,0.02587617765094438,10,140668,1000000,1.7015448017138988,1.7011076615704224,1.697078244588338
1,277,142268,-27.612105928827077,1600,0.6575767781748436,0.025969191631794192,10,142268,1000000,1.8932880862033925,1.8959306359128094,1.8909985478362068
1,278,142358,-106.30813427176327,90,0.663727599920498,0.026072582438274906,10,142358,1000000,1.8562312298350865,1.846839342183537,1.8496383014652464
1,279,143958,-34.43744325032458,1600,0.660145483847009,0.02598285857069907,10,143958,1000000,2.155939411460422,2.1579474430438133,2.1519123233668505
1,280,145558,-48.53635876823682,1600,0.7922991687688046,0.02601468314042189,10,145558,1000000,2.2471976860798897,2.2500615031458437,2.2434747431986035
1,281,147158,-53.39554342161864,1600,0.5850233155372553,0.026017787837436503,10,147158,1000000,2.3569323380151763,2.35405533648096,2.3529736399650574
1,282,148758,-76.1342439185828,1600,0.7620942510932218,0.025995034501648806,10,148758,1000000,2.4284262374928223,2.427910728002898,2.4242784097837284
1,283,150358,-102.51134061557241,1600,0.6088063085149042,0.026000547467832993,10,150358,1000000,2.6045158221013844,2.6053416566178202,2.6005417849123478
1,284,151958,-68.32713007245911,1600,0.6831551710923668,0.025876389886001373,10,151958,1000000,2.5895440461533146,2.589174675089307,2.5831515657063573
1,285,153558,30.607902473770082,1600,0.5565165039058775,0.025745336812548654,10,153558,1000000,2.5728581225615925,2.5719520179694517,2.567310048872605
1,286,155158,5.020993140526116,1600,0.5273954363039229,0.0258011636269809,10,155158,1000000,2.8014665105752647,2.804952834844589,2.8003287743590772
1,287,155288,-133.9125435873866,130,0.3718027922969598,0.0258427996614618,10,155288,1000000,2.767691921729308,2.777262438031343,2.7722284069428076
1,288,156888,57.81913531990722,1600,0.6100862770655658,0.02577978410892295,10,156888,1000000,2.994129566056654,2.9955933067854494,2.9926958482991903
1,289,158488,58.14916481496766,1600,0.5783811744046398,0.02581779245847191,10,158488,1000000,3.1160754227265715,3.1190433574374765,3.111963061382994
1,290,160088,54.20089072169503,1600,0.6691396246151998,0.025837787762926223,10,160088,1000000,3.2669281649496407,3.2744605919253083,3.265304620992392
1,291,161688,41.953316333470866,1600,0.6169193050940521,0.02584757035990556,10,161688,1000000,3.4008413590397684,3.403619665261358,3.3962732940260323
1,292,163288,8.114019164582714,1600,0.6343586132186465,0.025842450390487704,10,163288,1000000,3.5384936299547554,3.5401022072602064,3.5358693527057765
1,293,164888,-2.959362603534828,1600,0.5308943235862534,0.02580930694532232,10,164888,1000000,3.576741134747863,3.5780477187782527,3.5752202671952547
1,294,166488,6.018828725937055,1600,0.555709587233141,0.02577541405508607,10,166488,1000000,3.6374068063963203,3.6391080547496677,3.634288009302691
1,295,168088,36.954627881292254,1600,0.761792170603294,0.025748154970124747,10,168088,1000000,3.7094772202149033,3.713148724604398,3.7056526753958314
1,296,169688,19.14979628880974,1600,0.5767230622610078,0.025745198354920056,10,169688,1000000,3.7567300344258547,3.759725153557956,3.75525713250041
1,297,171288,55.96480875881389,1600,0.6770521041785833,0.025733596364679593,10,171288,1000000,3.8351684429123996,3.8326757251657546,3.828187469970435
1,298,172888,59.991011523641646,1600,0.6170163343416061,0.02572803319662468,10,172888,1000000,3.7937828904017805,3.792944867871702,3.789877087958157
1,299,174488,38.49463461450068,1600,0.6804988579044584,0.0257419598021625,10,174488,1000000,3.889244002066553,3.884480871129781,3.88313726965338
1,300,176088,9.587867627269588,1600,0.7345100566442124,0.025745294665223933,10,176088,1000000,3.888586998321116,3.8964024218916893,3.887616662532091
1,301,177688,45.41981213455438,1600,0.6833132573415059,0.025754509968362288,10,177688,1000000,4.063137306394055,4.064309490690939,4.060624820590019
1,302,179288,45.96641230676323,1600,0.8473752312874422,0.02577118138665482,10,179288,1000000,4.071162972301245,4.070799026377499,4.0645858507603405
1,303,180888,41.997382984962314,1600,0.6334371169854421,0.025798028920378004,10,180888,1000000,4.087464931122959,4.091138849649578,4.084827088918537
1,304,182488,33.433308947249316,1600,0.7781407964893151,0.0258267821063401,10,182488,1000000,4.107715665493161,4.107981448322534,4.10001662524417
1,305,184088,18.787147263763472,1600,0.5858692019281443,0.025862758114501443,10,184088,1000000,4.11068949919194,4.10934626981616,4.109209506437183
1,306,185688,4.141224523773417,1600,0.736603996938793,0.025877349024597946,10,185688,1000000,4.1060955686308445,4.1053332675620915,4.101443184502423
1,307,187288,-3.7853356590494514,1600,0.7697261966927909,0.025890305520645505,10,187288,1000000,4.116863729730248,4.116642784439027,4.110866792201996
1,308,188888,27.884497592807747,1600,0.7311142512876541,0.02588167613736582,10,188888,1000000,4.09100740659982,4.094008543901145,4.088335925973952
1,309,190488,4.536777645349503,1600,0.6554753085155971,0.025904425890203895,10,190488,1000000,4.101898674722761,4.108245260678232,4.10210725966841
1,310,192088,1.1412748906295747,1600,0.7262777627701871,0.025890156386860756,10,192088,1000000,4.18442543964833,4.184948708862066,4.180501099638641
1,311,192159,-108.06273967958987,71,0.35931635717196125,0.02588859333395958,10,192159,1000000,4.144396475383213,4.148586280005318,4.148156503268651
1,312,192233,-109.88003592845052,74,0.8077424304293734,0.025819328963259856,10,192233,1000000,4.302371501922607,4.260232727868217,4.26286598273686
1,313,193833,2.187913060595747,1600,0.6227361305558589,0.025760807919005552,10,193833,1000000,4.303582835607231,4.303052891381085,4.300453119315207
1,314,193917,-109.82770029455423,84,0.9178811732446774,0.02576972061332655,10,193917,1000000,4.230534815788269,4.222095948457718,4.220965801179409
1,315,193979,-109.51418140716851,62,0.4844592076415817,0.02571339557322176,10,193979,1000000,4.017604007323583,4.037269745270411,4.027431811889013
1,316,194043,-109.70038560125977,64,0.5145367302621404,0.025649488346757,10,194043,1000000,4.406677997112274,4.414791991313298,4.407528632879258
1,317,194108,-109.10350239556283,65,0.2622071399043004,0.025595204754089114,10,194108,1000000,4.226372810204824,4.21464025179545,4.228301719824473
1,318,194176,-107.8810899630189,68,1.7872970988353094,0.0255477222642659,10,194176,1000000,4.21352254152298,4.2070508122444155,4.191267200311025
1,319,194233,-107.25775581039488,57,0.2672622560709715,0.025484628410700285,10,194233,1000000,4.173519876003265,4.170491056442261,4.18138534784317
1,320,194316,-108.86581994593143,83,0.6629001299152151,0.0254342461851808,10,194316,1000000,4.237915354967117,4.246524108946323,4.223434300720692
1,321,194392,-109.16299828980118,76,0.6110401017591357,0.025386096514372066,10,194392,1000000,4.190001051766532,4.193483863558088,4.184783039774214
1,322,194457,-107.93654409889132,65,0.28750069697077074,0.025337255212936845,10,194457,1000000,3.9497771809498468,3.950733123222987,3.9487237016359966
1,323,194518,-107.81118976324797,61,0.253795362294962,0.025283245816270564,10,194518,1000000,4.1519299646218615,4.1485443333784735,4.142417053381602
1,324,194580,-108.93089356087148,62,0.3155131676234305,0.025235810111856376,10,194580,1000000,3.9983036716779075,4.003206753730774,4.002148443460465
1,325,194647,-109.09485262492672,67,1.3545456347987055,0.02519183751195669,10,194647,1000000,4.289220003286998,4.316199072202047,4.273960800965627
1,326,194706,-108.42031858861446,59,0.23837718173861502,0.025140535420525755,10,194706,1000000,4.235072827339172,4.230625655651092,4.231983160972595
1,327,194772,-108.60415008105338,66,0.4634137577687701,0.025098890095393647,10,194772,1000000,4.529875648021698,4.553686590989431,4.529179922739664
1,328,194833,-106.57102746516466,61,0.4320127183881899,0.0250537805806584,10,194833,1000000,3.935055116812388,3.943054070075353,3.9432899157206216
1,329,194904,-105.60480595752597,71,0.6287682611761348,0.025011925669521602,10,194904,1000000,4.40781227861132,4.406928467750549,4.390022046225411
1,330,194967,-106.39025013335049,63,0.5344044752108554,0.024973831706946743,10,194967,1000000,3.9219489355882007,3.943050855398178,3.9328347260753316
1,331,195068,-107.66449012607336,101,0.7486271194554865,0.02493269775801983,10,195068,1000000,4.273515901565552,4.280177307128906,4.273405250310898
1,332,195151,-109.10746675170958,83,0.653512078220956,0.024897040272204175,10,195151,1000000,4.08984205275774,4.061262315511703,4.077025099098682
1,333,195239,-109.29289551265538,88,0.549823721521534,0.02485505717994738,10,195239,1000000,4.152708837389946,4.167475192248821,4.164486461877823
1,334,195333,-109.34357241727412,94,0.35613477016902634,0.024814446893954945,10,195333,1000000,4.142954524358114,4.137302720546723,4.1342731753985085
1,335,195412,-107.6396309658885,79,0.5553627156519464,0.024773075917386603,10,195412,1000000,3.9407037939344134,3.9368678450584413,3.9263079949787687
1,336,195506,-108.33566676452756,94,0.8645742064548864,0.024735029278401988,10,195506,1000000,4.058046094576517,4.0304169085290695,4.041479316022661
1,337,195576,-107.46716177463531,70,0.7481551479016032,0.024695360073034498,10,195576,1000000,4.038050823552268,4.045166344302041,4.031006855624063
1,338,195668,-106.66321799810976,92,0.5730131521821022,0.02465340781154566,10,195668,1000000,4.104700220955743,4.1059393260214065,4.095850965711805
1,339,195753,-108.12225877773017,85,0.663009398127906,0.024621001208431848,10,195753,1000000,4.19801461994648,4.203379794955254,4.19495909512043
1,340,195824,-108.40086750872433,71,1.3064414987074477,0.024590746477818407,10,195824,1000000,4.021126341819763,4.023331105709076,4.009861963135855
1,341,195899,-106.60888676904142,75,0.4471204490001712,0.02454566971624813,10,195899,1000000,4.019991925784519,4.0303570134299145,4.022757955959865
1,342,195970,-106.02077888231725,71,1.6833680931478738,0.024517114448456463,10,195970,1000000,3.8457215479442053,3.8462306874138967,3.8100610630852834
1,343,196040,-109.22443340532482,70,0.803608191971268,0.024490526274073877,10,196040,1000000,3.8792292722633905,3.86302929520607,3.8786885006087166
1,344,196115,-107.527119750157,75,0.6796434132914458,0.024453418396559415,10,196115,1000000,3.9243048191070558,3.9234317864690507,3.9181515080588203
1,345,196185,-108.89293212071061,70,0.48636883976204054,0.024423159498581946,10,196185,1000000,3.7468622497149875,3.7444593105997357,3.7457871794700623
1,346,197785,-3.4822905263863504,1600,0.7689969855593517,0.024382896689751597,10,197785,1000000,3.792142690559849,3.7920851260889323,3.786173719288781
1,347,199385,-94.78008541557938,1600,0.7197482661297545,0.02440254690530927,10,199385,1000000,3.600822661370039,3.6006049010274,3.598159886514768
1,348,199468,-106.73665191978216,83,0.9472912051947787,0.024233153042796083,10,199468,1000000,3.4518413238227366,3.4587279591709374,3.443958716839552
1,349,201068,-41.74498951714486,1600,0.6110683797718957,0.02418553011462405,10,201068,1000000,3.4707944704778493,3.4696952732652426,3.4678786162473263
1,350,201159,-101.36771588027477,91,0.28451682743099,0.024213139868782332,10,201159,1000000,3.3170135299364727,3.307924167315165,3.3114526437388525
1,351,201247,-100.95762825850397,88,0.5630872432608157,0.02418023264901653,10,201247,1000000,3.5040968641638757,3.512204000353813,3.510201062262058
1,352,201339,-99.64163775369525,92,0.3474336326950126,0.02414469467657693,10,201339,1000000,3.4490982472896574,3.448169220818414,3.454696657260259
1,353,201427,-100.00109998323023,88,0.5788577692583203,0.024125066755198897,10,201427,1000000,3.461702014505863,3.4726578295230865,3.4648240759968756
1,354,201501,-105.2631464432925,74,0.41329514030367137,0.024088640559221396,10,201501,1000000,3.4404516748019627,3.4652356837477,3.4577321444238933
1,355,201577,-101.40600076690316,76,0.6777501873405917,0.024058246763390738,10,201577,1000000,3.541215307371957,3.5405363074370793,3.5455775116171155
1,356,201657,-103.90346650592983,80,0.6397559845121578,0.02401691254690662,10,201657,1000000,3.6100322850048543,3.6039488077163697,3.615229041129351
1,357,201744,-102.00739677809179,87,0.8496711623156443,0.023995604958702375,10,201744,1000000,3.4255278576165438,3.4317033678293227,3.4168878335505726
1,358,201842,-103.34789314959198,98,0.7827937455226978,0.023966467430005117,10,201842,1000000,3.4196541839175754,3.425473992029826,3.4197689437203938
1,359,201919,-102.26497790031135,77,0.9220035034098796,0.02393878739667574,10,201919,1000000,3.332821172475815,3.3281320018427714,3.3215627006122044
1,360,202009,-105.22323522157967,90,0.7643379451293084,0.023915413345719252,10,202009,1000000,3.407508616314994,3.411437444554435,3.402988639805052
1,361,202095,-101.11158007755876,86,0.931908635655418,0.023883095110896826,10,202095,1000000,3.2891588523983954,3.3041736207902432,3.2813807263970376
1,362,202255,-100.79689049627632,160,0.7223398125031963,0.023852016685989318,10,202255,1000000,3.098203149810433,3.0952407255768777,3.090498793311417
1,363,202332,-100.49733009003103,77,0.4228042828717402,0.023836507098238428,10,202332,1000000,3.0081825375556948,3.0126878559589385,3.0124491350991387
1,364,203932,5.3030946287326515,1600,0.4862427294440568,0.023802458458906234,10,203932,1000000,3.1621138220932337,3.1632049097213892,3.1617844311799854
1,365,205532,-2.674750671023503,1600,0.5273576668184251,0.02383228772533574,10,205532,1000000,3.0188164607528596,3.0193390462826937,3.017507423013449
1,366,207132,-66.78289664909244,1600,0.561991361854598,0.023849658653177227,10,207132,1000000,2.9778781087789685,2.9812660836987197,2.9778757604584096
1,367,207198,-113.5415768455714,66,0.5103168128679196,0.02391069083776575,10,207198,1000000,2.977401911218961,2.9570403710007667,2.958474780122439
1,368,208798,-64.20914304727921,1600,0.7174946836417075,0.023870526684880208,10,208798,1000000,2.909604825968854,2.9100247267074884,2.9050805932702497
1,369,210398,-68.66141803166829,1600,0.5713236942654476,0.023919855435293146,10,210398,1000000,2.783355601541698,2.7875989172141997,2.780957291116938
1,370,211998,-64.9831593913259,1600,0.7372433524788358,0.02402335661355674,10,211998,1000000,2.6844091744720937,2.683246035464108,2.678825309816748
1,371,212067,-112.83484287629835,69,0.4156008245423436,0.024216472341914493,10,212067,1000000,2.5733140468597413,2.5932369540135065,2.595067471265793
1,372,213667,-18.542122958344407,1600,0.7140230393852107,0.024182489781599977,10,213667,1000000,2.620539655024186,2.6200906107388438,2.6147832654369996
1,373,215267,37.18527723965235,1600,0.7180795760720503,0.024353660716802526,10,215267,1000000,2.5559974815603344,2.554901101458818,2.5513158326968552
1,374,216867,33.64399467827752,1600,0.723858810699312,0.024381092855825074,10,216867,1000000,2.4502064631460234,2.451214186595753,2.446435460820794
1,375,218467,22.870470360852778,1600,0.5923873823974282,0.024412926604156886,10,218467,1000000,2.347597282123752,2.3487306264787913,2.344747637361288
1,376,218525,-109.44668548181653,58,0.5773590621352196,0.024435907463430658,10,218525,1000000,2.0746935579180716,2.065836602449417,2.0610378265380858
1,377,220125,36.31175644742325,1600,0.6773445008625276,0.024389478445181207,10,220125,1000000,2.2952882040012628,2.294699735455215,2.2900300839496777
1,378,221725,58.81692420365289,1600,0.7008706607681233,0.024418167406197986,10,221725,1000000,2.1497826128453017,2.1510445725964384,2.146301608723588
1,379,222947,-136.98226561190677,1222,0.7385040695336266,0.02442590685072337,10,222947,1000000,2.1085961680431833,2.1124138296016906,2.1072979991186838
1,380,223760,-129.10430008661933,813,0.6798126336463072,0.02443972408186316,10,223760,1000000,1.9713446502884229,1.966351596404005,1.9656998381018638
1,381,223907,-98.23554781125858,147,1.0701936154227172,0.02442384927933517,10,223907,1000000,2.0542990058660506,2.0559680634311266,2.048255896674735
1,382,225507,-73.473498753272,1600,0.6785613848012872,0.024379113794344924,10,225507,1000000,1.9692164064152167,1.9709086035285146,1.9661276831105352
1,383,227107,-159.33813535422087,1600,0.7742039672657848,0.02432683806146749,10,227107,1000000,1.9729794909525662,1.9736271582124756,1.9691159603605046
1,384,227245,-96.66803828626871,138,0.8898847102115933,0.02413891798899569,10,227245,1000000,1.9223330855369567,1.9189422246355277,1.9109628230333329
1,385,227511,-102.8018795074895,266,0.752526888738458,0.024098595666598666,10,227511,1000000,1.9346274349551935,1.9337306927029903,1.9342011246543664
1,386,227657,-93.11046835314482,146,0.47762308972222467,0.024077084467972857,10,227657,1000000,1.8696774557232856,1.8642682277730533,1.870999493769237
1,387,227726,-109.12987594120204,69,0.5257457997029026,0.024036749437825706,10,227726,1000000,1.8270327170689902,1.8284659999112287,1.8219546253482501
1,388,227896,-94.1403058168944,170,0.48819680656580366,0.024012866553113306,10,227896,1000000,1.8885766154264703,1.883315047621727,1.8845427230438765
1,389,229172,-138.3740987057099,1276,0.582659673535331,0.02397752882110492,10,229172,1000000,1.8368376058563003,1.838809438724452,1.8365915797005488
1,390,230374,-123.32672889716923,1202,0.5779551123362034,0.023959239702151473,10,230374,1000000,1.7087135919059315,1.7087155436786512,1.7077604710683227
1,391,230456,-99.26148295029998,82,0.6223482918459922,0.023951892090100114,10,230456,1000000,1.684439130872488,1.6907140105962752,1.689839017018676
1,392,232056,-37.87933183868881,1600,0.749115875455318,0.023917698800977733,10,232056,1000000,1.6312206482468172,1.6289382447395473,1.6284848397551104
1,393,233656,-33.844354543834925,1600,0.7425343812513165,0.02391534631398888,10,233656,1000000,1.5521770150167868,1.5540876472042873,1.5516483251424507
1,394,235256,11.055844248039648,1600,0.6993539684999268,0.023905372758918818,10,235256,1000000,1.4857961720274762,1.4847623159643262,1.4864697454543785
1,395,236856,-9.589216136489995,1600,0.8468320158636198,0.023983045903047357,10,236856,1000000,1.41854623766616,1.418153413515538,1.4151350578392157
1,396,238456,-6.556791859562509,1600,0.72346172701451,0.02401747201758999,10,238456,1000000,1.4184305779309943,1.4184365887008608,1.4153467370802537
1,397,238644,-106.13273459300399,188,0.45266666621383694,0.024052233575328763,10,238644,1000000,1.4736996226840549,1.477164148290952,1.476383370326625
1,398,240244,-63.08407957991585,1600,0.8335414034093265,0.024017581631574723,10,240244,1000000,1.426248448342085,1.426198603711091,1.4213382250908762
1,399,240878,-114.343108729925,634,1.0777851769966738,0.023950251264400996,10,240878,1000000,1.4047632841955102,1.4091243011374321,1.4020619364839697
1,400,242388,-156.2411607853137,1510,0.8348382408206432,0.02392109679639445,10,242388,1000000,1.3500493832228595,1.3487431118178446,1.3454148502243275
1,401,243194,-128.54851501993835,806,0.8270592395565473,0.023816624393002764,10,243194,1000000,1.3930746705643833,1.3951381184812635,1.3884925465285778
1,402,243741,-110.11272355448455,547,0.8628463093156892,0.0237801179819759,10,243741,1000000,1.3601259317662981,1.3570390534483725,1.3536687197094714
1,403,243863,-120.81210620515049,122,0.6012841696850956,0.023754451356969086,10,243863,1000000,1.3222785119588176,1.3248550236225127,1.3210138944288095
1,404,243997,-111.2593700569123,134,0.541907625989272,0.02372508407505203,10,243997,1000000,1.2675966736788933,1.2709687172220303,1.2736978056339117
1,405,244418,-118.08724006265402,421,0.6760233527670304,0.02369234866653864,10,244418,1000000,1.298862661421299,1.296829915862708,1.29604992293531
1,406,244665,-114.48185674659908,247,1.3105239815233896,0.023654444382026803,10,244665,1000000,1.2233209117005268,1.2215328025321166,1.2089817736918727
1,407,246265,100.98009486915544,1600,0.7240208906377665,0.023635384287964717,10,246265,1000000,1.1685689366003498,1.1702582522621379,1.1680611169245094
1,408,247865,102.92812407272868,1600,0.8221648247353732,0.023700522080043144,10,247865,1000000,1.1727531888475642,1.1771010186057538,1.17064078791067
1,409,249465,83.44524281704798,1600,0.80129445676459,0.023747153798395322,10,249465,1000000,1.1690778709715233,1.172040186598897,1.1688828621385619
1,410,251065,83.96505915606394,1600,0.8542864286224358,0.02379886731620136,10,251065,1000000,1.0760167423821985,1.0768258840963245,1.0722293059411458
1,411,252665,-82.100127232261,1600,0.6831027505616657,0.02383302029729092,10,252665,1000000,1.0751781124575064,1.0748207927728073,1.0725677833426743
1,412,253552,-137.74769526254386,887,0.7175953424408693,0.023745941264936454,10,253552,1000000,1.0605266102843665,1.056525260176171,1.0572996624660762
1,413,253653,-100.3911107154563,101,0.4695926424488425,0.023732906631021587,10,253653,1000000,1.1190184564888477,1.1199027149379253,1.1260695141553878
1,414,254598,-147.60471624601632,945,0.8403788663565795,0.023701526229379554,10,254598,1000000,1.108225066381249,1.1056236663635106,1.1013480817066863
1,415,255271,-82.7235951218754,673,0.7526139285276408,0.02361559409943005,10,255271,1000000,1.1010915324759127,1.1033935925631382,1.1025793583757841
1,416,256645,-65.98317805468105,1374,0.6533685660003311,0.023607339021111163,10,256645,1000000,1.1926978618504793,1.1953045275687737,1.1929995413788044
1,417,256931,-110.38344334997237,286,0.626626856358988,0.023632421671194153,10,256931,1000000,1.1699885397085121,1.1631106954067945,1.161228875523167
1,418,257195,-111.44136888347566,264,1.0796842932701112,0.023621553644394312,10,257195,1000000,1.35359316101441,1.354336410531631,1.348136361917624
1,419,257398,-116.59209627937526,203,0.9862788391113281,0.023611024385478945,10,257398,1000000,1.1941332540661096,1.1964857025071978,1.1850087332725525
1,420,258998,46.87759927264415,1600,0.9667752374941483,0.0235921451128142,10,258998,1000000,1.2626326072844676,1.2616445445548743,1.2572603674139828
1,421,260598,25.19887876044959,1600,0.9561646332533564,0.02361762299077408,10,260598,1000000,1.2689818279724567,1.2683426060713827,1.2625335328187794
1,422,261165,-88.56276781111956,567,0.9370070900435427,0.02369849514698482,10,261165,1000000,1.3593687651945012,1.3521968810686043,1.3513236117017056
1,423,261813,-91.88877966301516,648,0.8392632582050282,0.023684411493489165,10,261813,1000000,1.4194613519706762,1.416628270072397,1.4166090783663094
1,424,263355,-120.60484953201376,1542,0.9059920779659183,0.023673504341298935,10,263355,1000000,1.4293341198670013,1.4280603967800543,1.4227952585591899
1,425,264955,6.505872681038454,1600,0.9423337907739915,0.023705343539728727,10,264955,1000000,1.5280713909631596,1.5307134847575798,1.5250288171949797
1,426,266555,5.529370937729254,1600,0.7933004372369032,0.02370013684288945,10,266555,1000000,1.5547692278632894,1.554102196888998,1.5512038023257628
1,427,267352,-109.01672044489533,797,0.7155725137389536,0.023716714146439364,10,267352,1000000,1.6533582827807227,1.6507768889299677,1.6466831709105003
1,428,268952,35.14560412825085,1600,0.8860699449072126,0.023732338387442996,10,268952,1000000,1.8122868239320815,1.812333673881367,1.8066531532863155
1,429,270552,9.498058284400031,1600,0.8436667743779254,0.023745410724291725,10,270552,1000000,1.8026544829807245,1.8053500271355734,1.7999320820323192
1,430,270630,-99.98555387742817,78,1.7030451736545988,0.023769075718633077,10,270630,1000000,1.6609052611248833,1.6521854632667132,1.6540930477636202
1,431,270728,-96.69884298555553,98,0.8254238737126192,0.0237323618003789,10,270728,1000000,1.8214076187875536,1.8111331875125567,1.8116454559895727
1,432,270856,-96.98328785039485,128,0.9913967232219875,0.02370466897478524,10,270856,1000000,1.8674316150446733,1.8357972537477811,1.8482250151534876
1,433,272456,13.340656196698546,1600,0.8303780730871949,0.023671465763785815,10,272456,1000000,1.949302489552647,1.9526942447945475,1.946431622831151
1,434,274056,28.623888241127133,1600,0.8418316929112188,0.02371438601133612,10,274056,1000000,1.9342243800126016,1.9364682593662292,1.9304640954639762
1,435,275656,36.565939193591475,1600,0.791143899349263,0.023722655622642544,10,275656,1000000,2.039356887331232,2.0414836570154877,2.035375328506343
1,436,277256,38.527898664586246,1600,0.7245372284052428,0.02374066618897824,10,277256,1000000,2.117728876597248,2.1190503588318825,2.1131221193494274
1,437,278856,44.68217072612606,1600,0.718062394016888,0.023754740323184562,10,278856,1000000,2.2327683942066505,2.234186095977202,2.2287388459267095
1,438,280456,42.295667306985706,1600,0.6498425464343746,0.02379330978217131,10,280456,1000000,2.330952712697908,2.3311468619201334,2.3263164904806763
1,439,282056,65.86351910978556,1600,0.6128072130028158,0.0238083565051425,10,282056,1000000,2.439284824207425,2.439061495149508,2.435282078720629
1,440,283656,-44.0423567770049,1600,0.5870244066684972,0.02383414537364196,10,283656,1000000,2.58875881053973,2.5888412309624256,2.5867223562020807
1,441,285256,57.09704236872494,1600,0.5701066764374264,0.023718139931456456,10,285256,1000000,2.6776989099523054,2.6785193409025667,2.6758428608905525
1,442,286856,61.33539857901633,1600,0.4643024981720373,0.023742430728822858,10,286856,1000000,2.7767734475526957,2.7795285630226134,2.7757335247751325
1,443,288456,69.80241229897365,1600,0.5113399593695067,0.02376982619908328,10,288456,1000000,2.9141190709266813,2.913746928917244,2.911458144336939
1,444,290056,69.52689780015498,1600,0.5933912366023287,0.023814142199179135,10,290056,1000000,3.0121477537183092,3.010303486967459,3.0064176337607207
1,445,291656,59.14318070374429,1600,0.6214024214597884,0.023854577080265813,10,291656,1000000,3.0754950591921806,3.075893462374806,3.071552324471995
1,446,293256,77.12967526447028,1600,0.8591117566241883,0.02388933336382412,10,293256,1000000,3.161339858672582,3.162788541065529,3.15571193899028
1,447,294856,87.92216636287048,1600,0.7093489677179605,0.02390339236039522,10,294856,1000000,3.243675366519019,3.2471004413627087,3.242037435453385
1,448,296456,75.40219662105665,1600,0.8612264715007041,0.02393144182688234,10,296456,1000000,3.3127836969308557,3.3141869956906884,3.30800619084388
1,449,298056,83.55308560840786,1600,0.737343360350933,0.023970297290785394,10,298056,1000000,3.351778055615723,3.3516359846293926,3.3462094886787237
1,450,299656,77.84790179645643,1600,0.5849332907539793,0.024004489043460815,10,299656,1000000,3.4600573517754674,3.459601420201361,3.457380078844726
1,451,301256,77.77838390972465,1600,0.6791349316877313,0.024025630112312884,10,301256,1000000,3.472533818501979,3.4702105156332252,3.465814734157175
1,452,302856,86.6723366540391,1600,0.5532879716774914,0.024038009974543775,10,302856,1000000,3.5880234023183584,3.5868918165937065,3.58311882738024
1,453,304456,85.22795215307269,1600,0.49286404288955965,0.024057586491422842,10,304456,1000000,3.617790631242096,3.618408219330013,3.6179726591333745
1,454,306056,94.432529526297,1600,0.42048073291545734,0.02406580712826923,10,306056,1000000,3.7047888080962004,3.704716909658164,3.704220506735146
1,455,307656,88.16421308508143,1600,0.4398496000817977,0.02408897720900789,10,307656,1000000,3.745256956890225,3.746002176310867,3.7444587410986423
1,456,309256,102.07879919488914,1600,0.517431914844783,0.024112338697847444,10,309256,1000000,3.8217072363011537,3.8226922734081743,3.8203534273430706
1,457,310856,95.67651695152745,1600,0.41682866513496264,0.024162015506265806,10,310856,1000000,3.8985385531559587,3.8989733797311783,3.8979900021106006
1,458,312456,89.09852027473971,1600,0.4343728526122868,0.02416408119527833,10,312456,1000000,4.027348290793598,4.028088651187718,4.026219272017479
1,459,314056,85.82492974679917,1600,0.5115851556300186,0.02418748432475198,10,314056,1000000,4.1597793082892895,4.156791752129793,4.155572982691228
1,460,315656,83.18985809269361,1600,0.5903103638766334,0.024217230485890986,10,315656,1000000,4.28343555495143,4.283784961476922,4.28001645475626
1,461,317256,59.7225442212075,1600,0.5620348424138502,0.024224081410688787,10,317256,1000000,4.361301436275244,4.362029392458498,4.359106928054243
1,462,318856,76.6986900321208,1600,0.4978426512447186,0.024232583409007403,10,318856,1000000,4.439654847756028,4.439102170169353,4.435498184561729
1,463,320456,77.45666173193604,1600,0.42599376442609355,0.024234770862522775,10,320456,1000000,4.508641502410174,4.50948176778853,4.505767839029431
1,464,322056,75.63959685759619,1600,0.5431030966772232,0.024233851181191823,10,322056,1000000,4.578489650189876,4.577953545451164,4.575469983443618
1,465,323656,80.98150924523361,1600,0.4044567497749813,0.024251894545941264,10,323656,1000000,4.712305265963078,4.710699529275298,4.708961153775453
1,466,325256,82.03639925504103,1600,0.5143303903285414,0.024250570712964745,10,325256,1000000,4.756697624325752,4.755815568678081,4.7516550369560715
1,467,326856,80.61570578743704,1600,0.5615410920744762,0.024251658932606536,10,326856,1000000,4.910877496376633,4.911852296292782,4.9071941453963515
1,468,328456,80.01994968671352,1600,0.5121999725117348,0.02426298546109469,10,328456,1000000,4.989091014564037,4.989976212382317,4.98814141690731
1,469,330056,82.11295975628309,1600,0.5143513515195809,0.024288072114266895,10,330056,1000000,5.111119850873947,5.110939015299082,5.10771473094821
1,470,331656,85.48844877374358,1600,0.4552713601652067,0.02431054263150997,10,331656,1000000,5.216795353889466,5.216159400343895,5.213612240627408
1,471,333256,69.57092270324938,1600,0.6157367131765932,0.024306823863927154,10,333256,1000000,5.319391744360328,5.321272049695254,5.316148893758655
1,472,334856,67.15561171481386,1600,0.4874667580903042,0.024319288125316547,10,334856,1000000,5.372239771336317,5.374559164345264,5.368068273961544
1,473,336456,73.26673236885108,1600,0.4582328057149425,0.02431213098438599,10,336456,1000000,5.441850551217795,5.441328188478947,5.4387777125835415
1,474,338056,70.70600336941425,1600,0.5693642592022661,0.024310820530636972,10,338056,1000000,5.538311006873846,5.539595302194357,5.535920348316431
1,475,339656,68.87823686772026,1600,0.5118518867460079,0.024321190497715667,10,339656,1000000,5.6305735705792905,5.62934501439333,5.625837345272303
1,476,341256,52.16592214885168,1600,0.5052657098142663,0.024348212830917117,10,341256,1000000,5.68728720292449,5.686931637078524,5.6828593625128265
1,477,342856,60.73835100303404,1600,0.4662377201579511,0.024376276323246224,10,342856,1000000,5.7688745361566545,5.768741702139377,5.76626255273819
1,478,344456,60.606597625650465,1600,0.5702924500231166,0.024383506324547482,10,344456,1000000,5.825490120053291,5.8258784778416155,5.822810764461756
1,479,346056,48.049751980928704,1600,0.5255894891836215,0.02438935327139375,10,346056,1000000,5.949860336184502,5.947539876550436,5.94343338444829
1,480,347656,55.26370364706963,1600,0.4014568607835099,0.024404378859622666,10,347656,1000000,5.98018901899457,5.982894457727671,5.9798239544034
1,481,349256,38.36318845534697,1600,0.49004345507360997,0.024412190122278403,10,349256,1000000,6.0670902135968205,6.067464443296194,6.06514849036932
1,482,350856,51.880862625548616,1600,0.5084847849671497,0.02442512424382311,10,350856,1000000,6.135760332643986,6.135433425605297,6.131632459759712
1,483,352456,53.91735879378393,1600,0.40004132271453274,0.02441661656292613,10,352456,1000000,6.107528605908155,6.105401399880647,6.105805131345988
1,484,354056,30.116267622623127,1600,0.606361489900155,0.024420084208141752,10,354056,1000000,6.199960514307022,6.19940804079175,6.194497400820255
1,485,355656,55.717644959455356,1600,0.47887353591388093,0.024428375215272094,10,355656,1000000,6.211041572839021,6.2092700086534025,6.207931814491749
1,486,357256,63.59239118266851,1600,0.4547615432465682,0.02440232687942882,10,357256,1000000,6.238975411802531,6.241139115989208,6.236031571924687
1,487,358856,63.16328943055123,1600,0.4997740057343617,0.024379578004040385,10,358856,1000000,6.3012042871117595,6.301107719093562,6.297698440551758
1,488,360456,46.61163639987353,1600,0.44816534116922413,0.024366777191435388,10,360456,1000000,6.3144748854637145,6.316473653614521,6.311831451058388
1,489,362056,50.49404546385631,1600,0.4671641567454208,0.024374566432070977,10,362056,1000000,6.369206386506558,6.367706548720598,6.365000610649585
1,490,363656,54.43964415229857,1600,0.5567068498308072,0.024379890108852525,10,363656,1000000,6.385019868016243,6.385710940510035,6.380024872869253
1,491,365256,43.53212004341185,1600,0.5196126303396886,0.02440349756473317,10,365256,1000000,6.380332446694374,6.3819985397160055,6.377787714749575
1,492,366856,39.40748454025015,1600,0.5621548828831874,0.024407957287182203,10,366856,1000000,6.409942121952772,6.411007065325975,6.407274370491504
1,493,368456,36.43713198462501,1600,0.6390164113801439,0.024429609829650478,10,368456,1000000,6.472667562663555,6.473122029453516,6.468081201761961
1,494,370056,51.495310417958535,1600,0.55840003713849,0.02446063883259171,10,370056,1000000,6.461909231841564,6.460787349492311,6.457858676165342
1,495,371656,37.52424753410742,1600,0.43821679953718556,0.02446051627045203,10,371656,1000000,6.510202889293432,6.513762189298868,6.510053822249174
1,496,373256,53.37072690296918,1600,0.4512176945514511,0.024486539766189013,10,373256,1000000,6.554348356574774,6.555741304308176,6.553338113874197
1,497,374856,62.82551740761846,1600,0.43589364366605876,0.02449044036961305,10,374856,1000000,6.584076789319515,6.581399821341038,6.579638024568558
1,498,376456,65.78008968755603,1600,0.4832210299471626,0.024487508779632534,10,376456,1000000,6.613463844358921,6.613305083960295,6.610198017060757
1,499,378056,57.26752955210395,1600,0.4121182039804989,0.024496882334773908,10,378056,1000000,6.549234577864408,6.550751382708549,6.547733638137579
1,500,379656,59.62879947992042,1600,0.4139944711717544,0.024498282509410878,10,379656,1000000,6.589532901346684,6.591949626207351,6.588867680877447
1,501,381256,63.301657675765455,1600,0.374529871789855,0.024483435309353263,10,381256,1000000,6.597093260884285,6.596948139667511,6.595300854742527
1,502,382856,63.749858879018575,1600,0.43178207381570244,0.024455857841214172,10,382856,1000000,6.617847503274679,6.619624373316765,6.616223988085985
1,503,384456,60.83292880887166,1600,0.46951802489114924,0.02444050444707424,10,384456,1000000,6.609330929964781,6.610864129066467,6.606043869256974
1,504,386056,60.17250107880682,1600,0.44472891228448136,0.024404523467474213,10,386056,1000000,6.597955575585365,6.597520560324192,6.595680964887142
1,505,387656,52.072280453983694,1600,0.4669966633664444,0.02438556318419181,10,387656,1000000,6.590923624932766,6.589517619907856,6.586697510480881
1,506,389256,69.56121133035049,1600,0.3900631873909151,0.02437836543969787,10,389256,1000000,6.650192296504974,6.6527658309042454,6.649254369288683
1,507,390856,72.23616366786882,1600,0.5220391375420149,0.024350391293573602,10,390856,1000000,6.6174150735139845,6.6167233508825305,6.615412156730891
1,508,392456,69.30511174700223,1600,0.4259556407819036,0.024331880122660784,10,392456,1000000,6.70238653242588,6.702239277660847,6.700021877288818
1,509,394056,79.542564291507,1600,0.5162987052288373,0.024313333647005272,10,394056,1000000,6.7236792367696765,6.725886565744877,6.719912402182818
1,510,395656,88.41262566111982,1600,0.4320692829374457,0.024298594648836234,10,395656,1000000,6.777334252595901,6.776566016674042,6.774317111372948
1,511,397256,87.41309447167441,1600,0.34290649489790664,0.024278461903116656,10,397256,1000000,6.810012331008911,6.808223098218441,6.806087433695793
1,512,398856,86.79101902921684,1600,0.3697447996790288,0.02426879511241013,10,398856,1000000,6.842795745134354,6.842834535539151,6.839913538694382
1,513,400456,78.47946249495726,1600,0.31352886196575125,0.02425682492598821,10,400456,1000000,6.888582178354263,6.890210279524326,6.88761081546545
1,514,402056,96.25190135207959,1600,0.39879092437564395,0.024242072747401,10,402056,1000000,6.963482554256916,6.966209658384323,6.962783271074295
1,515,403656,83.85215903352946,1600,0.355706802707864,0.024209429779882895,10,403656,1000000,7.031107881069183,7.032398311793804,7.0297232666611675
1,516,405256,95.11510803434066,1600,0.49424908420885916,0.024202044939231473,10,405256,1000000,7.138011213541031,7.13864399164915,7.135591413676739
1,517,406856,103.61269435973372,1600,0.47452948218444363,0.024185035137154098,10,406856,1000000,7.179350507557392,7.180175883471966,7.175192347764969
1,518,408456,66.93831495585619,1600,0.4899457903445,0.024172572547599958,10,408456,1000000,7.355710344612598,7.356260156929493,7.352845524251461
1,519,410056,97.14506116870325,1600,0.568953504730016,0.024145584682911603,10,410056,1000000,7.458605563640594,7.457531653940678,7.451274276375771
1,520,411656,72.97668757522479,1600,0.42526090737781486,0.02412252222439311,10,411656,1000000,7.528521911501884,7.527271009683609,7.524633537232876
1,521,413256,86.20244322845247,1600,0.49337176433997226,0.024108829622807144,10,413256,1000000,7.600000618100166,7.60011088937521,7.595277633965015
1,522,414856,98.78101415216224,1600,0.4633716705895495,0.02408077385048053,10,414856,1000000,7.672868218123913,7.672849735021591,7.667507054805756
1,523,416456,-37.49579917290248,1600,0.34142272478493396,0.02406476232529821,10,416456,1000000,7.721000874936581,7.721878171265125,7.71866949737072
1,524,418056,74.15602959878743,1600,0.4189406087785028,0.024096481469942865,10,418056,1000000,7.766455047726631,7.767152260541916,7.762735391557217
1,525,419656,57.736858423799276,1600,0.4202411142241908,0.024096241448881384,10,419656,1000000,7.819569751620293,7.821063256859779,7.815776855647564
1,526,421256,92.9576194967376,1600,0.390111397873261,0.024087553779608428,10,421256,1000000,7.868710280954838,7.868672477006912,7.865915486812591
1,527,421392,-113.0147398635745,136,0.26364227895839853,0.024066663294834326,10,421392,1000000,7.911456438211294,7.907503615892851,7.9113238848172704
1,528,422992,-27.492364154662937,1600,0.47418526417866813,0.024053093816469428,10,422992,1000000,7.950335261821746,7.951883939504623,7.947525564730167
1,529,424592,93.3416539374739,1600,0.506125962777296,0.02405668213765067,10,424592,1000000,8.017869160175323,8.019669242799282,8.014356938302518
1,530,425781,-49.327301929704845,1189,0.35598097320535554,0.02404879831963986,10,425781,1000000,8.082268598120091,8.08194402193619,8.079399515006502
1,531,427381,-37.2869185958989,1600,0.4283618349622702,0.024040805957285513,10,427381,1000000,8.10998190164566,8.11311928808689,8.107625236213208
1,532,428981,17.373498771339655,1600,0.3902203879709123,0.02403216709328705,10,428981,1000000,8.25410045683384,8.253701094686985,8.249453910887242
1,533,429892,-31.655128232203424,911,0.47291512780075706,0.024031424384879235,10,429892,1000000,8.226923654367635,8.227467209952218,8.222719122289302
1,534,431492,-2.362927804235369,1600,0.5492595423356397,0.0240135809025382,10,431492,1000000,8.267710345685481,8.266945201456547,8.263814621567725
1,535,433092,-27.879139348631725,1600,0.43901124449505,0.024025918071763453,10,433092,1000000,8.293510457575321,8.29388529896736,8.289879613220691
1,536,434692,-17.349457915057428,1600,0.45031143848900684,0.02402459859984609,10,434692,1000000,8.308004451692105,8.31016794860363,8.305583062469958
1,537,434833,-107.56088313739747,141,0.5071955934166908,0.024016985634482978,10,434833,1000000,8.256096836498806,8.258833360671996,8.25120712348393
1,538,436433,-25.41911258653272,1600,0.39082738823606633,0.023995711961574632,10,436433,1000000,8.296319118142128,8.29557999074459,8.293073008060455
1,539,438033,-36.59586014272645,1600,0.5432521341141546,0.02399906821801081,10,438033,1000000,8.304117229580879,8.304267118573188,8.298860303461552
1,540,438352,-117.63118673954159,319,0.4904634616127418,0.023995142462943674,10,438352,1000000,8.334896572174564,8.329832638463666,8.327638015439433
1,541,439952,134.29731142753735,1600,0.674716126700514,0.023968633259806166,10,439952,1000000,8.384184677302837,8.384395574331284,8.379440216124058
1,542,441552,130.86050567369966,1600,0.6250634957657895,0.023960656182046115,10,441552,1000000,8.41831520229578,8.41990399837494,8.415340876281261
1,543,443152,135.85133990983013,1600,0.5153592063090764,0.023963985294903133,10,443152,1000000,8.432098637223243,8.430497705638409,8.42839744389057
1,544,444752,116.77331961633172,1600,0.5997055458312388,0.023968646841275424,10,444752,1000000,8.465812456607818,8.467975831329822,8.461076012849809
1,545,446175,46.88271268643439,1423,0.5401919261047381,0.02396875825533481,10,446175,1000000,8.520077179855024,8.519470133915753,8.5161856590862
1,546,447775,118.95653949631378,1600,0.40541566217085345,0.023971563358454358,10,447775,1000000,8.586710455715655,8.58479340851307,8.582843571007253
1,547,449375,114.64879988180473,1600,0.41527239270450084,0.023960237723388445,10,449375,1000000,8.581128348708154,8.580890336036681,8.577227814793586
1,548,450975,115.87965778610669,1600,0.4681590021419106,0.023964151321270867,10,450975,1000000,8.563632836639881,8.5649023103714,8.559773834645748
1,549,452146,-22.26085446611978,1171,0.43015845808495057,0.023957035828437483,10,452146,1000000,8.575839026361448,8.575653885164831,8.57329511764722
1,550,452251,-92.11000845208764,105,0.2627414918504655,0.023962764806831703,10,452251,1000000,8.60485641002655,8.610162935256959,8.610886306762696
1,551,452372,-91.7869236394763,121,0.359106293747512,0.023941556331671693,10,452372,1000000,8.592848873138427,8.590492109457651,8.587293128172556
1,552,452940,-55.19807886052877,568,0.5655288608378863,0.02391497411513397,10,452940,1000000,8.506333057369504,8.504639533587865,8.501106874431883
1,553,453343,-56.01243608351797,403,0.2800769031839445,0.023887793844646826,10,453343,1000000,8.506006566286088,8.50694700717926,8.505402369499206
1,554,453523,-84.05935444240458,180,0.49745561649195025,0.023875932946885375,10,453523,1000000,8.489558090103998,8.489582310782538,8.483935811784532
1,555,454100,-75.0750913892407,577,0.6041921073276746,0.023852415312394997,10,454100,1000000,8.476313749112581,8.477705302154808,8.471674919128418
1,556,454302,-63.90278561133891,202,0.2512676098244265,0.023821456208376873,10,454302,1000000,8.435801429748535,8.43125423669815,8.427491750717163
1,557,455250,-51.65334924077615,948,0.46247109052863844,0.023796817027970346,10,455250,1000000,8.475880848600509,8.471917980275256,8.470747221277115
1,558,456850,82.5837010089308,1600,0.6178697448357707,0.023787820761877364,10,456850,1000000,8.411641299724579,8.411628241539,8.407390426099301
1,559,458450,120.83731868863106,1600,0.4116468149999855,0.023781543696766945,10,458450,1000000,8.375222864151,8.37563564747572,8.372644370496273
1,560,460050,101.83428522502072,1600,0.48554904422955586,0.023770282636960235,10,460050,1000000,8.361689757406712,8.362525433599949,8.359182933568954
1,561,460324,-79.57541841175407,274,0.39362659635436203,0.02377005067524906,10,460324,1000000,8.338887965237653,8.333102540616636,8.337095016903348
1,562,461924,120.2144000059925,1600,0.40715037027664946,0.02374246266432601,10,461924,1000000,8.282594150602817,8.2808902785182,8.280155649781227
1,563,462075,-92.02724018739536,151,0.48539462555199864,0.02373735714199246,10,462075,1000000,8.24121625582377,8.245374066034953,8.241168607076009
1,564,462242,-97.63490220997483,167,0.32767693544737997,0.02370512103816771,10,462242,1000000,8.301619765162467,8.30469046831131,8.303410995006562
1,565,463842,72.50427357642911,1600,0.4730936229613144,0.023679835866046304,10,463842,1000000,8.244741704165936,8.244621434807778,8.243020542263984
1,566,465442,139.63313372118864,1600,0.4307569490582682,0.02368299957788547,10,465442,1000000,8.181269046664237,8.180159640908242,8.178095307648181
1,567,467042,136.0878216152778,1600,0.4315359406452626,0.02367659297156676,10,467042,1000000,8.230452526807785,8.232189804911613,8.229320966303348
1,568,468642,143.29241686011665,1600,0.4205100881966064,0.023677395108429585,10,468642,1000000,8.174660125374794,8.175391433238984,8.17226112753153
1,569,470242,134.32129756604263,1600,0.375450273466995,0.023659549283240336,10,470242,1000000,8.138596715927124,8.137273640930653,8.136548352837563
1,570,471842,141.5468398486264,1600,0.3986271656368626,0.02364784815218827,10,471842,1000000,8.123524678945541,8.123375608623029,8.120832166075706
1,571,473442,135.04906500026118,1600,0.45977970280509906,0.02362353846061551,10,473442,1000000,8.112277152836322,8.113086898922921,8.111061592400073
1,572,475042,120.02735662693158,1600,0.42333948175248226,0.023610702668097894,10,475042,1000000,8.090909942090512,8.091729820370674,8.090052781701088
1,573,476142,-20.01431608432904,1100,0.41595801418562506,0.02359227364171574,10,476142,1000000,8.073502707047895,8.07428987979889,8.071153282252226
1,574,477742,130.79674658272415,1600,0.3522711168328533,0.023575428813683883,10,477742,1000000,8.039870444834232,8.039261458218098,8.038337624967099
1,575,478117,-63.768807550892234,375,0.2609142486962515,0.023567433820198255,10,478117,1000000,8.050813297323279,8.051605446274216,8.052084493637086
1,576,478265,-96.65249178698286,148,0.3326400541035192,0.023547952659221934,10,478265,1000000,8.114887980052403,8.116944095066616,8.110729963438851
1,577,479865,152.87912734944257,1600,0.6722098613966955,0.023514977189181087,10,479865,1000000,8.034976843893528,8.035536352097989,8.030915405750275
1,578,481011,6.206036871764809,1146,0.5426635835809928,0.023506958885910204,10,481011,1000000,8.028144877417045,8.029580064405474,8.025934428499456
1,579,482068,-28.22531870706007,1057,0.6243685331887433,0.023493349157871508,10,482068,1000000,8.01510800089155,8.01445411682129,8.012201099395751
1,580,482543,-56.104637815617025,475,0.7165028273345942,0.023471482317801714,10,482543,1000000,8.043788156103581,8.04378067178929,8.03705686508341
1,581,482678,-88.14441688731313,135,0.7691242992591399,0.023447331849660958,10,482678,1000000,8.057879814734825,8.06344333428603,8.052738857269286
1,582,482724,-108.33242589980364,46,1.329716145596467,0.023429497378778658,10,482724,1000000,8.07218896150589,8.05187737941742,8.03043191432953
1,583,484324,171.22629262204282,1600,0.6013868903164985,0.023402788780800914,10,484324,1000000,8.042737797498702,8.0411793166399,8.038699218928814
1,584,484471,-95.56294323410839,147,0.4689693436558757,0.023394692175861244,10,484471,1000000,8.102634521893092,8.111374126161849,8.102091530391148
1,585,486071,129.25887636025436,1600,0.6016762023587944,0.023366295722384765,10,486071,1000000,8.015853044986725,8.01631783515215,8.012919580042363
1,586,487671,126.9919536577072,1600,0.6527088778512552,0.02335157163930559,10,487671,1000000,7.990257051289081,7.989759336709977,7.984609808921814
1,587,489027,22.192944097332656,1356,0.5250671002448157,0.023348776259686517,10,489027,1000000,7.979205405977037,7.977689169777764,7.974665783776177
1,588,489092,-104.15103153977543,65,0.44491652011250454,0.02333165264117936,10,489092,1000000,8.15478010972341,8.15195848941803,8.145484240849813
1,589,490692,148.93419198109768,1600,0.4962358743645018,0.02330647099951695,10,490692,1000000,7.994884159862995,7.997451131939888,7.992579781711101
1,590,492292,143.2300014940556,1600,0.4722106499329675,0.023294059426355887,10,492292,1000000,7.981646335422993,7.981246051192284,7.978850415349006
1,591,493892,128.5049774242798,1600,0.3769194435724057,0.023274744745724267,10,493892,1000000,7.9481037855148315,7.948389905691147,7.947436697781086
1,592,495390,63.17918229452334,1498,0.4453534646866055,0.023250708781364298,10,495390,1000000,7.992587954565983,7.992242260427283,7.98892336627781
1,593,496990,160.59002733323723,1600,0.4559348332916852,0.023245560624424132,10,496990,1000000,7.96701088398695,7.9666560763120655,7.963342033326626
1,594,498590,152.4595630094409,1600,0.4873876960063353,0.02322107019923626,10,498590,1000000,8.02999050706625,8.031419251263141,8.027583117485046
1,595,500190,126.29731889581308,1600,0.46800101913802794,0.023201851813995436,10,500190,1000000,8.02513398885727,8.026729190051556,8.023049137592317
1,596,501790,132.46817115694284,1600,0.47999987928254995,0.023176732776681145,10,501790,1000000,8.069618010818958,8.07099556595087,8.066695204973222
1,597,501840,-106.82813285663724,50,0.4122468484938145,0.023163697850212557,10,501840,1000000,8.263608474731445,8.26494309425354,8.25643012046814
1,598,503440,125.12037596991286,1600,0.463759171362035,0.023139412946473224,10,503440,1000000,8.188913910090923,8.18941881865263,8.187265195846557
1,599,505040,144.4305376475677,1600,0.5034185372828506,0.02311931221688115,10,505040,1000000,8.234343706965447,8.233863183259963,8.2320513433218
1,600,506640,138.49497772566974,1600,0.45923181846213995,0.023106233656130595,10,506640,1000000,8.254629677832126,8.254591488838196,8.252194559276104
1,601,508240,141.18800196703523,1600,0.44200439449516127,0.023080490329876198,10,508240,1000000,8.260870293080806,8.261100056171417,8.258145481944084
1,602,509840,113.71043726243079,1600,0.5524951999401674,0.02306332967515431,10,509840,1000000,8.278731660544873,8.277346150577069,8.275811625123024
1,603,511440,134.1870270674117,1600,0.5984480719373095,0.02302705245324835,10,511440,1000000,8.286230094730854,8.286053126454354,8.2827600517869
1,604,513040,97.12863086163998,1600,0.5155759085481987,0.02301721973162803,10,513040,1000000,8.255531623065473,8.25644132077694,8.253069199323654
1,605,514640,117.32291537802666,1600,0.4892086299409857,0.022994852335553515,10,514640,1000000,8.301454582214355,8.302376582026481,8.29932395130396
1,606,516240,127.09405783377588,1600,0.571626644738135,0.02297353048912353,10,516240,1000000,8.353731223046779,8.353690313994884,8.350236293077469
1,607,517840,128.82436049636453,1600,0.5236961716914084,0.022956852992829034,10,517840,1000000,8.40604475259781,8.406321859657764,8.40316305309534
1,608,518103,-95.65086875110865,263,0.731577405333519,0.02295005760320511,10,518103,1000000,8.426010592167193,8.422714053667509,8.417926318828876
1,609,519703,152.2652374296449,1600,0.6011987956153462,0.02293523682527211,10,519703,1000000,8.525266030728817,8.526469612717628,8.522155649960041
1,610,521303,132.253854339011,1600,0.5490779219346587,0.022922936777732595,10,521303,1000000,8.586470116376876,8.586977151930332,8.582809815108776
1,611,522030,-32.38776347367093,727,0.46344327805951857,0.022910069722832275,10,522030,1000000,8.597422514359156,8.595624515745374,8.594100430938933
1,612,523630,137.99930104101077,1600,0.6555066983576399,0.022890526600649774,10,523630,1000000,8.631756301820278,8.632143109142781,8.626256957352162
1,613,525230,151.87972958525643,1600,0.6490752395062009,0.02288602235498546,10,525230,1000000,8.64455219745636,8.646340802907943,8.639900560379028
1,614,526830,148.90365828759968,1600,0.6543054397433298,0.022886008260398983,10,526830,1000000,8.6285817694664,8.629835666418076,8.626668252050877
1,615,527775,14.822544704191387,945,0.5473995935488889,0.022872690488153467,10,527775,1000000,8.60511592043207,8.604786049558761,8.59949585123265
1,616,529375,137.45850691571832,1600,0.6236497826199048,0.022864588000725026,10,529375,1000000,8.544385793805123,8.544483245015144,8.54092008382082
1,617,530468,33.49836569931358,1093,0.39793569008144763,0.02286072742344727,10,530468,1000000,8.551964574778845,8.549447690456285,8.548644075043704
1,618,530940,-57.48815472610295,472,0.45064506702164703,0.022856784913990947,10,530940,1000000,8.471744680404663,8.47365060258419,8.469674059685241
1,619,532540,169.15826337412,1600,0.5231788006139686,0.022832532183430856,10,532540,1000000,8.544718951284885,8.544426750838756,8.541078432798386
1,620,534140,201.38284603809007,1600,0.3720097027707379,0.022847041948907413,10,534140,1000000,8.495387562215328,8.49653543651104,8.493504775464535
1,621,534968,75.20284908358008,828,0.40058478292350364,0.02286896334702703,10,534968,1000000,8.485361453963488,8.48484846557059,8.484630334086534
1,622,535695,37.58199923182838,727,0.37467760670309264,0.02286761117707067,10,535695,1000000,8.504605631695853,8.505440937148201,8.50219239062733
1,623,536365,13.900558893568814,670,0.39897726690674673,0.02287398551108756,10,536365,1000000,8.497659710272035,8.495522977345026,8.493724329791853
1,624,536664,-60.43601076910272,299,0.4818900236057053,0.02285696767605456,10,536664,1000000,8.468310916834865,8.47146283840311,8.466367683739497
1,625,536764,-104.79080816172063,100,0.2521014857944101,0.02283695981362076,10,536764,1000000,8.468768472671508,8.463314909934997,8.466200571060181
1,626,537618,47.494548527756706,854,0.44547603151487075,0.022817013891527557,10,537618,1000000,8.415171213711009,8.415955039192648,8.412863507551306
1,627,539218,262.20461482787505,1600,0.49316878301324324,0.022828002022579313,10,539218,1000000,8.386641052663327,8.385303879082203,8.382653057575226
1,628,540818,241.7693349159381,1600,0.5646756236330839,0.022849018570099376,10,540818,1000000,8.408622331619263,8.408140770494938,8.406650598943234
1,629,542383,264.7731724209152,1565,0.420942980545358,0.02286957448176132,10,542383,1000000,8.428432406523289,8.429835929626073,8.427454841748261
1,630,543977,261.9099262896925,1594,0.4235521498101078,0.022880222477595743,10,543977,1000000,8.442500296478752,8.4415912607181,8.439977294394055
1,631,544131,-89.49755525588989,154,0.8052394093448917,0.022905336169038396,10,544131,1000000,8.357904815673828,8.361051069895426,8.355633351008096
1,632,545403,280.47112275043037,1272,0.7392328656241884,0.02288907993877051,10,545403,1000000,8.511718540867482,8.512290327567754,8.506862236007931
1,633,545562,-86.17107982560992,159,0.31479696338375407,0.022895141006367213,10,545562,1000000,8.53211122194926,8.528893175125122,8.532678998311361
1,634,547024,267.03338052425534,1462,0.6183936588517199,0.022874454753122317,10,547024,1000000,8.596221762487334,8.593596178211579,8.590446116826305
1,635,547143,-113.20566842274275,119,0.6318740148097277,0.02289365909112322,10,547143,1000000,8.624065095728094,8.623320397463711,8.620272319967096
1,636,547451,-48.45356205292046,308,0.5264549604834368,0.02286719269806473,10,547451,1000000,8.554952271779378,8.550642066001892,8.55351951599121
1,637,548104,17.943451361730695,653,0.5268394142117064,0.02285926750169078,10,548104,1000000,8.576297975686881,8.57525271342351,8.572445014806894
1,638,548303,-98.56549094058573,199,0.7189502246285739,0.02286074151626173,10,548303,1000000,8.612408437226948,8.609592126545154,8.603624326304386
1,639,549607,277.8549318984151,1304,0.541755787181453,0.022831394134990367,10,549607,1000000,8.600701503020067,8.599892053237328,8.597021573506868
1,640,549963,-32.803740340750664,356,0.4825793567193406,0.02284068627289921,10,549963,1000000,8.620192728042603,8.623134444100517,8.61943846157619
1,641,551505,264.68067542952485,1542,0.5400549720591781,0.022831324251278456,10,551505,1000000,8.633112042910092,8.634670848041386,8.629421211217904
1,642,551936,-16.351251039654016,431,0.3069240921198629,0.02284335258397519,10,551936,1000000,8.673009889070379,8.67215622081313,8.671551800883094
1,643,552522,-1.3825363381765783,586,0.7742457771577455,0.022828957887859432,10,552522,1000000,8.715260268901957,8.71329231262207,8.70898006291225
1,644,552986,-26.818724649958313,464,0.5056408383843044,0.022825670791407234,10,552986,1000000,8.723848967966825,8.722810665420864,8.717911466308262
1,645,553559,9.3932393216528,573,0.5692208213372189,0.02281414831330264,10,553559,1000000,8.72965904369689,8.729818863617746,8.726114250484265
1,646,553868,-53.34821995161474,309,0.39210725309948125,0.022807145679833076,10,553868,1000000,8.766516984303792,8.765768583615621,8.767288254102072
1,647,554234,-62.96143984142691,366,0.5183214379526261,0.022796932827852955,10,554234,1000000,8.784791911972894,8.783517207039727,8.779002847936418
1,648,554827,-26.722822109702975,593,0.6091607159650806,0.022780461928641364,10,554827,1000000,8.78391290519197,8.783562768515894,8.777874591795065
1,649,555013,-100.30197824165225,186,0.278069044670297,0.02277857299353724,10,555013,1000000,8.768495445781284,8.773894148402745,8.767115010155571
1,650,556195,108.06945826485753,1182,0.5342254951304235,0.022760237418865466,10,556195,1000000,8.81925775641102,8.815963651366152,8.81467418832294
1,651,556990,58.50836691400036,795,0.5565306798543168,0.022765730318177132,10,556990,1000000,8.872450693951377,8.875059212310404,8.87143706068208
1,652,557148,-84.25486097391695,158,0.43181423739840585,0.02276672922348839,10,557148,1000000,8.927197802861532,8.92376911799113,8.923560609817505
1,653,557728,10.083333977498114,580,0.38041717442844447,0.02274534027859701,10,557728,1000000,8.964005163620259,8.96783352884753,8.965605265518715
1,654,558039,-47.30559999495745,311,0.4215202231110344,0.022742475287342814,10,558039,1000000,9.010203358434861,9.007709063253095,9.008197267593877
1,655,558155,-98.69403181783855,116,0.40591962566091255,0.022726670220518205,10,558155,1000000,8.962468025901101,8.963319245251743,8.96486185247248
1,656,558792,-1.40228376025334,637,0.5012727240499641,0.02271308922815487,10,558792,1000000,9.068227124592614,9.06576847803025,9.062853240209913
1,657,559216,-30.41353877261281,424,0.38039569348274244,0.02270591654457673,10,559216,1000000,9.096623492240905,9.092957714625767,9.092370412463234
1,658,559434,-81.10735125420615,218,0.3573764597198793,0.022700385234156063,10,559434,1000000,9.128705717268444,9.130369565600441,9.124238922482444
1,659,559651,-80.63876209501177,217,0.4364348142008696,0.022683821402370793,10,559651,1000000,9.119187934058052,9.119767282122657,9.115396476927257
1,660,560310,-26.908159531652927,659,0.6381163979407687,0.02267231465186373,10,560310,1000000,9.130803743509146,9.129319372177124,9.12568396788377
1,661,561660,273.9841176914051,1350,0.5037448294302104,0.022663607045362258,10,561660,1000000,9.200406297047932,9.201945784533466,9.198543914512351
1,662,562315,21.6632850789465,655,0.4308719113469124,0.022678195587160478,10,562315,1000000,9.26810039153466,9.266487602820764,9.265955712245061
1,663,562424,-98.56805127486587,109,1.1180872289277612,0.022672741313006346,10,562424,1000000,9.201361227035523,9.201551594734191,9.186696944236756
1,664,562565,-89.91890913527459,141,0.5809897655887263,0.022655820691506828,10,562565,1000000,9.327354907989502,9.325806157929557,9.324800263132367
1,665,562634,-104.08756526373327,69,0.3479042406193912,0.022645058303262047,10,562634,1000000,9.224319505691529,9.227320679028828,9.218557596206665
1,666,563976,276.305689384375,1342,0.6159253969044883,0.02262724806926099,10,563976,1000000,9.32513897632485,9.323046618077292,9.318854024517002
1,667,564889,116.0335664106533,913,0.4844952175762136,0.022630018657525723,10,564889,1000000,9.40736356148353,9.406471142402062,9.404660576516456
1,668,565766,72.17791834287345,877,0.5158856800639595,0.022617561598898026,10,565766,1000000,9.418241068960606,9.418832741112544,9.4151167814759
1,669,565881,-90.33869454590604,115,0.4172379655932838,0.022613212975531503,10,565881,1000000,9.549922977794301,9.545146868445656,9.54612981189381
1,670,566481,24.180440885946155,600,0.4301859066650892,0.02259344398489343,10,566481,1000000,9.571194450855256,9.57051349957784,9.56971162557602
1,671,566612,-93.10907815862447,131,0.5254954589387545,0.022584865202581607,10,566612,1000000,9.597761315565842,9.592987599739661,9.585660043129554
1,672,566718,-89.81255760695785,106,0.545510524623096,0.022572434718516787,10,566718,1000000,9.453455305099487,9.455941591262818,9.457124605178834
1,673,567431,46.967713915742934,713,0.43135351096345503,0.022552614836525865,10,567431,1000000,9.606768663836197,9.607123718127399,9.606021008692997
1,674,568084,42.593592000193894,653,0.46948051900244675,0.02255063612203458,10,568084,1000000,9.591662161166852,9.594018752024724,9.591081757912269
1,675,568636,14.267540061846375,552,0.6245094506815075,0.022542958527795587,10,568636,1000000,9.6237796124545,9.624174151854081,9.623094688762318
1,676,569603,104.73477921402082,967,0.487345848979506,0.022535607433297397,10,569603,1000000,9.712706825633843,9.714625478784244,9.71149557729562
1,677,569705,-89.55753930192441,102,0.43335218852385876,0.022533262998033106,10,569705,1000000,9.726909284591676,9.721161661148072,9.725019044876099
1,678,570130,-23.078103316947818,425,0.5696660204080953,0.022519194372388977,10,570130,1000000,9.711412710235232,9.713892201014927,9.711856434458777
1,679,570496,-32.31741200108081,366,0.44110240716383686,0.022508296418570953,10,570496,1000000,9.733400110403696,9.729470805327098,9.731497491730584
1,680,570633,-78.9631529301405,137,0.7054235063206691,0.02250493930207977,10,570633,1000000,9.75744005716764,9.76169847708482,9.752688451913686
1,681,571852,282.9972479844,1219,0.6305746213648438,0.02248589782571024,10,571852,1000000,9.826279590543637,9.824822289884583,9.81826977256901
1,682,572995,183.39921741373837,1143,0.6159379151543569,0.022491855151697732,10,572995,1000000,9.825506292309678,9.826011510899193,9.821302199363709
1,683,574184,284.6962262792513,1189,0.5134893028318124,0.022494731474798732,10,574184,1000000,9.924181378897973,9.925908414792206,9.92345150810177
1,684,575627,270.6105099413544,1443,0.5866013190728457,0.022491098805174227,10,575627,1000000,10.010276332828735,10.011225640442635,10.00676143169403
1,685,576921,282.4418270215392,1294,0.5938718110886078,0.022499058539161627,10,576921,1000000,10.096781956502634,10.09736959139506,10.0921601724255
1,686,577088,-76.60816597379744,167,0.5458275146549567,0.022503886328336886,10,577088,1000000,10.18293542265892,10.181098520755768,10.17723526954651
