seo-minseok/DOB-RL/cycles/Cycle_5/results/mbrl_real_ratio=0.2/seed_2_progress.csv
seed,episode,total_steps,reward,episode_length,td_loss_avg,model_loss_avg,horizon_length,real_buffer_size,model_buffer_size,q1_avg,q2_avg,target_q_avg,model_pred_error_avg,model_err_hull_angle,model_err_hull_angvel,model_err_vel_x,model_err_vel_y,model_err_hip1_angle,model_err_hip1_speed,model_err_knee1_angle,model_err_knee1_speed,model_err_left_contact,model_err_hip2_angle,model_err_hip2_speed,model_err_knee2_angle,model_err_knee2_speed,model_err_right_contact
2,1,98,-119.97200886532664,98,nan,nan,0,98,0,nan,nan,nan,nan,nan,nan,nan,nan,nan,nan,nan,nan,nan,nan,nan,nan,nan,nan
2,2,170,-116.4265509173274,72,nan,nan,0,170,0,nan,nan,nan,nan,nan,nan,nan,nan,nan,nan,nan,nan,nan,nan,nan,nan,nan,nan
2,3,1770,-78.36595011793543,1600,nan,nan,0,1770,0,nan,nan,nan,nan,nan,nan,nan,nan,nan,nan,nan,nan,nan,nan,nan,nan,nan,nan
2,4,3370,-80.0104235955514,1600,nan,nan,0,3370,0,nan,nan,nan,nan,nan,nan,nan,nan,nan,nan,nan,nan,nan,nan,nan,nan,nan,nan
2,5,3416,-105.15424276515841,46,nan,nan,0,3416,0,nan,nan,nan,nan,nan,nan,nan,nan,nan,nan,nan,nan,nan,nan,nan,nan,nan,nan
2,6,3563,-119.24040163028985,147,nan,nan,0,3563,0,nan,nan,nan,nan,nan,nan,nan,nan,nan,nan,nan,nan,nan,nan,nan,nan,nan,nan
2,7,3613,-109.1666829129681,50,nan,nan,0,3613,0,nan,nan,nan,nan,nan,nan,nan,nan,nan,nan,nan,nan,nan,nan,nan,nan,nan,nan
2,8,5213,-80.23200062839896,1600,nan,nan,0,5213,0,nan,nan,nan,nan,nan,nan,nan,nan,nan,nan,nan,nan,nan,nan,nan,nan,nan,nan
2,9,6813,-90.26540268887766,1600,nan,nan,0,6813,0,nan,nan,nan,nan,nan,nan,nan,nan,nan,nan,nan,nan,nan,nan,nan,nan,nan,nan
2,10,6885,-116.72572558559477,72,nan,nan,0,6885,0,nan,nan,nan,nan,nan,nan,nan,nan,nan,nan,nan,nan,nan,nan,nan,nan,nan,nan
2,11,7013,-121.17888718191534,128,nan,nan,0,7013,0,nan,nan,nan,nan,nan,nan,nan,nan,nan,nan,nan,nan,nan,nan,nan,nan,nan,nan
2,12,7092,-107.85390379745513,79,nan,nan,0,7092,0,nan,nan,nan,nan,nan,nan,nan,nan,nan,nan,nan,nan,nan,nan,nan,nan,nan,nan
2,13,7153,-101.68870605994016,61,nan,nan,0,7153,0,nan,nan,nan,nan,nan,nan,nan,nan,nan,nan,nan,nan,nan,nan,nan,nan,nan,nan
2,14,8753,-76.95703666773625,1600,nan,nan,0,8753,0,nan,nan,nan,nan,nan,nan,nan,nan,nan,nan,nan,nan,nan,nan,nan,nan,nan,nan
2,15,8845,-100.32012711558491,92,nan,nan,0,8845,0,nan,nan,nan,nan,nan,nan,nan,nan,nan,nan,nan,nan,nan,nan,nan,nan,nan,nan
2,16,8929,-105.15425823163241,84,nan,nan,0,8929,0,nan,nan,nan,nan,nan,nan,nan,nan,nan,nan,nan,nan,nan,nan,nan,nan,nan,nan
2,17,9013,-99.73966053500772,84,nan,nan,0,9013,0,nan,nan,nan,nan,nan,nan,nan,nan,nan,nan,nan,nan,nan,nan,nan,nan,nan,nan
2,18,10205,-168.11021354072727,1192,12.734860317058684,nan,0,10205,0,-0.1936478327782381,-0.19384066356079918,-0.2696530151580061,nan,nan,nan,nan,nan,nan,nan,nan,nan,nan,nan,nan,nan,nan,nan
2,19,10271,-111.72446398250759,66,121.31926409679775,0.19162566610890577,1,10271,15360,-1.0540593472619852,-1.0438335026303927,-1.3935103577872117,0.7948386128803695,0.03599505126476288,0.019075624644756317,0.0248058270663023,0.0223486740142107,0.03743259608745575,0.11078260838985443,0.08089026808738708,0.4461543560028076,0.06996680796146393,0.07379941642284393,0.09665697813034058,0.05110934376716614,0.3926118314266205,0.24604704976081848
2,20,10350,-101.82638563658111,79,110.85028000431402,0.13024463495860497,1,10350,30720,-1.0534956463745662,-1.0636011498314994,-1.3932807707360813,0.7002116815827568,0.02317902073264122,0.018791990354657173,0.02076224610209465,0.02276134118437767,0.04875747114419937,0.11765606701374054,0.06039319559931755,0.33880195021629333,0.12419202923774719,0.05478813126683235,0.14745880663394928,0.06698483973741531,0.3491959869861603,0.2065342217683792
2,21,10406,-97.78997790347785,56,143.3926598739624,0.09546114372710388,1,10406,46080,-1.4021493232250213,-1.3541219234466553,-1.8369028532505036,0.7953739338332699,0.02548043243587017,0.016983602195978165,0.019792404025793076,0.032579582184553146,0.04429380223155022,0.18928579986095428,0.05676064267754555,0.24140217900276184,0.2551247775554657,0.0465565025806427,0.19526492059230804,0.06854627281427383,0.435494989156723,0.2512780725955963
2,22,10510,-102.34365169191733,104,131.41195556640625,0.08693847527106603,1,10510,61440,-1.6017681431770325,-1.5679657030105592,-1.895832514166832,0.6520057384593365,0.0289847981184721,0.018420003354549408,0.01232823170721531,0.021310020238161087,0.029085708782076836,0.0737394243478775,0.0441100150346756,0.30507582426071167,0.22835005819797516,0.030596327036619186,0.16062681376934052,0.04142392426729202,0.29905328154563904,0.26102694869041443
2,23,10605,-111.1181093165651,95,128.54124410417344,0.08456498283923157,1,10605,76800,-1.9698836194144356,-1.9156644490030077,-2.18357496658961,0.9030129385621927,0.039696890860795975,0.011982289142906666,0.013270982541143894,0.0161321759223938,0.0441456101834774,0.15508846938610077,0.06334798038005829,0.44251760840415955,0.22884902358055115,0.050930168479681015,0.24868375062942505,0.08440808951854706,0.5053995847702026,0.25931793451309204
2,24,10647,-111.86697259545326,42,131.5732053756714,0.08311036493235487,1,10647,92160,-2.2483507215976717,-2.179964065551758,-2.4866597801446915,0.9769774824380875,0.03539532050490379,0.0160977765917778,0.01788470894098282,0.025788137689232826,0.07050563395023346,0.21364037692546844,0.07130125910043716,0.32002729177474976,0.1692516803741455,0.06456051021814346,0.3105316162109375,0.09867359697818756,0.587448000907898,0.30223461985588074
2,25,10701,-100.04279110021889,54,117.26061950683594,0.08196047818273064,1,10701,107520,-2.3088972091674806,-2.2653205752372743,-2.4398091673851012,0.900181711639887,0.03613138571381569,0.01965111307799816,0.01680506393313408,0.024887608364224434,0.05718762427568436,0.2174098640680313,0.06529465317726135,0.4278527796268463,0.22632001340389252,0.042790912091732025,0.2224440574645996,0.07839208841323853,0.43408849835395813,0.26447397470474243
2,26,10819,-111.9844436988933,118,100.61763076348738,0.08089243053663067,1,10819,122880,-2.325554136796431,-2.3056408166885376,-2.5057718103582207,0.9521145909856267,0.016444969922304153,0.019198795780539513,0.015703391283750534,0.020162345841526985,0.04841647669672966,0.24050778150558472,0.07275794446468353,0.5034384727478027,0.2196173518896103,0.038586199283599854,0.18939699232578278,0.06687969714403152,0.48963865637779236,0.27422869205474854
2,27,10941,-105.7919058976695,122,102.8537871837616,0.07986243626191503,1,10941,138240,-2.8593304614226023,-2.843763997157415,-2.9369871735572817,0.9571290312568999,0.01596330851316452,0.014139936305582523,0.016825035214424133,0.02075364626944065,0.04769791290163994,0.25153568387031555,0.08531893044710159,0.5636438727378845,0.25921398401260376,0.037877269089221954,0.22578589618206024,0.05359845981001854,0.35502201318740845,0.24074575304985046
2,28,10991,-109.27224921807647,50,86.24562236785889,0.07901056204286833,1,10991,153600,-2.8847746205329896,-2.8851552295684812,-2.9869987106323244,0.9324571847915649,0.038542475551366806,0.016752200201153755,0.021886998787522316,0.02941160462796688,0.0526895634829998,0.18027263879776,0.1051238551735878,0.4572683274745941,0.2004852145910263,0.05596034973859787,0.22072406113147736,0.08746341615915298,0.5241699814796448,0.27825605869293213
2,29,11083,-118.25321078114212,92,80.04178391562567,0.07825892496676672,1,11083,168960,-2.9803494188520645,-2.9725504212909275,-3.0727234019173517,0.8742959194857143,0.03546068072319031,0.0158747136592865,0.02478608675301075,0.02506854198873043,0.04395599290728569,0.2075205296278,0.08905292302370071,0.5198296904563904,0.17799149453639984,0.040715333074331284,0.17846737802028656,0.05874086543917656,0.3278161883354187,0.2776537537574768
2,30,11117,-111.31706263870001,34,92.04862181345622,0.07740711224402567,1,11117,184320,-3.2854533354441324,-3.296886189778646,-3.5750194867451985,0.8343351220383363,0.04999423772096634,0.024333659559488297,0.018990175798535347,0.031889528036117554,0.058084722608327866,0.26113763451576233,0.12048649787902832,0.3713406026363373,0.18760418891906738,0.048941515386104584,0.2737208604812622,0.07331596314907074,0.3581993877887726,0.27728426456451416
2,31,11184,-112.47213506698608,67,78.40579535166422,0.07677287013493767,1,11184,199680,-3.3109996795654295,-3.3147982994715375,-3.330381488800049,0.9517710297854978,0.027636291459202766,0.019144872203469276,0.017727894708514214,0.025475768372416496,0.051751840859651566,0.2403150498867035,0.07437554746866226,0.2801239788532257,0.24135667085647583,0.049285467714071274,0.2990155518054962,0.08837391436100006,0.6032825708389282,0.25375044345855713
2,32,11227,-114.30227561295033,43,77.3301416873932,0.07617586369431296,1,11227,215040,-3.2274670392274856,-3.225282308459282,-3.299395516514778,0.9264622723409373,0.040851060301065445,0.01943085342645645,0.016079271212220192,0.022488458082079887,0.04493861645460129,0.1768806278705597,0.0795523151755333,0.20341373980045319,0.29324814677238464,0.04082847014069557,0.3352415859699249,0.08529841899871826,0.5849463939666748,0.23882566392421722
2,33,11341,-112.7648835517466,114,75.87042994065719,0.07560699118893276,1,11341,230400,-3.6032606038180264,-3.6062781203876844,-3.6753414717587556,0.8738781928318984,0.019447358325123787,0.019068151712417603,0.008179707452654839,0.0193631574511528,0.030836032703518867,0.17139066755771637,0.03900903835892677,0.12296038120985031,0.27875685691833496,0.03918889909982681,0.3804166316986084,0.07425685226917267,0.5748289227485657,0.23270322382450104
2,34,11425,-121.86064208764583,84,71.75860136151314,0.07487240326449726,1,11425,245760,-3.741714063286781,-3.7386475265026093,-3.8815597593784332,0.8824258818039817,0.02073497697710991,0.021743472665548325,0.013441288843750954,0.020446060225367546,0.038497813045978546,0.2863897979259491,0.05441061034798622,0.27737367153167725,0.31929826736450195,0.029236946254968643,0.2905849516391754,0.06557099521160126,0.39741870760917664,0.24314060807228088
2,35,13025,-71.66321913653519,1600,42.678780237287285,0.07426500384780493,1,13025,261120,-3.4019872304052114,-3.399199706092477,-3.447129254601896,0.5909848867108424,0.011052053421735764,0.0090145543217659,0.006946546025574207,0.012145590968430042,0.023610880598425865,0.15442940592765808,0.0386042594909668,0.27098166942596436,0.28119760751724243,0.01846756972372532,0.17852506041526794,0.01966090127825737,0.1448095291852951,0.1983763873577118
2,36,13219,-123.72702328301966,194,27.745962137924998,0.06768955286343892,1,13219,276480,-2.80890109068469,-2.8000291189865063,-2.814506198230543,0.7686616986785147,0.013048549182713032,0.023359481245279312,0.008149444125592709,0.01013884786516428,0.03935949504375458,0.2863847017288208,0.0952853262424469,0.5486737489700317,0.0762079581618309,0.024280454963445663,0.14355222880840302,0.03202776983380318,0.2542059123516083,0.15738274157047272
2,37,13314,-114.78875711373985,95,27.636356417338053,0.06655446139523406,1,13314,291840,-2.762200473745664,-2.765827202465799,-2.789991005924013,0.6605922478332854,0.018926145508885384,0.01730923354625702,0.009684119373559952,0.015512571670114994,0.03439329192042351,0.21970176696777344,0.08540014922618866,0.379107266664505,0.04972905293107033,0.024408595636487007,0.1660710871219635,0.03730415552854538,0.23724037408828735,0.19926457107067108
2,38,13477,-118.6892143720761,163,25.071726320683958,0.06569655287819795,1,13477,307200,-2.8162282071076334,-2.812268942594528,-2.8470574278384446,0.685203184745063,0.01758129894733429,0.015822554007172585,0.010578606277704239,0.014899701811373234,0.03241950646042824,0.21149636805057526,0.0692138820886612,0.3822774291038513,0.12234009057283401,0.014664385467767715,0.15573234856128693,0.04713859781622887,0.31644508242607117,0.19376599788665771
2,39,13569,-117.71877598785795,92,23.543258402082657,0.06485583684765375,1,13569,322560,-3.011602687835693,-3.023507265249888,-3.035497642887963,0.7256474278975225,0.014642906375229359,0.013423971831798553,0.009965356439352036,0.021198714151978493,0.035861290991306305,0.2694410979747772,0.05164945498108864,0.3327288329601288,0.29209640622138977,0.016417697072029114,0.17155706882476807,0.040967464447021484,0.26224058866500854,0.22607892751693726
2,40,13689,-117.69030464813113,120,21.991532172759374,0.06422501616414238,2,13689,353280,-3.0718987067540486,-3.0555004864931106,-3.131828620036443,0.8348314810958174,0.02195340394973755,0.016798874363303185,0.014921422116458416,0.021982576698064804,0.03870931640267372,0.2674630582332611,0.06288392096757889,0.3593616187572479,0.2598615288734436,0.03461051732301712,0.2505231201648712,0.05081821605563164,0.3531932234764099,0.21669088304042816
2,41,13744,-101.53275321424007,55,22.54087040424347,0.06372401314617702,2,13744,384000,-2.9201465106010436,-2.921760803461075,-3.0039230406284334,0.8183776620662574,0.02528940513730049,0.017342599108815193,0.013476889580488205,0.02357526868581772,0.037756871432065964,0.27238568663597107,0.06916100531816483,0.38133564591407776,0.13421380519866943,0.032783232629299164,0.21523983776569366,0.05482742562890053,0.36164000630378723,0.29845958948135376
2,42,13866,-94.19664043467492,122,20.505745583772658,0.06333669608212866,2,13866,414720,-3.375460689266523,-3.3790749137600264,-3.417925754189491,0.7642454068517425,0.016646940261125565,0.015560546889901161,0.01168427336961031,0.017390727996826172,0.03170476853847504,0.2098304033279419,0.0485730841755867,0.3057824671268463,0.1457303911447525,0.02921171672642231,0.2232273519039154,0.05424259975552559,0.3519718647003174,0.25853127241134644
2,43,13952,-118.3137126993388,86,17.895660984516145,0.06284053271843328,2,13952,445440,-3.343306817114353,-3.3418188229203225,-3.3817776918411253,0.787305464809255,0.020795591175556183,0.016547570005059242,0.014473117887973785,0.02407105639576912,0.03831181675195694,0.2810056507587433,0.055095113813877106,0.3516460359096527,0.21570037305355072,0.03011099435389042,0.1814311444759369,0.053903862833976746,0.3419587016105652,0.2197565883398056
2,44,14014,-100.79486482683569,62,18.381093668937684,0.06243033986768605,2,14014,476160,-3.549407196044922,-3.5513652741909025,-3.575040656328201,0.8375418711734076,0.02320687659084797,0.018260711804032326,0.014047672040760517,0.024653375148773193,0.03465374931693077,0.23420408368110657,0.07138603925704956,0.40986332297325134,0.19005073606967926,0.029726676642894745,0.2216506451368332,0.05053075775504112,0.33399203419685364,0.26941078901290894
2,45,14072,-100.78338749334216,58,20.47012757778168,0.06203878918823637,2,14072,506880,-3.710189287662506,-3.691985983848572,-3.7750000607967378,0.8111245568798877,0.029057586565613747,0.01957864686846733,0.014176184311509132,0.023646455258131027,0.03686404228210449,0.2538936734199524,0.07088957726955414,0.39299750328063965,0.1630169153213501,0.030189577490091324,0.2444836050271988,0.05430684983730316,0.3249094784259796,0.26132306456565857
2,46,14135,-99.02921574190259,63,19.227984553575517,0.061675654416099006,2,14135,537600,-3.980147167046865,-3.964088362455368,-3.972274363040924,0.8421859200353976,0.022075386717915535,0.01997959613800049,0.014041160233318806,0.023214144632220268,0.036370038986206055,0.24592894315719604,0.06671228259801865,0.38817697763442993,0.17939649522304535,0.028106488287448883,0.21342040598392487,0.054924625903367996,0.3361194133758545,0.31210222840309143
2,47,14206,-105.72496842965484,71,19.3297023500715,0.06132684398329619,2,14206,568320,-3.837239606039865,-3.8449478490012035,-3.894055002076285,0.7603470211577527,0.03527439385652542,0.014211335219442844,0.01140033733099699,0.020404519513249397,0.03602462634444237,0.2581833302974701,0.07008484750986099,0.40895187854766846,0.1839473694562912,0.029730545356869698,0.18030734360218048,0.04686494544148445,0.2480078935623169,0.2738645076751709
2,48,14423,-133.48701822943985,217,18.226509056772503,0.0608964413765705,2,14423,599040,-3.8237751509462083,-3.8282482930592128,-3.8621951171330045,0.761241982838342,0.016143590211868286,0.011973736807703972,0.013052280992269516,0.012864847667515278,0.023008661344647408,0.19408497214317322,0.04820483177900314,0.38397595286369324,0.2631574869155884,0.02055121213197708,0.16354814171791077,0.03582552447915077,0.2894810736179352,0.2563158869743347
2,49,14579,-114.99385965615511,156,16.62293621301651,0.0603417310331549,2,14579,629760,-3.7895837903022764,-3.7816122698783876,-3.809120611747106,0.7972767058537047,0.01756107248365879,0.01564488746225834,0.014847943559288979,0.01980702020227909,0.02272726781666279,0.16930431127548218,0.04723397269845009,0.3259146809577942,0.25171545147895813,0.024539662525057793,0.18837958574295044,0.05329149216413498,0.404093474149704,0.24290744960308075
2,50,14667,-116.6455349009484,88,16.971014615893363,0.059890143409193984,2,14667,660480,-3.8448159217834474,-3.8468768119812013,-3.882059445977211,0.8206197544932365,0.017559947445988655,0.016800211742520332,0.012582776136696339,0.021938785910606384,0.03127824887633324,0.24080142378807068,0.05635440722107887,0.3483774662017822,0.23580074310302734,0.03131623938679695,0.22607974708080292,0.06819970160722733,0.41677772998809814,0.18139995634555817
2,51,14893,-122.66863493714482,226,15.615368947115812,0.05952321220385401,2,14893,691200,-3.8958619425242595,-3.8870160670443012,-3.9450050326910886,0.7426140353215479,0.01844409666955471,0.013677822425961494,0.01466374471783638,0.013658478856086731,0.018543224781751633,0.1502978801727295,0.04985392093658447,0.3862742483615875,0.24119125306606293,0.020516859367489815,0.14785431325435638,0.0431588813662529,0.3055691421031952,0.22800110280513763
2,52,14992,-110.78219742560759,99,14.010624900129105,0.05893261597074311,2,14992,721920,-3.8920545313093395,-3.883169717921151,-3.897414056460063,0.7907737571282016,0.01781216450035572,0.020182089880108833,0.01820860430598259,0.01655157469213009,0.03071916475892067,0.2372990995645523,0.05738538131117821,0.35174471139907837,0.2335353046655655,0.02586972899734974,0.1880166232585907,0.062257178127765656,0.3507203459739685,0.17786835134029388
2,53,15150,-126.14690413908102,158,13.815043454170228,0.05852286469662327,2,15150,752640,-3.7780611435572307,-3.7779091755549112,-3.8212483112017313,0.7295643949433218,0.017997222021222115,0.014621895737946033,0.013528671115636826,0.015413454733788967,0.021490629762411118,0.1793166548013687,0.05157250910997391,0.3688056170940399,0.219176784157753,0.025880614295601845,0.19073738157749176,0.04682449623942375,0.2932426929473877,0.20309363305568695
2,54,16699,-188.54099873057567,1549,12.588677283076496,0.0580451034093644,2,16699,783360,-3.5383270410941794,-3.538048365228362,-3.574481760381491,0.6268070972694334,0.01319226622581482,0.008974644355475903,0.011173290200531483,0.009750819765031338,0.019010262563824654,0.1896175891160965,0.036520764231681824,0.2977801263332367,0.19244493544101715,0.017176542431116104,0.1649690866470337,0.03575954958796501,0.25830382108688354,0.19078867137432098
2,55,17395,-149.9466840608511,696,11.212228749109352,0.05496742014319469,2,17395,814080,-2.824831684473632,-2.8210733294487,-2.85090756756456,0.8242046895626062,0.017279857769608498,0.01618916355073452,0.013761458918452263,0.013757027685642242,0.01972983218729496,0.20002277195453644,0.046056512743234634,0.3591855764389038,0.30940553545951843,0.021249406039714813,0.19406773149967194,0.04691021516919136,0.32511043548583984,0.2507834732532501
2,56,17474,-96.76201158342883,79,10.318719613552094,0.05447495019999309,2,17474,844800,-2.1624401471444537,-2.1631085962057113,-2.1974752328225544,0.8323698422325312,0.009745355695486069,0.017168650403618813,0.011814047582447529,0.01822446659207344,0.03426223620772362,0.28055843710899353,0.07175756245851517,0.5295376777648926,0.1990981101989746,0.023940041661262512,0.1935170590877533,0.041683048009872437,0.24933810532093048,0.13772617280483246
2,57,17647,-128.2341271606274,173,10.739073871163761,0.054113991562204034,2,17647,875520,-2.4044840493622948,-2.3943256254143575,-2.4264406009632,0.8757513425311141,0.01580766960978508,0.014597570523619652,0.014367613941431046,0.014886489138007164,0.030034933239221573,0.26030752062797546,0.06745442748069763,0.4824086129665375,0.2604943513870239,0.032408349215984344,0.2412918210029602,0.05051591992378235,0.3410087823867798,0.17765209078788757
2,58,17694,-105.57410640688613,47,9.871858760714531,0.05378478193911267,2,17694,906240,-2.226014433056116,-2.2364999184384944,-2.264529686421156,0.6792391593574633,0.015589502640068531,0.017562447115778923,0.013181005604565144,0.02243930473923683,0.033368173986673355,0.2197570949792862,0.06007552146911621,0.3560514748096466,0.10775166004896164,0.03144821897149086,0.22818776965141296,0.04448491334915161,0.23461371660232544,0.14762288331985474
2,59,17804,-128.20077165123075,110,10.793887956034053,0.05337247236627311,2,17804,936960,-2.0344554817134686,-2.0476491212167525,-2.0748654255812817,0.8986600901141312,0.013057556934654713,0.015327196568250656,0.014728007838129997,0.014552936889231205,0.03174559772014618,0.26569974422454834,0.06414518505334854,0.4563971161842346,0.24863983690738678,0.03294777870178223,0.24286139011383057,0.054367512464523315,0.358664333820343,0.22251370549201965
2,60,17980,-128.08266879594885,176,11.372669317091212,0.05308239352012026,3,17980,983040,-2.101545074450619,-2.0871456335572636,-2.1255897497648704,0.9613023852703698,0.015299453400075436,0.013886505737900734,0.014212658628821373,0.016104618087410927,0.02904595620930195,0.27065303921699524,0.06075039878487587,0.48532161116600037,0.31051719188690186,0.025681084021925926,0.19740258157253265,0.0578860305249691,0.4064793884754181,0.25702616572380066
2,61,19395,-199.22058808023576,1415,10.278847584191789,0.052945837449459805,3,19395,1000000,-1.8700060856997545,-1.869057253148433,-1.9005051815446388,0.9200187916609649,0.013767707161605358,0.01676373928785324,0.014029287733137608,0.013393549248576164,0.025269294157624245,0.2810908854007721,0.04744468256831169,0.4065193235874176,0.3406326472759247,0.024132438004016876,0.21424178779125214,0.05039136856794357,0.3561488389968872,0.2828483581542969
2,62,19708,-105.00483758869814,313,9.102855265909625,0.05352226784494188,3,19708,1000000,-1.24969819781761,-1.2474211931228638,-1.284622888603518,0.905574940216427,0.017103681340813637,0.015027917921543121,0.014184697531163692,0.016041357070207596,0.026629207655787468,0.2550774812698364,0.0518464595079422,0.38621416687965393,0.3107250928878784,0.025683149695396423,0.24775169789791107,0.05749194696545601,0.44664785265922546,0.1839892566204071
2,63,20044,-137.82336189458147,336,9.958357062484279,0.05322397397667693,3,20044,1000000,-1.0407461381545573,-1.0493530382035356,-1.0809885612039856,0.9147726614323872,0.012325137853622437,0.014171055518090725,0.014471538364887238,0.014987518079578876,0.025188473984599113,0.24957777559757233,0.04284727945923805,0.3324519097805023,0.35836002230644226,0.024266833439469337,0.24450115859508514,0.05900588631629944,0.46952229738235474,0.19964751601219177
2,64,20098,-105.12632790952921,54,9.520427045822144,0.05301520647401484,3,20098,1000000,-1.0018543215095996,-0.983666200041771,-1.027799066901207,0.6848215325563042,0.016211317852139473,0.021187283098697662,0.01796327531337738,0.024246033281087875,0.039115458726882935,0.25343677401542664,0.048618316650390625,0.2565377950668335,0.12729494273662567,0.03750118240714073,0.21669429540634155,0.06080168858170509,0.30592358112335205,0.1740192025899887
2,65,20199,-106.08910813787952,101,9.37007751584053,0.05257682389874234,3,20199,1000000,-0.8884275398403406,-0.8906567036360502,-0.9155195028334856,0.7776917374566836,0.01703321374952793,0.01615431159734726,0.013062327168881893,0.022402780130505562,0.03270956873893738,0.253959059715271,0.04567801579833031,0.29450860619544983,0.14690150320529938,0.034319035708904266,0.2763499915599823,0.05595891922712326,0.37323546409606934,0.19410063326358795
2,66,20317,-125.91343032661825,118,10.58344224691391,0.052188637725308414,3,20317,1000000,-0.5155292869968848,-0.5094239319590005,-0.5470207815143195,0.8154621861748778,0.02363963983952999,0.017615919932723045,0.010418510995805264,0.01727047562599182,0.03336789831519127,0.24766755104064941,0.05322127416729927,0.35233068466186523,0.2174387276172638,0.03304258733987808,0.2564639151096344,0.055638205260038376,0.3648097515106201,0.14028842747211456
2,67,20414,-117.5267384191975,97,8.9658023569319,0.05188306019276003,3,20414,1000000,-0.7708928641345766,-0.7592898426784409,-0.7833944643537204,0.8362117721043091,0.017852358520030975,0.016841068863868713,0.014081115834414959,0.020090848207473755,0.03279464691877365,0.25051355361938477,0.055169977247714996,0.3457390367984772,0.2611512839794159,0.03279700130224228,0.26076996326446533,0.058104801923036575,0.38743332028388977,0.14023317396640778
2,68,20471,-102.68447066098452,57,8.793859767913819,0.051551681351435334,3,20471,1000000,-0.31744704842567445,-0.2962269970774651,-0.34859472543001174,0.7430657735693526,0.03010987490415573,0.01606633886694908,0.014224846847355366,0.022364120930433273,0.030322296544909477,0.22067247331142426,0.05651039257645607,0.3558451235294342,0.131770521402359,0.03202664107084274,0.2239885777235031,0.05838674679398537,0.3360775411128998,0.16216200590133667
2,69,20521,-108.05956071801484,50,9.585983037948608,0.05122736433387306,3,20521,1000000,-0.35711251735687255,-0.3668534827232361,-0.37822562873363497,0.677491198082765,0.019650369882583618,0.018182450905442238,0.013065433129668236,0.02156936377286911,0.03564983978867531,0.21117429435253143,0.04946388304233551,0.3210636377334595,0.14385561645030975,0.03433993458747864,0.2508558928966522,0.05390005186200142,0.27826353907585144,0.09885754436254501
2,70,20594,-113.58972054393962,73,10.894772395065852,0.05089905249265333,3,20594,1000000,-0.2658286847174168,-0.26609690615109033,-0.296049787742751,0.7264170409881905,0.019844401627779007,0.013603070750832558,0.012124506756663322,0.020468326285481453,0.03246259316802025,0.23629885911941528,0.052665505558252335,0.3116719722747803,0.20217591524124146,0.03373069688677788,0.22517786920070648,0.05760965496301651,0.2977239489555359,0.12202157080173492
2,71,20698,-116.06781881581992,104,10.059024629592896,0.05057948855683207,3,20698,1000000,-0.14775239683687688,-0.1515393231064081,-0.17212278187274932,0.8475759580540351,0.01257288921624422,0.014342907816171646,0.013003685511648655,0.020808059722185135,0.028487008064985275,0.26449036598205566,0.04451986029744148,0.3159031867980957,0.31036561727523804,0.02908555418252945,0.2617427110671997,0.06209763139486313,0.4224090874195099,0.12004140019416809
2,72,20826,-92.39325593784451,128,10.095784042278925,0.05033820929316183,3,20826,1000000,0.13732657283544542,0.12384231475492319,0.08959892056882382,0.710805194840456,0.01787402108311653,0.015211260877549648,0.012929599732160568,0.01769712194800377,0.027803467586636543,0.2026919573545456,0.048213500529527664,0.2892402112483978,0.1513603776693344,0.030590824782848358,0.24208088219165802,0.051373664289712906,0.33050814270973206,0.17254683375358582
2,73,20936,-110.7827004151186,110,10.397186841747978,0.05002588343657093,3,20936,1000000,0.33112238347530365,0.3489055575294928,0.3158301434733651,0.644066448464538,0.017734171822667122,0.013658128678798676,0.010646389797329903,0.014485038816928864,0.030020732432603836,0.22867782413959503,0.0389988087117672,0.2545740008354187,0.14001865684986115,0.024939045310020447,0.19835707545280457,0.04399007186293602,0.27920272946357727,0.17416749894618988
2,74,20986,-107.39995504543185,50,11.256489202976226,0.04967736823813906,3,20986,1000000,0.34910431653261187,0.372318155169487,0.3118799643218517,0.8715530705451965,0.01927752047777176,0.013616460375487804,0.011925402097404003,0.02317041903734207,0.034615419805049896,0.2748491168022156,0.04971356689929962,0.36229613423347473,0.3567090332508087,0.028412168845534325,0.20022167265415192,0.06296701729297638,0.37458574771881104,0.10544899106025696
2,75,21151,-105.70754985883832,165,9.693605365604162,0.04946175797118081,3,21151,1000000,0.73684797976166,0.7491532071959227,0.7241475392598659,0.6563386798507035,0.014376956969499588,0.013178150169551373,0.011606399901211262,0.01363214012235403,0.02689102292060852,0.2105531245470047,0.041600216180086136,0.27018776535987854,0.15305322408676147,0.02208508551120758,0.17867884039878845,0.03932439535856247,0.2913320064544678,0.20789004862308502
2,76,21687,-123.95219461945817,536,9.680658155117396,0.0491233154798184,3,21687,1000000,1.1114388262325863,1.121191961107389,1.0854092762155352,0.763945356076259,0.01231496874243021,0.013710424304008484,0.011109983548521996,0.009774026460945606,0.017875706776976585,0.17508819699287415,0.04032854735851288,0.2961222529411316,0.26269686222076416,0.0188756063580513,0.17589791119098663,0.052906617522239685,0.3337869346141815,0.30316075682640076
2,77,22279,-156.4467236485798,592,9.172337378687777,0.04881610335516078,3,22279,1000000,1.7504678153132989,1.7532635392273888,1.7199249187515955,0.9933813812697792,0.015210920013487339,0.017750998958945274,0.013780781999230385,0.015350773930549622,0.03257264569401741,0.30487069487571716,0.05606629326939583,0.43109893798828125,0.35890424251556396,0.024612175300717354,0.2489422708749771,0.0513622872531414,0.3503437936306,0.2922379672527313
2,78,22335,-101.25692811142653,56,8.493545007705688,0.049302905743720433,3,22335,1000000,2.2150186589360237,2.191010599434376,2.183216029405594,0.8234427443572453,0.01599195785820484,0.019680729135870934,0.019022833555936813,0.02461307868361473,0.02991357631981373,0.21512596309185028,0.061449695378541946,0.3507091999053955,0.2257402241230011,0.026585742831230164,0.21216215193271637,0.06444170325994492,0.41520455479621887,0.11985169351100922
2,79,22388,-100.22214294713922,53,11.703452007770538,0.04904621604872846,3,22388,1000000,2.4414876067638396,2.4720194602012633,2.431100158691406,0.7583784965224236,0.014806762337684631,0.017181914299726486,0.020800987258553505,0.024696458131074905,0.027886344119906425,0.21041226387023926,0.06517232209444046,0.35606649518013,0.21818342804908752,0.03280167654156685,0.23151487112045288,0.059956151992082596,0.31647875905036926,0.12744443118572235
2,80,22602,-94.80865654163063,214,9.103198385522479,0.048760966037425045,4,22602,1000000,2.6151840638546715,2.602011659315654,2.57760059343917,0.7581149814795481,0.015666548162698746,0.015697257593274117,0.013531283475458622,0.01797228306531906,0.02415701560676098,0.2186577320098877,0.04874110966920853,0.32052701711654663,0.21838562190532684,0.02317342348396778,0.20466694235801697,0.044898539781570435,0.31571850180625916,0.20055213570594788
2,81,22685,-97.116394280456,83,8.074497582018376,0.048547648892483926,4,22685,1000000,2.921438899636269,2.919588756933808,2.8779330275952817,0.8172591919879836,0.023259621113538742,0.025282541289925575,0.017155751585960388,0.024502161890268326,0.027612103149294853,0.21803517639636993,0.05290757492184639,0.3348037898540497,0.22011327743530273,0.034069426357746124,0.30726176500320435,0.051190461963415146,0.34612032771110535,0.16940027475357056
2,82,23110,-101.08678968576714,425,10.273002038257463,0.04833468926618948,4,23110,1000000,3.250087361995663,3.2448099916889555,3.2216306387668565,0.8146744687533847,0.01516725867986679,0.021232465282082558,0.015896756201982498,0.015602590516209602,0.02586941607296467,0.2676906883716583,0.04456646740436554,0.3056744337081909,0.25846031308174133,0.029154229909181595,0.29825732111930847,0.03573833778500557,0.2703569531440735,0.21230602264404297
2,83,24710,-105.98268363880925,1600,8.493144057542086,0.048262859673963654,4,24710,1000000,4.3870153750292955,4.387191783990711,4.360088058970868,0.8011592911866804,0.011358771473169327,0.015581914223730564,0.014965669251978397,0.011339391581714153,0.025986427441239357,0.2853424549102783,0.03792639449238777,0.2848336696624756,0.22190646827220917,0.023742785677313805,0.23083344101905823,0.039658959954977036,0.2944295108318329,0.2700745761394501
2,84,25715,-174.11898308992386,1005,7.324099138736725,0.04810738014057279,4,25715,1000000,5.436769577026367,5.433919422924519,5.416938002824783,0.9010599311509141,0.015479241497814655,0.017823927104473114,0.016601121053099632,0.015768960118293762,0.026707017794251442,0.2756102681159973,0.034686848521232605,0.2614072859287262,0.21978367865085602,0.028862126171588898,0.2828861474990845,0.05034100264310837,0.4189770221710205,0.29440632462501526
2,85,25821,-128.84033083170652,106,8.090307120084763,0.04863106519232194,4,25821,1000000,5.714205090999603,5.725314016342163,5.701168320178986,0.7286335958062478,0.01739637181162834,0.014966069720685482,0.014357716776430607,0.01565156690776348,0.027062788605690002,0.23486362397670746,0.046753738075494766,0.2806870937347412,0.2209174931049347,0.025695132091641426,0.20811966061592102,0.04709457978606224,0.30572548508644104,0.19473274052143097
2,86,25877,-108.84327516891062,56,8.299305676221847,0.0482397389014562,4,25877,1000000,6.044223752021789,6.067315168380738,6.016760053634644,0.7227021979966334,0.01426747627556324,0.01623171754181385,0.016556771472096443,0.023019913583993912,0.030090248212218285,0.24685850739479065,0.05826129391789436,0.3587389588356018,0.25899478793144226,0.025928301736712456,0.24578772485256195,0.04633467271924019,0.19575747847557068,0.06795331090688705
2,87,25966,-104.57773438189179,89,6.280236307531595,0.0479105409320825,4,25966,1000000,5.912915062904358,5.898368763923645,5.9118973970413204,0.7771609049388085,0.015341480262577534,0.019291246309876442,0.014796966686844826,0.02071094512939453,0.02818315289914608,0.22341996431350708,0.04601280763745308,0.30788251757621765,0.2322666049003601,0.029676606878638268,0.24224995076656342,0.05506298691034317,0.3100315034389496,0.21195930242538452
2,88,26052,-103.94392104074359,86,6.236371429264546,0.047643405612152405,4,26052,1000000,6.266951732337475,6.271444625407457,6.261965474486351,0.7387508312168047,0.015743203461170197,0.018646277487277985,0.016882169991731644,0.019863318651914597,0.03008176013827324,0.2484053522348404,0.051014650613069534,0.3140713572502136,0.18357503414154053,0.029271751642227173,0.2433185577392578,0.04498213529586792,0.2821260988712311,0.15059597790241241
2,89,26116,-101.75128190778196,64,6.35917031566302,0.047365877959299404,4,26116,1000000,6.360520696640014,6.350474882125854,6.348730119069417,0.7801261179459592,0.018485654145479202,0.01616266742348671,0.01714140921831131,0.020339583978056908,0.03011130355298519,0.2412329465150833,0.05301675572991371,0.3394738435745239,0.22070050239562988,0.029674137011170387,0.2550889849662781,0.057862915098667145,0.3375976085662842,0.1202877014875412
2,90,26197,-101.7834864682518,81,9.57188921496272,0.047133235574937336,4,26197,1000000,6.109434312582016,6.10141544342041,6.072175765037537,0.6950746371790214,0.016816003248095512,0.016437653452157974,0.017482496798038483,0.020740630105137825,0.02831125818192959,0.21292033791542053,0.05169423297047615,0.2935718297958374,0.18211141228675842,0.030657153576612473,0.27256715297698975,0.04421952739357948,0.24713066220283508,0.13076967000961304
2,91,26245,-111.01341576501727,48,5.233053693175316,0.04687538740097308,4,26245,1000000,6.825040209293365,6.822965753078461,6.798273348808289,0.5826279628607962,0.014107664115726948,0.01335124671459198,0.011972653679549694,0.028035998344421387,0.028633100911974907,0.19306455552577972,0.06559115648269653,0.34423384070396423,0.14080721139907837,0.024534285068511963,0.17030471563339233,0.04075112193822861,0.15367849171161652,0.05123516917228699
2,92,26301,-110.11858016811311,56,5.62644562125206,0.04660523658240932,4,26301,1000000,6.508258605003357,6.504678168296814,6.475964198112488,0.8202812451691855,0.024353597313165665,0.01583656668663025,0.013046862557530403,0.023549670353531837,0.039003122597932816,0.2959356904029846,0.06104005500674248,0.3730599284172058,0.28460273146629333,0.028212303295731544,0.25699010491371155,0.04955091327428818,0.27050262689590454,0.1292290836572647
2,93,26677,-149.12387088732794,376,6.769262599542334,0.046401468238312434,4,26677,1000000,6.637249913731137,6.643511468655355,6.622150751384529,0.8466058919166631,0.015096924267709255,0.016159284859895706,0.01438629999756813,0.01540902815759182,0.025320125743746758,0.24962785840034485,0.04288618266582489,0.290825754404068,0.22217513620853424,0.02505907416343689,0.2425040751695633,0.051595717668533325,0.3873765766620636,0.2740148901939392
2,94,26725,-108.0374577473849,48,6.129569081962108,0.04644496322203523,4,26725,1000000,6.6584272384643555,6.633570873737336,6.674251681566238,0.836372745844225,0.019695544615387917,0.017435824498534203,0.011837143450975418,0.02391367219388485,0.028881898149847984,0.2654021680355072,0.051585812121629715,0.3324662744998932,0.2470039576292038,0.02740621753036976,0.24830317497253418,0.05720927193760872,0.3385124206542969,0.1818387508392334
2,95,27259,-121.22157830977812,534,6.0138302442600144,0.04625931987538934,4,27259,1000000,6.647730709471793,6.639742078871097,6.619406682590268,0.7398973439405027,0.01298404298722744,0.014723336324095726,0.015406976453959942,0.014530429616570473,0.02257506735622883,0.24486246705055237,0.03530975803732872,0.26416897773742676,0.2300097793340683,0.020956983789801598,0.2139042317867279,0.034673918038606644,0.27617815136909485,0.23831869661808014
2,96,27336,-100.47502677608281,77,6.610146388837269,0.04611515370226881,4,27336,1000000,6.730418859209333,6.724314505713327,6.7391457285199845,0.8513514051189672,0.015251430682837963,0.018649175763130188,0.018150784075260162,0.021149571985006332,0.036592330783605576,0.35784342885017395,0.0415547713637352,0.3064633011817932,0.23210206627845764,0.02590765804052353,0.24991567432880402,0.0484350323677063,0.3366711139678955,0.19454577565193176
2,97,27401,-102.95127033442259,65,4.747725506623586,0.045940788816543496,4,27401,1000000,7.11002782980601,7.120387895901998,7.099404966831207,0.7522306929032007,0.01744501106441021,0.01866370067000389,0.019258560612797737,0.019947079941630363,0.03439968824386597,0.30704718828201294,0.04514021426439285,0.28339800238609314,0.18191595375537872,0.025581546127796173,0.260913223028183,0.04045037552714348,0.2792759835720062,0.17081546783447266
2,98,27460,-100.2947012539953,59,6.36811034977436,0.04572971376628148,4,27460,1000000,7.109879598617554,7.076440362930298,7.013200416564941,0.7588839265754667,0.017372995615005493,0.017124611884355545,0.018475869670510292,0.02058272436261177,0.0360686369240284,0.2765178978443146,0.045834019780159,0.28573328256607056,0.1939021199941635,0.026689356192946434,0.21551471948623657,0.05515721067786217,0.3168419301509857,0.1517287939786911
2,99,27508,-101.10494751483202,48,3.4862901866436005,0.04552692447635243,4,27508,1000000,6.861824083328247,6.861261653900146,6.876841831207275,0.748263535193271,0.020971382036805153,0.017192406579852104,0.018095169216394424,0.02134854346513748,0.03198807314038277,0.24453262984752655,0.055615250021219254,0.34724047780036926,0.2030208259820938,0.030303047969937325,0.23830945789813995,0.04371726140379906,0.23488043248653412,0.13965214788913727
2,100,27556,-103.04681449383497,48,5.439331160485745,0.0453430075070754,5,27556,1000000,7.194219464063645,7.129833787679672,7.175520169734955,0.6929184628857507,0.022058658301830292,0.017042746767401695,0.01761895976960659,0.023875879123806953,0.03253023698925972,0.23647773265838623,0.05354813113808632,0.30244696140289307,0.1746089905500412,0.029024621471762657,0.22121542692184448,0.05258890613913536,0.26308950781822205,0.13741283118724823
2,101,27608,-101.69825562648475,52,6.673349387645722,0.0451149906789031,5,27608,1000000,7.155227608680725,7.168625583648682,7.144933714866638,0.6870642869900435,0.018979497253894806,0.016362855210900307,0.01822694018483162,0.022311387583613396,0.031832195818424225,0.24054694175720215,0.0495171919465065,0.2717798054218292,0.16746626794338226,0.028833555057644844,0.23098793625831604,0.04665224999189377,0.2499128133058548,0.13434189558029175
2,102,27656,-102.10706973448396,48,3.874870828539133,0.04491779997109253,5,27656,1000000,7.33989166021347,7.378009283542633,7.323101592063904,0.6518388122527136,0.02352643944323063,0.01590614765882492,0.018070777878165245,0.02366737090051174,0.028898604214191437,0.2155873328447342,0.05127565562725067,0.27129945158958435,0.1607639044523239,0.02730066142976284,0.2045465111732483,0.04325847700238228,0.2344183474779129,0.12753674387931824
2,103,27707,-100.88678441755474,51,4.471886998414993,0.04472013008953245,5,27707,1000000,7.09545262336731,7.046418981552124,7.070072455406189,0.6488768904427298,0.018726475536823273,0.014684373512864113,0.01840546727180481,0.02067715674638748,0.024612607434391975,0.21569202840328217,0.04866583272814751,0.291660338640213,0.15939807891845703,0.027964619919657707,0.20174473524093628,0.04452008754014969,0.22279822826385498,0.12940622866153717
2,104,27776,-96.97986002266407,69,6.131146115064621,0.04451466434761698,5,27776,1000000,7.54718603293101,7.5478450377782185,7.538949449857076,0.696466006518562,0.012612215243279934,0.016937529668211937,0.015369541011750698,0.020661847665905952,0.032138943672180176,0.2959029972553253,0.04980325326323509,0.2984403073787689,0.18197615444660187,0.023971447721123695,0.19369417428970337,0.043262045830488205,0.23013681173324585,0.1426786631345749
2,105,27823,-100.35428845416754,47,5.07577491402626,0.04434194921481389,5,27823,1000000,7.560854989290237,7.582032060623169,7.548114228248596,0.7113744893395311,0.018061399459838867,0.017525916919112206,0.018693238496780396,0.019204609096050262,0.029740236699581146,0.27987366914749146,0.048208463937044144,0.2748684585094452,0.20063497126102448,0.026889430359005928,0.20667032897472382,0.04412273317575455,0.23462596535682678,0.14258334040641785
2,106,27868,-100.9218891710043,45,4.578511610627174,0.044153081287664396,5,27868,1000000,7.166874063014984,7.1851312696933745,7.174845743179321,0.6585838388513635,0.021031087264418602,0.014572598971426487,0.019347719848155975,0.021471263840794563,0.028239808976650238,0.24885302782058716,0.0475538894534111,0.26414480805397034,0.15842948853969574,0.027388786897063255,0.20180781185626984,0.041704658418893814,0.2023153305053711,0.13872133195400238
2,107,27922,-99.17543565481901,54,5.741582973599434,0.04399767207142748,5,27922,1000000,7.572850041389465,7.549985966682434,7.537524108886719,0.7105763478227604,0.013691073283553123,0.02064014971256256,0.01666739210486412,0.017701206728816032,0.03087734244763851,0.2780739963054657,0.04038551449775696,0.26509612798690796,0.18941251933574677,0.027173252776265144,0.2035161405801773,0.05104562267661095,0.25640541315078735,0.13665734231472015
2,108,27975,-99.04892759211361,53,4.644536812901497,0.04381829847208586,5,27975,1000000,7.454824295043945,7.486582431793213,7.4718726539611815,0.6683037627792958,0.012739019468426704,0.01896863803267479,0.01634545437991619,0.016426896676421165,0.029641522094607353,0.2663833796977997,0.04482744634151459,0.24913200736045837,0.15678374469280243,0.02625635266304016,0.2026519775390625,0.04565414786338806,0.26523858308792114,0.13453476130962372
2,109,28032,-101.38658183440566,57,5.95609178185463,0.04364487246954842,5,28032,1000000,7.390174632072449,7.39145947933197,7.349718036651612,0.6331022808774871,0.017355727031826973,0.015632087364792824,0.016076182946562767,0.019785204902291298,0.026403846219182014,0.2469368427991867,0.043765515089035034,0.22585251927375793,0.14228878915309906,0.023143203929066658,0.17909742891788483,0.04024680703878403,0.24273714423179626,0.13442768156528473
2,110,28084,-102.0643760394305,52,4.050981903076172,0.04346149853610117,5,28084,1000000,7.577298240661621,7.59403395652771,7.57327862739563,0.6218328273449187,0.012703189626336098,0.013887106440961361,0.01597626321017742,0.017825253307819366,0.0208782646805048,0.15825775265693665,0.05131302401423454,0.2448669970035553,0.10882740467786789,0.02679438330233097,0.22413942217826843,0.04633297398686409,0.2569081485271454,0.17517034709453583
2,111,28134,-100.06335882470012,50,6.798346182107926,0.0432865805582169,5,28134,1000000,7.5549354743957515,7.559179229736328,7.51601749420166,0.6891322634617487,0.01545480266213417,0.017930390313267708,0.019260182976722717,0.019994335249066353,0.028213899582624435,0.2541775703430176,0.042473770678043365,0.2310696840286255,0.17364583909511566,0.025337062776088715,0.2144148051738739,0.04989307373762131,0.2727659046649933,0.1697806715965271
2,112,28190,-102.41587619297206,56,7.512867674827576,0.04312916201872563,5,28190,1000000,7.194851117134094,7.192996778488159,7.153945116996765,0.6021150559009542,0.015876423567533493,0.01425341609865427,0.017255453392863274,0.021392086520791054,0.024416327476501465,0.19567988812923431,0.04323265701532364,0.20946206152439117,0.09894926100969315,0.023765433579683304,0.203576922416687,0.04588589444756508,0.2799126207828522,0.12798096239566803
2,113,28240,-103.62762688007206,50,4.137455431222915,0.04296246394740813,5,28240,1000000,7.491557216644287,7.479583120346069,7.475806837081909,0.6594322403271993,0.012690102681517601,0.014066152274608612,0.017469730228185654,0.02213941141963005,0.02103262208402157,0.17692279815673828,0.052269548177719116,0.2227865755558014,0.10497178137302399,0.03063555806875229,0.24207140505313873,0.05295884236693382,0.2839927673339844,0.2014016956090927
2,114,28294,-102.04819174762815,54,5.621934884786606,0.042808142963683966,5,28294,1000000,7.592362718582153,7.584154086112976,7.552106781005859,0.626082614524129,0.01879214309155941,0.015607936307787895,0.01887337677180767,0.018897542729973793,0.023319967091083527,0.20055745542049408,0.05474720522761345,0.29785630106925964,0.15776334702968597,0.019303051754832268,0.15533317625522614,0.044333357363939285,0.24114465713500977,0.10332812368869781
2,115,28359,-100.18060799781233,65,3.989496131738027,0.04263720253426017,5,28359,1000000,7.481709206104279,7.471361223856608,7.469724758466085,0.6604798442278154,0.013583816587924957,0.01502446923404932,0.018364757299423218,0.019125210121273994,0.023486977443099022,0.19250567257404327,0.04449889063835144,0.24169664084911346,0.15978781878948212,0.020412366837263107,0.21686020493507385,0.03713705763220787,0.2632488012313843,0.15712536871433258
2,116,28408,-105.36769312992692,49,4.191544578969479,0.04249938766613151,5,28408,1000000,7.5849492907524105,7.541076791286469,7.547669351100922,0.571800350838778,0.014450292102992535,0.017900725826621056,0.016487324610352516,0.019556201994419098,0.025355368852615356,0.19903431832790375,0.046636760234832764,0.25498273968696594,0.1509753316640854,0.019825482740998268,0.20979537069797516,0.03526155650615692,0.1540658175945282,0.09154051542282104
2,117,28480,-102.62666548090056,72,4.442342940398625,0.04233161116639773,5,28480,1000000,7.491339070456369,7.5085123402731755,7.49881672177996,0.6629369223007449,0.012096047401428223,0.012858965434134007,0.014786887913942337,0.01851491443812847,0.020447028800845146,0.1914498507976532,0.04670959338545799,0.2587529718875885,0.1348399817943573,0.0235157273709774,0.20559898018836975,0.044349461793899536,0.2881356477737427,0.1600075364112854
2,118,28531,-106.18034891784191,51,5.472668162584305,0.042201965027027305,5,28531,1000000,7.738833742141724,7.718023176193237,7.696065177917481,0.5126272687335419,0.016101287677884102,0.012082664296030998,0.010296032764017582,0.02414848282933235,0.02519439533352852,0.15023571252822876,0.04389817267656326,0.210496187210083,0.13957233726978302,0.02489103004336357,0.1713864803314209,0.04124962538480759,0.18620768189430237,0.08488540351390839
2,119,28583,-105.31171759776771,52,7.719938651323319,0.04202077920372422,5,28583,1000000,7.697842044830322,7.704861888885498,7.639807138442993,0.637766148417424,0.014902099035680294,0.01677711121737957,0.01695295050740242,0.0232868492603302,0.026652447879314423,0.20408371090888977,0.04901686683297157,0.273196816444397,0.16684000194072723,0.024445177987217903,0.18874295055866241,0.045096948742866516,0.22418752312660217,0.13370822370052338
2,120,28637,-105.66696551628411,54,5.704102776050568,0.04189501971051142,6,28637,1000000,7.4610326385498045,7.44316180229187,7.4421541881561275,0.5987073516036256,0.016213199123740196,0.014669757336378098,0.015237499959766865,0.02493094466626644,0.02723563089966774,0.19964049756526947,0.04412924498319626,0.24772532284259796,0.16340920329093933,0.02087540179491043,0.1659124493598938,0.04551089182496071,0.22065721452236176,0.12707729637622833
2,121,28685,-107.1145191770047,48,4.919369465857744,0.0417428872271164,6,28685,1000000,7.613049101829529,7.633063805103302,7.605497360229492,0.5156874634946386,0.015778329223394394,0.014042395167052746,0.01574612595140934,0.022210707888007164,0.025005154311656952,0.1755669265985489,0.042555615305900574,0.1743612438440323,0.11154427379369736,0.025178737938404083,0.20530305802822113,0.041335705667734146,0.19840824604034424,0.08540879935026169
2,122,28734,-106.12254608795047,49,6.077270312607288,0.041581539874009435,6,28734,1000000,7.3929957211017605,7.424873644113541,7.410040003061295,0.5559608548068676,0.013327078893780708,0.015561279840767384,0.016838429495692253,0.019544795155525208,0.02512824721634388,0.25283437967300415,0.048451077193021774,0.23760351538658142,0.11429452896118164,0.021957818418741226,0.2068026214838028,0.03426361083984375,0.14890803396701813,0.06260855495929718
2,123,28782,-108.23979508318007,48,4.875080418586731,0.04143437655820023,6,28782,1000000,6.944941914081573,6.858520877361298,6.912976670265198,0.4525233769996298,0.015250946395099163,0.011691856198012829,0.014392748475074768,0.02250000275671482,0.02123454213142395,0.14365850389003754,0.043348997831344604,0.2212439626455307,0.10063230246305466,0.020277954638004303,0.16266947984695435,0.027237465605139732,0.12585008144378662,0.05731574073433876
2,124,28831,-106.80580210778862,49,7.177192884683609,0.041265005673769686,6,28831,1000000,7.085134243965149,7.136349403858185,7.078952610492706,0.5342285623963999,0.015016195364296436,0.014946171082556248,0.016963711008429527,0.02195320650935173,0.025035323575139046,0.2398051768541336,0.045646075159311295,0.22384364902973175,0.10843677818775177,0.024713773280382156,0.20679371058940887,0.03296505659818649,0.15308450162410736,0.05368947610259056
2,125,28883,-102.89000537060201,52,5.076748918294907,0.04111359439391111,6,28883,1000000,7.177938938140869,7.193028907775879,7.169634189605713,0.5827211249524201,0.011095499619841576,0.01333534810692072,0.017957208678126335,0.017182165756821632,0.02500709891319275,0.1983494758605957,0.045556385070085526,0.24969667196273804,0.14386793971061707,0.023146163672208786,0.18560269474983215,0.04042210802435875,0.21636828780174255,0.06931667029857635
2,126,28947,-107.84360746107996,64,4.139221465587616,0.04097754526439877,6,28947,1000000,7.323376790682475,7.3201912562052405,7.297269507249196,0.4847816464025527,0.01219953503459692,0.012069684453308582,0.013906500302255154,0.021296249702572823,0.02201353944838047,0.16174918413162231,0.043981485068798065,0.2019272893667221,0.1387864351272583,0.01953413523733616,0.1682184934616089,0.031073614954948425,0.15311820805072784,0.05868789181113243
2,127,29020,-101.75783034414053,73,5.173277886850493,0.0408078006850583,6,29020,1000000,7.133950526373727,7.128547058786665,7.107710579463414,0.5998071099389091,0.015270594507455826,0.013563068583607674,0.01769479364156723,0.021361349150538445,0.023534689098596573,0.2023848593235016,0.04134436696767807,0.2627832889556885,0.17017070949077606,0.021379558369517326,0.21999479830265045,0.036876291036605835,0.19552679359912872,0.06867091357707977
2,128,29069,-108.47571817040443,49,5.7212540492415425,0.040677018516359076,6,29069,1000000,7.192728364467621,7.195845931768417,7.188904267549515,0.39731930368611607,0.014010177925229073,0.012769175693392754,0.014307864010334015,0.022572388872504234,0.023441901430487633,0.16044919192790985,0.04145651310682297,0.12166531383991241,0.10591163486242294,0.019027104601264,0.16655509173870087,0.0264515969902277,0.11826175451278687,0.04502762109041214
2,129,29207,-103.0385668836534,138,4.80877533027759,0.040508494015156694,6,29207,1000000,7.137204122543335,7.132590099481436,7.109441825059744,0.718068609563049,0.01362526137381792,0.014549409039318562,0.015464297495782375,0.01643049716949463,0.02233893796801567,0.20906487107276917,0.04032127931714058,0.2173163890838623,0.19734016060829163,0.024805232882499695,0.24400649964809418,0.04642162844538689,0.30260685086250305,0.1887020468711853
2,130,29321,-110.45150929316878,114,3.7644215841184963,0.04042646253579541,6,29321,1000000,7.132539471712979,7.128056383132934,7.1087447296489366,0.5645843840569084,0.016635015606880188,0.011787890456616879,0.015025737695395947,0.018348129466176033,0.023397525772452354,0.18312674760818481,0.037683166563510895,0.2082492560148239,0.15283992886543274,0.01935553178191185,0.17681735754013062,0.03312801197171211,0.23589026927947998,0.11612111330032349
2,131,29399,-110.633763063699,78,5.450981929046767,0.04028213438278402,6,29399,1000000,7.270826414653233,7.285736499513899,7.25539607320513,0.7044395663990426,0.019084377214312553,0.014359995722770691,0.012559410184621811,0.0190424807369709,0.0286962129175663,0.2212473750114441,0.048874448984861374,0.2782992720603943,0.20005957782268524,0.022420810535550117,0.19801339507102966,0.045197851955890656,0.29924774169921875,0.12217842042446136
2,132,29509,-110.97195204906166,110,5.058015443520112,0.04018908274844724,6,29509,1000000,7.100957902995023,7.060572975332087,7.072201455723156,0.5860393617640842,0.014350641518831253,0.011970780789852142,0.01367933303117752,0.021038727834820747,0.02153834141790867,0.1744069904088974,0.040071047842502594,0.23761335015296936,0.1658933013677597,0.01991873048245907,0.18058991432189941,0.033625293523073196,0.22111620008945465,0.1297542154788971
2,133,29621,-118.0587335396558,112,4.454332665692676,0.040053640392379485,6,29621,1000000,6.90148365280845,6.895132392103021,6.865268369154497,0.6407342470871906,0.01907072588801384,0.011847718618810177,0.012378809973597527,0.016339270398020744,0.025294838473200798,0.23468804359436035,0.03531942889094353,0.22828948497772217,0.1659889668226242,0.019858093932271004,0.19990216195583344,0.039928335696458817,0.26154252886772156,0.13804134726524353
2,134,29793,-109.79572356492281,172,4.2281620802248225,0.03996414714317391,6,29793,1000000,7.029121378590079,7.0359326937619375,7.007948903476491,0.5789697252849276,0.014714575372636318,0.013449334539473057,0.01267333049327135,0.014370724558830261,0.02118338830769062,0.202936589717865,0.03198065236210823,0.22189271450042725,0.15629658102989197,0.02188945561647415,0.19417348504066467,0.03140115365386009,0.22121842205524445,0.12615206837654114
2,135,29840,-110.74480993300676,47,3.7741912856698034,0.039808920394072585,6,29840,1000000,7.168523609638214,7.16052610874176,7.143657457828522,0.40301064253910224,0.01755104400217533,0.012053541839122772,0.009342678822577,0.024408871307969093,0.023644428700208664,0.1437893956899643,0.034419506788253784,0.15612702071666718,0.11928003281354904,0.020118985325098038,0.15095846354961395,0.031122643500566483,0.12272980809211731,0.0518253929913044
2,136,29938,-116.56198690086603,98,3.8986851387553747,0.03964218304910023,6,29938,1000000,6.923041407267252,6.9361014048258465,6.908926807509529,0.6956510212348432,0.0220421701669693,0.013631110079586506,0.014093704521656036,0.018386879935860634,0.025602465495467186,0.1979576051235199,0.04443174973130226,0.2757001221179962,0.16617681086063385,0.021769724786281586,0.21366365253925323,0.04774770140647888,0.3066904544830322,0.13851282000541687
2,137,30044,-112.86648097448051,106,3.7192801636457444,0.039571325549449046,6,30044,1000000,6.682061924934387,6.672812786102295,6.653545150756836,0.5644285552578527,0.018051549792289734,0.012597205117344856,0.015293973498046398,0.019008569419384003,0.022512318566441536,0.1664961725473404,0.04073188826441765,0.2144542783498764,0.13593830168247223,0.017861710861325264,0.1475587636232376,0.03776282072067261,0.26580706238746643,0.11034580320119858
2,138,30178,-125.28792956098914,134,3.493151824749433,0.03944033971772744,6,30178,1000000,6.776091326200045,6.776720749414884,6.768201503386864,0.5716073954320369,0.018657544627785683,0.011596688069403172,0.012619744054973125,0.016135478392243385,0.020819760859012604,0.1552414745092392,0.036139123141765594,0.22838737070560455,0.16566801071166992,0.018145393580198288,0.1520172357559204,0.04248702898621559,0.26935163140296936,0.12216822803020477
2,139,30262,-106.99085148796439,84,4.951225151494145,0.039318085413033464,6,30262,1000000,6.680841636657715,6.685992357134819,6.666292063891888,0.593123619459451,0.015199338085949421,0.01103462278842926,0.014456259086728096,0.021765250712633133,0.026371130719780922,0.20781394839286804,0.046563420444726944,0.28393349051475525,0.21282880008220673,0.024960581213235855,0.185945063829422,0.031614430248737335,0.17185081541538239,0.05832395702600479
2,140,30314,-103.43891513161361,52,2.9177659797668456,0.0391904232865673,7,30314,1000000,6.825407452583313,6.8210635137557984,6.819110856056214,0.7263705998850174,0.021704647690057755,0.015641290694475174,0.01304725930094719,0.02315063588321209,0.03946402296423912,0.2461477369070053,0.05369655787944794,0.2603107690811157,0.19745859503746033,0.024560919031500816,0.1810411661863327,0.049165721982717514,0.2998177409172058,0.11951592564582825
2,141,30363,-106.02967909909785,49,4.693614713847637,0.03910409528972571,7,30363,1000000,6.517039036750793,6.511035776138305,6.491903352737427,0.6194503302274107,0.011097393929958344,0.01049024984240532,0.011510186828672886,0.024193162098526955,0.031194912269711494,0.20290036499500275,0.05243239551782608,0.27012306451797485,0.207275852560997,0.027178408578038216,0.18691717088222504,0.03988323360681534,0.19739314913749695,0.07885688543319702
2,142,30449,-102.08073129318655,86,3.8884102292358875,0.03899385861231614,7,30449,1000000,6.778089052438736,6.810854685306549,6.793559175729752,0.6197581030717192,0.017842436209321022,0.013996388763189316,0.013182123191654682,0.020504580810666084,0.027436602860689163,0.20053286850452423,0.044181909412145615,0.2165987491607666,0.21209825575351715,0.021374059841036797,0.1604544222354889,0.04344067722558975,0.22932864725589752,0.1320185363292694
2,143,30502,-101.8841720148921,53,3.9512920069694517,0.038888883899034415,7,30502,1000000,6.741224446296692,6.731249485015869,6.7256685161590575,0.7461535174329326,0.020393969491124153,0.015693964436650276,0.017126312479376793,0.021733645349740982,0.03710143640637398,0.22869239747524261,0.05602888762950897,0.2739211320877075,0.22147276997566223,0.025637269020080566,0.207907572388649,0.04877062141895294,0.2849491834640503,0.1264542043209076
2,144,30587,-101.96622015163302,85,3.2802540764212607,0.03881190938337677,7,30587,1000000,6.706871920824051,6.734470945596695,6.710165965557098,0.6813880824283057,0.015395940281450748,0.013532314449548721,0.013305475935339928,0.020354077219963074,0.026023508980870247,0.18111251294612885,0.042952388525009155,0.24924975633621216,0.24073275923728943,0.021702252328395844,0.17326441407203674,0.04298122227191925,0.26550740003585815,0.1320894956588745
2,145,30673,-101.02943722810596,86,2.7612273138016463,0.038737273715039926,7,30673,1000000,6.608896166086197,6.592085826396942,6.5842124074697495,0.5945686969992727,0.014490592293441296,0.01337415911257267,0.013329880312085152,0.018505558371543884,0.026578988879919052,0.18675754964351654,0.044035907834768295,0.2204388529062271,0.21025338768959045,0.01956699602305889,0.14451652765274048,0.03485114127397537,0.22547458112239838,0.12120933085680008
2,146,30759,-103.59583135694265,86,3.9852249857038258,0.03864551797008314,7,30759,1000000,6.372169214487076,6.363980010151863,6.360489884018898,0.6254247912718345,0.018854785710573196,0.01231615524739027,0.012277194298803806,0.021148648113012314,0.024362847208976746,0.17841865122318268,0.03688686713576317,0.20172809064388275,0.2291654795408249,0.01915416680276394,0.1396239548921585,0.041318271309137344,0.2321484088897705,0.15288372337818146
2,147,30820,-100.05995698273182,61,3.6600781400998432,0.03853606954216957,7,30820,1000000,6.112089264392853,6.1210323135058085,6.11475758155187,0.7887897177146433,0.016120964661240578,0.01630939170718193,0.015641840174794197,0.020224554464221,0.035865962505340576,0.25370433926582336,0.047436729073524475,0.23193679749965668,0.1936485469341278,0.026875438168644905,0.23601983487606049,0.05942379683256149,0.3491751253604889,0.15695326030254364
2,148,30879,-103.49568979814649,59,2.894310096502304,0.03847966409702268,7,30879,1000000,6.494585423469544,6.483832960128784,6.471738548278808,0.6747234422860846,0.021647891029715538,0.014667144976556301,0.011257873848080635,0.02213027887046337,0.031118322163820267,0.18728409707546234,0.0484810397028923,0.2470044493675232,0.15247546136379242,0.02245381474494934,0.1719995141029358,0.05112674459815025,0.3116154372692108,0.12431516498327255
2,149,30921,-109.3528506141156,42,3.1351433753967286,0.03839811975964241,7,30921,1000000,6.667996609210968,6.6703176438808445,6.68061671257019,0.4168801462011678,0.016045257449150085,0.012971488758921623,0.009438899345695972,0.024139676243066788,0.023581190034747124,0.15834450721740723,0.03951556608080864,0.17258583009243011,0.1150691881775856,0.020153185352683067,0.10971289873123169,0.03155411034822464,0.13698959350585938,0.057333461940288544
2,150,30987,-105.21389877423644,66,4.795189355810483,0.038257713130571774,7,30987,1000000,6.296157419681549,6.2917462905248005,6.259637780984243,0.7627474396216749,0.0173475444316864,0.014656750485301018,0.012311928905546665,0.021764421835541725,0.03255022317171097,0.2203463912010193,0.041087690740823746,0.2206786423921585,0.2011527568101883,0.024647139012813568,0.19350950419902802,0.06381397694349289,0.394869863986969,0.1515391618013382
2,151,31048,-99.32060954533517,61,3.339402817686399,0.0382051074102562,7,31048,1000000,6.3482996384302774,6.36117825905482,6.3347620924313865,0.7269566580653192,0.010810614563524723,0.012462740764021873,0.014115656726062298,0.017511779442429543,0.028649991378188133,0.2171678990125656,0.03810035064816475,0.2130471020936966,0.211506649851799,0.02378305047750473,0.18624122440814972,0.057766806334257126,0.34103506803512573,0.12075728923082352
2,152,31104,-103.35979296080768,56,3.5184116983413696,0.03815040648927702,7,31104,1000000,6.589573006629944,6.603947105407715,6.591896095275879,0.6381543422383922,0.019934017211198807,0.013943473808467388,0.010148485191166401,0.021629640832543373,0.03388180583715439,0.19648313522338867,0.05070952698588371,0.22607430815696716,0.18973186612129211,0.023092076182365417,0.1677289754152298,0.046953048557043076,0.2555597722530365,0.1131538599729538
2,153,31164,-102.30948797054589,60,2.320796107252439,0.03805407733956644,7,31164,1000000,6.460058744748434,6.4764778971672055,6.450671243667602,0.7064687470595044,0.014853054657578468,0.013987782411277294,0.015091282315552235,0.021506505087018013,0.030491238459944725,0.1835137903690338,0.046315476298332214,0.20917735993862152,0.2221304476261139,0.026557115837931633,0.21145404875278473,0.05093652382493019,0.3078349828720093,0.16788409650325775
2,154,31216,-101.30241503193974,52,2.271154047250748,0.03797613553825981,7,31216,1000000,6.12521035194397,6.140951375961304,6.122846789360047,0.675365726917218,0.012963244691491127,0.01608971878886223,0.018101699650287628,0.02285521849989891,0.033825524151325226,0.21151889860630035,0.04616016149520874,0.20657435059547424,0.15825346112251282,0.02569391392171383,0.2055329978466034,0.05051950737833977,0.3021363914012909,0.1263563185930252
2,155,31258,-107.09640253148973,42,3.83763487637043,0.037872348886917116,7,31258,1000000,6.274756395816803,6.311811673641205,6.268100076913834,0.49687869007152213,0.012745577841997147,0.014815526083111763,0.01317431777715683,0.023329174146056175,0.03577043488621712,0.19225557148456573,0.04898487776517868,0.2048390656709671,0.1465168595314026,0.02258225530385971,0.10922767221927643,0.043262332677841187,0.16629430651664734,0.07882192730903625
2,156,31299,-104.39956081472337,41,2.355920361727476,0.03776453103401948,7,31299,1000000,5.760185380280018,5.768060967326164,5.740089444816112,0.5794394315500571,0.01224149763584137,0.014850820414721966,0.018578704446554184,0.0255192369222641,0.03851405158638954,0.23404207825660706,0.04615534096956253,0.18031467497348785,0.13474787771701813,0.025113897398114204,0.1596808135509491,0.04853225126862526,0.21074631810188293,0.09329050034284592
2,157,31360,-103.50040701776743,61,4.205132288734118,0.03764802416063886,7,31360,1000000,5.9159310221672055,5.9048853794733684,5.879702115058899,0.61579179226375,0.01763838157057762,0.013942054472863674,0.012975642457604408,0.022648602724075317,0.032275792211294174,0.2052461951971054,0.04280620440840721,0.201516792178154,0.1946209967136383,0.022246265783905983,0.15685603022575378,0.046180736273527145,0.2556498348712921,0.11009132862091064
2,158,31436,-107.99424720276147,76,3.726299413187163,0.03756323780029849,7,31436,1000000,6.028782560144152,6.045712635346821,6.024984400612968,0.6391263184905575,0.017610633745789528,0.012227987870573997,0.013992064632475376,0.02175147458910942,0.02627617120742798,0.1771804541349411,0.038222722709178925,0.17954903841018677,0.2070944607257843,0.024230297654867172,0.19433988630771637,0.05189511179924011,0.2895161509513855,0.12642529606819153
2,159,31482,-104.56226861476898,46,4.335259178280831,0.03748472616626102,7,31482,1000000,6.174821859598159,6.207297229766846,6.201941376924514,0.62898874455604,0.012708967551589012,0.01130879856646061,0.016628924757242203,0.02549077942967415,0.03175555542111397,0.20972833037376404,0.050755541771650314,0.22837305068969727,0.19006741046905518,0.02343098260462284,0.17859818041324615,0.04468030855059624,0.2237260788679123,0.13097332417964935
2,160,31538,-104.62163805868477,56,2.8380870020389555,0.03739909946999915,8,31538,1000000,5.7737002539634705,5.75730872631073,5.745490589141846,0.6688402444124222,0.019328376278281212,0.013946239836513996,0.012959739193320274,0.021614255383610725,0.03214062377810478,0.18237102031707764,0.050373464822769165,0.2577657103538513,0.14459939301013947,0.023827817291021347,0.16867288947105408,0.0462530180811882,0.27930787205696106,0.1547815054655075
2,161,31601,-97.93223153054714,63,2.892330848177274,0.03731609000988446,8,31601,1000000,5.933882709344228,5.922560481230418,5.937286394834518,0.660280032408616,0.013084333389997482,0.014200592413544655,0.016437893733382225,0.01846902444958687,0.027131615206599236,0.2097495198249817,0.042482104152441025,0.19702447950839996,0.16289012134075165,0.027096299454569817,0.21221832931041718,0.048303231596946716,0.27859780192375183,0.1666378229856491
2,162,31644,-104.88147498946637,43,3.7380803525447845,0.03721229039273934,8,31644,1000000,6.139684355258941,6.153772377967835,6.0984923362731935,0.578637941516647,0.010200371965765953,0.014860240742564201,0.015047675929963589,0.025380950421094894,0.033082425594329834,0.16877512633800507,0.05567019432783127,0.21165169775485992,0.11370477080345154,0.025980226695537567,0.22346681356430054,0.04851040244102478,0.23595070838928223,0.10289543867111206
2,163,31686,-110.1996986232698,42,2.8333160147070884,0.03714365264890478,8,31686,1000000,5.9996517419815065,6.024536943435669,6.0490555465221405,0.5857507418545465,0.017707010731101036,0.011635885573923588,0.01173359900712967,0.024205880239605904,0.0361902080476284,0.17495176196098328,0.0596509613096714,0.2424079179763794,0.23442624509334564,0.0253425445407629,0.11581214517354965,0.04201141744852066,0.1949397772550583,0.0982912927865982
2,164,31731,-104.71654752083123,45,2.1448026791214945,0.03702821306137211,8,31731,1000000,6.185039436817169,6.1928118705749515,6.184827607870102,0.5432549646607151,0.009393970482051373,0.01080661453306675,0.013083946891129017,0.02238922379910946,0.030147233977913857,0.17332445085048676,0.04718933254480362,0.17289306223392487,0.1524675190448761,0.024565452709794044,0.19130395352840424,0.04795010760426521,0.2267354130744934,0.09092487394809723
2,165,31772,-106.32226356491446,41,3.061019457131624,0.03690743988384884,8,31772,1000000,5.914932000637054,5.900472483038902,5.895069625973702,0.5647821205902875,0.010210813954472542,0.013325999490916729,0.014921654015779495,0.0220500398427248,0.037038907408714294,0.20786748826503754,0.053802210837602615,0.18540337681770325,0.12891237437725067,0.025902695953845978,0.18819740414619446,0.04552048444747925,0.22341321408748627,0.11304612457752228
2,166,31856,-104.53839981555939,84,3.1428547404706477,0.036796742803867785,8,31856,1000000,5.739851908385754,5.736218109726906,5.710620351135731,0.5864713880277815,0.011061067692935467,0.009454313665628433,0.0165249090641737,0.01819521375000477,0.02339274063706398,0.14496709406375885,0.042850084602832794,0.23114320635795593,0.15581275522708893,0.018191972747445107,0.14392510056495667,0.04040924459695816,0.25492969155311584,0.1139119490981102
2,167,31897,-111.85223142802715,41,2.6159256741404535,0.03669895051868372,8,31897,1000000,5.664457100629806,5.645168744772673,5.66558136343956,0.5622539069594408,0.022282816469669342,0.013325237669050694,0.011728882789611816,0.03365553170442581,0.03322000056505203,0.18447096645832062,0.06104831397533417,0.238260880112648,0.11090346425771713,0.02390432544052601,0.1566280573606491,0.044862452894449234,0.20720316469669342,0.1118183508515358
2,168,31936,-112.17065263167024,39,2.6496251066525778,0.03659826297793658,8,31936,1000000,6.150314768155416,6.152597626050313,6.185319463411967,0.5952388310534322,0.021485520526766777,0.01380408089607954,0.012547280639410019,0.03521762043237686,0.03325439989566803,0.21137401461601257,0.07054845243692398,0.20452876389026642,0.1270507127046585,0.021593591198325157,0.16315145790576935,0.05194548889994621,0.2574042081832886,0.06924635171890259
2,169,31976,-109.49708353541791,40,3.4973046272993087,0.03647750170140337,8,31976,1000000,5.583087396621704,5.579460287094117,5.56052782535553,0.5203888792544603,0.018580669537186623,0.013084568083286285,0.009598675183951855,0.03267672657966614,0.03197406604886055,0.140785351395607,0.06438799947500229,0.17720218002796173,0.12414924800395966,0.019501421600580215,0.15059511363506317,0.04957130178809166,0.23940379917621613,0.07029148936271667
2,170,32014,-111.88273176178336,38,3.7407991091410318,0.03636695556542886,8,32014,1000000,5.877677917480469,5.87430423895518,5.867087411880493,0.5165865246141167,0.01962856762111187,0.012305147014558315,0.014784160070121288,0.038169365376234055,0.03256582096219063,0.1701200306415558,0.06568800657987595,0.13953840732574463,0.11612552404403687,0.021563256159424782,0.17669837176799774,0.04932999983429909,0.22744640707969666,0.0679486095905304
2,171,32054,-108.94564428925514,40,4.045912030339241,0.036270681712031363,8,32054,1000000,5.3938468366861345,5.394437649846077,5.375738680362701,0.5067944326127569,0.01648854836821556,0.012222638353705406,0.009838305413722992,0.03272783011198044,0.031080206856131554,0.14494924247264862,0.06667011976242065,0.1617458462715149,0.11936850845813751,0.018213871866464615,0.15274369716644287,0.048927970230579376,0.23225268721580505,0.06198253482580185
2,172,32093,-112.52550245076418,39,3.2977807839711506,0.03615359984139602,8,32093,1000000,5.721141584714254,5.736964456240336,5.739136266708374,0.45953471455563843,0.021629467606544495,0.01274032611399889,0.01162406150251627,0.03969428315758705,0.03189047798514366,0.15534785389900208,0.06630983203649521,0.11994077265262604,0.10305217653512955,0.02100561186671257,0.15919674932956696,0.04633796960115433,0.18812835216522217,0.0691738948225975
2,173,32133,-110.18056140840054,40,3.038555344939232,0.03604749059677124,8,32133,1000000,5.420102298259735,5.446931248903274,5.453479272127152,0.46913927371303243,0.01825079694390297,0.01245818194001913,0.010610831901431084,0.03504122793674469,0.03103511407971382,0.1311158984899521,0.07047383487224579,0.15850739181041718,0.10046251118183136,0.018335245549678802,0.1425161063671112,0.043514713644981384,0.19730927050113678,0.059882231056690216
2,174,32173,-109.70850392431021,40,2.7643549159169196,0.035929662665724754,8,32173,1000000,5.2232095271348955,5.183671894669533,5.200512164831162,0.4746353667850295,0.017148971557617188,0.011597871780395508,0.009047119878232479,0.03448157384991646,0.02939254604279995,0.14347296953201294,0.060354966670274734,0.12469196319580078,0.11219698190689087,0.019298408180475235,0.15649202466011047,0.047681160271167755,0.21435782313346863,0.05504560470581055
2,175,32215,-107.26435223594308,42,3.100172035396099,0.03581278909643491,8,32215,1000000,5.628255942463875,5.620070023834705,5.616768032312393,0.520655069500208,0.014789851382374763,0.014333789236843586,0.012599985115230083,0.026981642469763756,0.03249896317720413,0.17202326655387878,0.06356710195541382,0.15446984767913818,0.12145491689443588,0.02124311402440071,0.1717570722103119,0.04685147479176521,0.2226194441318512,0.05636182427406311
2,176,32254,-110.09770991653204,39,5.595945785442988,0.0357133395721515,8,32254,1000000,5.464715174833933,5.440856279929479,5.500139596064885,0.49839920582424885,0.016932640224695206,0.011609789915382862,0.010325521230697632,0.03469562530517578,0.031624771654605865,0.16623555123806,0.06616457551717758,0.15069255232810974,0.08971385657787323,0.019976381212472916,0.15283264219760895,0.046743299812078476,0.203401580452919,0.0551467128098011
2,177,32294,-109.61207219772041,40,3.9699120193719866,0.03562261153459549,8,32294,1000000,5.862631386518478,5.85125840306282,5.822607409954071,0.4709715249016881,0.016701508313417435,0.012353003956377506,0.008770396001636982,0.03202321380376816,0.029065992683172226,0.14513710141181946,0.06127672642469406,0.14381732046604156,0.08807648718357086,0.01926276460289955,0.14580731093883514,0.04749166965484619,0.1964593231678009,0.04961755499243736
2,178,32334,-109.61359190940857,40,3.094703324139118,0.03550811399602228,8,32334,1000000,5.945719891786576,5.972681361436844,5.94193097949028,0.4179998001083732,0.016251802444458008,0.011600920930504799,0.007983485236763954,0.03229108452796936,0.028129372745752335,0.1340198963880539,0.0554516427218914,0.11021007597446442,0.10361696779727936,0.018377449363470078,0.14429011940956116,0.04204545170068741,0.16637767851352692,0.054825544357299805
2,179,32375,-108.67606482282281,41,2.5532286018133163,0.035398469517431246,8,32375,1000000,5.61510528922081,5.639300036430359,5.625201416015625,0.43554941479995,0.016931874677538872,0.012246686965227127,0.009411517530679703,0.03107570670545101,0.02871556766331196,0.12930729985237122,0.05986659228801727,0.15438655018806458,0.10353358089923859,0.017406918108463287,0.12049297988414764,0.04210181161761284,0.1667395532131195,0.06183794140815735
2,180,32415,-109.89432521164417,40,2.492261692881584,0.035285771023186425,9,32415,1000000,5.057322466373444,5.074800953269005,5.060346364974976,0.4193683616816998,0.017323940992355347,0.011533733457326889,0.008092677220702171,0.03324509784579277,0.028539428487420082,0.13186505436897278,0.057290345430374146,0.09863710403442383,0.08894574642181396,0.01994704268872738,0.15671946108341217,0.04403918236494064,0.1689949929714203,0.05506082624197006
2,181,32454,-108.51478154957294,39,2.640258471171061,0.03519095012415496,9,32454,1000000,4.533362499872843,4.500268892447154,4.518385934829712,0.5121180811880998,0.01537292916327715,0.013057476840913296,0.009674742817878723,0.03006284311413765,0.030695108696818352,0.14999453723430634,0.06362507492303848,0.16882741451263428,0.11853143572807312,0.021071193739771843,0.1811094582080841,0.04412912577390671,0.17777898907661438,0.06146874651312828
2,182,32496,-107.1748667024076,42,2.6880068704485893,0.03507400097906905,9,32496,1000000,5.213785576820373,5.250897987186908,5.2049837678670885,0.4708309014520002,0.013064633123576641,0.012798233889043331,0.01141644362360239,0.025609584525227547,0.029514214023947716,0.15009911358356476,0.056695111095905304,0.15388229489326477,0.09037666767835617,0.021778294816613197,0.17158764600753784,0.042695119976997375,0.18760104477405548,0.053927890956401825
2,183,32535,-110.68808337673545,39,5.052180208762487,0.034996318437710956,9,32535,1000000,4.972464648882548,4.985438354810079,4.96110471089681,0.5219714670863926,0.016590677201747894,0.011836436577141285,0.00939968042075634,0.03208933770656586,0.03336336836218834,0.17941227555274963,0.05944313108921051,0.18307451903820038,0.13811957836151123,0.021616211161017418,0.15491843223571777,0.04324209317564964,0.17062139511108398,0.06242889165878296
2,184,32576,-107.73824477009475,41,2.192614393681288,0.03488558721471959,9,32576,1000000,5.195902079343796,5.174121843278408,5.13726409226656,0.4493164361371258,0.01276884414255619,0.012582979165017605,0.010355545207858086,0.025029979646205902,0.032092075794935226,0.1518665999174118,0.057782020419836044,0.17094598710536957,0.08959469199180603,0.01814926043152809,0.130436971783638,0.04039299860596657,0.16905218362808228,0.05666342005133629
2,185,32616,-108.40981602668762,40,2.389822247624397,0.034795067612854204,9,32616,1000000,5.306992754340172,5.30277493596077,5.310797914862633,0.44275046829134224,0.014066644012928009,0.011105329729616642,0.008788181468844414,0.029897641390562057,0.02986077405512333,0.15084333717823029,0.05701461434364319,0.1284649670124054,0.09470006823539734,0.01710587553679943,0.14037872850894928,0.03937814012169838,0.17216749489307404,0.054746419191360474
2,186,32656,-109.29478567838669,40,2.0290914356708525,0.03467577755392536,9,32656,1000000,5.391345101594925,5.400294223427773,5.367148151993751,0.4418031495064497,0.015939857810735703,0.01133041176944971,0.008397032506763935,0.03202872723340988,0.030752435326576233,0.1353529393672943,0.05626427382230759,0.10221908241510391,0.07706310600042343,0.02043244056403637,0.1803351640701294,0.04346979036927223,0.18530051410198212,0.048718854784965515
2,187,32697,-107.60204578191042,41,2.626003274321556,0.03460083083687179,9,32697,1000000,5.223363252729177,5.256229028105736,5.25825309753418,0.4678413515410772,0.011763150803744793,0.013120350427925587,0.010441477410495281,0.02594376541674137,0.03059724159538746,0.14385037124156952,0.05787056311964989,0.14353029429912567,0.07239598780870438,0.01914341002702713,0.16655263304710388,0.041977204382419586,0.18533660471439362,0.05431300401687622
2,188,32736,-109.02446333318949,39,2.26215580701828,0.0344976549308131,9,32736,1000000,4.612457072734832,4.598486224810283,4.601632120211919,0.4554330215622217,0.014543270692229271,0.0113063408061862,0.008419366553425789,0.03005610592663288,0.029501324519515038,0.12988165020942688,0.057290658354759216,0.12799103558063507,0.07416539639234543,0.020899290218949318,0.15880191326141357,0.04326574504375458,0.19214409589767456,0.051528044044971466
2,189,32778,-108.01665905676782,42,3.1657153591513634,0.03438351014017902,9,32778,1000000,3.9327580824494364,3.923475334048271,3.9081617638468744,0.4150758571331464,0.012380870059132576,0.009873216040432453,0.011676549911499023,0.024695519357919693,0.030311573296785355,0.1386624276638031,0.051030419766902924,0.11334924399852753,0.07281078398227692,0.018185345456004143,0.14799895882606506,0.04030954837799072,0.1902076005935669,0.05568363144993782
2,190,32817,-109.44250955060124,39,2.643253192305565,0.0343055781724009,9,32817,1000000,5.147555589675903,5.170960052808126,5.136863589286804,0.457553440816382,0.014798569492995739,0.010879017412662506,0.008353746496140957,0.02833925373852253,0.0307605117559433,0.12797370553016663,0.05750057101249695,0.13594113290309906,0.06771853566169739,0.020785199478268623,0.15337668359279633,0.04098771512508392,0.18366394937038422,0.06060704216361046
2,191,32856,-109.33155132830143,39,1.854374560713768,0.034200509845201545,9,32856,1000000,4.415786035855612,4.388897583882014,4.383560474713644,0.4374054341107352,0.015314934775233269,0.009955019690096378,0.007652041967958212,0.02783353440463543,0.031460631638765335,0.12324821949005127,0.05803807079792023,0.10355270653963089,0.07205777615308762,0.01945054903626442,0.15946528315544128,0.04244466498494148,0.20633414387702942,0.05319737643003464
2,192,32896,-110.35963529720902,40,2.485815492272377,0.03411464608798269,9,32896,1000000,4.75778474509716,4.753703270852566,4.753875264525414,0.4225960511093338,0.01559293270111084,0.009939765557646751,0.008686062879860401,0.028789764270186424,0.02921620011329651,0.12905168533325195,0.050671644508838654,0.10144265741109848,0.07426366209983826,0.020978672429919243,0.14974895119667053,0.04086742550134659,0.18134233355522156,0.05631536245346069
2,193,32936,-110.32733134366572,40,2.370777015388012,0.03401549680468937,9,32936,1000000,4.222302098572254,4.1953177317976955,4.1797101438045505,0.4269218597561121,0.016620729118585587,0.010292059741914272,0.00860715750604868,0.027841264382004738,0.03071284294128418,0.12477798759937286,0.055888283997774124,0.1256139576435089,0.0789056271314621,0.01924225129187107,0.14289245009422302,0.0382261797785759,0.17509685456752777,0.05407588556408882
2,194,32975,-111.89913612231612,39,2.2664568781852723,0.03392195712173513,9,32975,1000000,3.752198847134908,3.7895331740379334,3.7615504284699757,0.4698384255170822,0.019056130200624466,0.013134758919477463,0.010913733392953873,0.03017200529575348,0.031623728573322296,0.1476486474275589,0.05723615735769272,0.12226991355419159,0.08649633824825287,0.021277878433465958,0.17381855845451355,0.044414982199668884,0.1981196254491806,0.04946867749094963
2,195,33014,-110.91258111596107,39,2.2131268898646037,0.03381794877932407,9,33014,1000000,4.352247679233551,4.321354417006175,4.319026269515356,0.4259497887558407,0.017646687105298042,0.010675678960978985,0.010956467129290104,0.02978399209678173,0.03202636539936066,0.14102545380592346,0.0490042120218277,0.09926784038543701,0.08175507932901382,0.019545074552297592,0.1521492898464203,0.04191864654421806,0.19944603741168976,0.05087628588080406
2,196,33054,-112.50615280494094,40,3.152168580144644,0.033740883901676476,9,33054,1000000,4.39970910847187,4.408207058906555,4.40082311630249,0.3838521145905057,0.020030030980706215,0.011231312528252602,0.010440943762660027,0.030982250347733498,0.030482113361358643,0.13435174524784088,0.04914132505655289,0.10030744969844818,0.0832643210887909,0.018574010580778122,0.11807230859994888,0.03924831002950668,0.1667693555355072,0.04837849363684654
2,197,33093,-111.45084538310766,39,3.2920785576105116,0.033647300943116194,9,33093,1000000,4.173237005372842,4.171568523347378,4.164781848092874,0.4055445972416135,0.020151343196630478,0.010734541341662407,0.012445125728845596,0.027430281043052673,0.03177211061120033,0.11622530221939087,0.0520549938082695,0.09185604751110077,0.08118359744548798,0.01841731183230877,0.12567903101444244,0.0402030348777771,0.1998031884431839,0.05116025730967522
2,198,33133,-110.89977584034204,40,2.2905969277024267,0.03354339790879448,9,33133,1000000,4.233598013222218,4.248925197124481,4.246743260324001,0.44184723670283954,0.01733395829796791,0.010533986613154411,0.011155303567647934,0.025699907913804054,0.032060667872428894,0.13190384209156036,0.05345685034990311,0.12153567373752594,0.09011047333478928,0.020625749602913857,0.1475464552640915,0.04032396525144577,0.18820072710514069,0.053635574877262115
2,199,33172,-110.00572800263762,39,2.6036501506964367,0.03346107417395103,9,33172,1000000,4.873183818658193,4.87455104192098,4.859206859270731,0.3882695174115336,0.014317379333078861,0.008835399523377419,0.009761886671185493,0.024938248097896576,0.030559686943888664,0.11609344184398651,0.05025850608944893,0.08750021457672119,0.08655254542827606,0.017685094848275185,0.1275612860918045,0.038853347301483154,0.18070432543754578,0.05311667174100876
2,200,33212,-110.74327509105206,40,4.442627966403961,0.03335482057771171,10,33212,1000000,4.488110736012459,4.509705248475075,4.489491268992424,0.40076267148057615,0.01593966782093048,0.009665243327617645,0.010315703228116035,0.02546730637550354,0.029930204153060913,0.11214593797922134,0.05337558314204216,0.12010316550731659,0.08360649645328522,0.017484446987509727,0.11375357210636139,0.039767954498529434,0.17381730675697327,0.051997046917676926
2,201,33252,-111.41028991341591,40,2.7217782355844973,0.03327978329506801,10,33252,1000000,3.93756585419178,3.950931267440319,3.95125475525856,0.401674782174329,0.017476025968790054,0.009878018870949745,0.013069234788417816,0.024907102808356285,0.03076915815472603,0.128823921084404,0.0530046746134758,0.11558151245117188,0.09034259617328644,0.017676793038845062,0.11947276443243027,0.03728214651346207,0.17422616481781006,0.0528574101626873
2,202,33292,-111.26462729275227,40,2.181376613676548,0.033192018523465754,10,33292,1000000,3.5768769651651384,3.569805181026459,3.558243216574192,0.40321330825487767,0.01821797713637352,0.010147228837013245,0.012152361683547497,0.025692444294691086,0.032794106751680374,0.13494738936424255,0.0499793142080307,0.12337557971477509,0.08888262510299683,0.020094536244869232,0.13975095748901367,0.03867171332240105,0.16518989205360413,0.06252589076757431
2,203,33331,-113.59734915941954,39,2.261423107981682,0.03309658165161426,10,33331,1000000,3.5760415146748223,3.568745406468709,3.5737968534231186,0.37423678302866786,0.022915853187441826,0.00988734606653452,0.014940336346626282,0.0275783259421587,0.032282665371894836,0.11707675457000732,0.04957215115427971,0.1024124026298523,0.0997190997004509,0.017027946189045906,0.10406896471977234,0.03971035033464432,0.1704602986574173,0.05592837184667587
2,204,33371,-110.66445346921682,40,2.5038331642746927,0.033003950098959296,10,33371,1000000,3.9320270001888273,3.9050854206085206,3.9238291442394257,0.41992986512680847,0.015708886086940765,0.008794964291155338,0.010264486074447632,0.024839499965310097,0.03231661766767502,0.13624931871891022,0.0463983416557312,0.10413499176502228,0.0829044058918953,0.019558019936084747,0.13820083439350128,0.04121655225753784,0.19558878242969513,0.07064060866832733
2,205,33410,-111.80436468869448,39,2.444575975338618,0.032915421137825036,10,33410,1000000,3.9822948296864826,4.01009237964948,3.9992108941078186,0.4284384648005168,0.017997736111283302,0.009707517921924591,0.010206720791757107,0.026273159310221672,0.03147998824715614,0.13564011454582214,0.04597678408026695,0.11002006381750107,0.08671886473894119,0.019364463165402412,0.14040446281433105,0.042082250118255615,0.2084096074104309,0.07518234103918076
2,206,33448,-112.88993388414383,38,4.409197715918223,0.032835217165068174,10,33448,1000000,4.302110890547435,4.324423563480377,4.339797939856847,0.4244481810090835,0.020299213007092476,0.00975225493311882,0.013830109499394894,0.02817782200872898,0.03265544772148132,0.10869129002094269,0.04993024468421936,0.10782594233751297,0.09425036609172821,0.017978457733988762,0.1324286013841629,0.04320423677563667,0.20974740386009216,0.07979568094015121
2,207,33488,-113.43647333979607,40,2.5691099032759666,0.03274738878775866,10,33488,1000000,3.427021199464798,3.4157510310411454,3.4348957777023315,0.45343526974320414,0.01968299224972725,0.008665056899189949,0.013782431371510029,0.024793747812509537,0.028580162674188614,0.12477739155292511,0.040051162242889404,0.09742948412895203,0.1220121756196022,0.02090238407254219,0.1473262906074524,0.04589538276195526,0.193140909075737,0.08259394019842148
2,208,33528,-113.8939021974802,40,2.6837119176983832,0.03265878534469849,10,33528,1000000,4.0272326618433,4.030041363835335,4.0054151028394696,0.41910462329785025,0.021188843995332718,0.010265244171023369,0.013893434777855873,0.026017796248197556,0.030147438868880272,0.10691311210393906,0.046335797756910324,0.1018936038017273,0.09167952835559845,0.019503500312566757,0.15939947962760925,0.043329305946826935,0.18633654713630676,0.07522007822990417
2,209,33568,-113.06651891767979,40,2.8304060719907285,0.032570749247112334,10,33568,1000000,3.602528025209904,3.5751429915428163,3.585195045173168,0.3795220372577508,0.01678929105401039,0.00901464931666851,0.011906562373042107,0.0258615855127573,0.027422338724136353,0.09618792682886124,0.041449762880802155,0.09232142567634583,0.08087241649627686,0.019525829702615738,0.12522320449352264,0.03778525069355965,0.1710798293352127,0.07707658410072327
2,210,33607,-114.33953332155943,39,3.028758062918981,0.032494044028051935,10,33607,1000000,4.02136165301005,4.021484363079071,4.008119583129883,0.4286720675663052,0.02020949125289917,0.011848806403577328,0.016120608896017075,0.026902681216597557,0.03027378022670746,0.11935882270336151,0.046205729246139526,0.1520274132490158,0.10379564017057419,0.022423846647143364,0.15513139963150024,0.038872819393873215,0.1514829695224762,0.07206584513187408
2,211,33647,-113.20190117508173,40,2.5287395894527434,0.03240455872647028,10,33647,1000000,4.112480828166008,4.106606096029282,4.078717473149299,0.3882692838087678,0.016260618343949318,0.009213869459927082,0.01291773933917284,0.024393737316131592,0.028027791529893875,0.10190905630588531,0.041359130293130875,0.10062257945537567,0.11041976511478424,0.01839529164135456,0.11959358304738998,0.03486492857336998,0.15858426690101624,0.0696529969573021
2,212,33685,-112.19397905468941,38,2.49681272705396,0.0323176105987783,10,33685,1000000,3.803244109948476,3.803508444627126,3.7982645829518638,0.44552089064790484,0.012932530604302883,0.009322721511125565,0.0108357397839427,0.026850135996937752,0.03309934213757515,0.1532944291830063,0.047223467379808426,0.13826555013656616,0.12137702852487564,0.020736409351229668,0.13699153065681458,0.03766116127371788,0.14969125390052795,0.06534359604120255
2,213,33726,-112.77045495063066,41,2.390080790221691,0.032239226907795016,10,33726,1000000,3.7716902762651445,3.7593847274780274,3.759297613799572,0.38475479555081543,0.012524164281785488,0.009155867621302605,0.011747311800718307,0.024859189987182617,0.0258408784866333,0.09741829335689545,0.04129701480269432,0.10401246696710587,0.1124017983675003,0.017354698851704597,0.12055876106023788,0.034289419651031494,0.15258273482322693,0.06802888959646225
2,214,33767,-114.31550845503807,41,3.571738365292549,0.032158876616157045,10,33767,1000000,4.055918277055025,4.032816201820969,4.038109337538481,0.451432562577046,0.016393767669796944,0.009451831690967083,0.014734218828380108,0.021611301228404045,0.02707921341061592,0.10548025369644165,0.04606926441192627,0.11239521950483322,0.1344321221113205,0.021952491253614426,0.15668410062789917,0.04155725985765457,0.18683885037899017,0.06704970449209213
2,215,33808,-113.39227935113013,41,3.4940400078892706,0.03206776278733297,10,33808,1000000,3.5234590135514736,3.5674992628395557,3.5562822476029394,0.44134874641895283,0.014317156746983528,0.009365740232169628,0.01273218635469675,0.025288762524724007,0.026979586109519005,0.13323789834976196,0.041099514812231064,0.1026114746928215,0.1138572245836258,0.01802593283355236,0.11888431757688522,0.04003525897860527,0.2033662050962448,0.06419146060943604
2,216,33850,-114.19763948768377,42,2.314854547381401,0.03200446218064036,10,33850,1000000,3.169215778261423,3.152146811038256,3.180133306980133,0.4194293803875408,0.014333651401102543,0.010012810118496418,0.013115568086504936,0.025849072262644768,0.025161560624837875,0.1050945445895195,0.040077950805425644,0.10449706017971039,0.11065196990966797,0.019752411171793938,0.12911555171012878,0.03789558634161949,0.17764398455619812,0.08175395429134369
2,217,33933,-106.6157349892892,83,3.25010969042778,0.03191663162368867,10,33933,1000000,3.0711696624755858,3.07209727242589,3.0567997068166735,0.4500541618789535,0.022769052535295486,0.010843896307051182,0.008970986120402813,0.015694476664066315,0.022023430094122887,0.12564308941364288,0.03261929750442505,0.12498950958251953,0.13105610013008118,0.01636885665357113,0.150009885430336,0.034208744764328,0.16953161358833313,0.12598884105682373
2,218,33974,-113.04447676241398,41,2.5446859702467917,0.031830511578932554,10,33974,1000000,3.383553297072649,3.37735752761364,3.3860936366021632,0.4084594322413933,0.01404151413589716,0.010006939992308617,0.011485426686704159,0.025412335991859436,0.024824121966958046,0.11678579449653625,0.03715110570192337,0.09194351732730865,0.11209950596094131,0.017495112493634224,0.11723435670137405,0.03509904444217682,0.17165082693099976,0.08248105645179749
2,219,34016,-115.7749455422163,42,4.18168418109417,0.03174981250324183,10,34016,1000000,2.817334185540676,2.822840252518654,2.7815199881792068,0.4575491960323046,0.022418450564146042,0.012875521555542946,0.012666388414800167,0.01976199448108673,0.025629185140132904,0.1304873526096344,0.044533342123031616,0.11373387277126312,0.14166176319122314,0.023266252130270004,0.1778424233198166,0.03834656998515129,0.15526404976844788,0.08713454008102417
2,220,34187,-111.35255998466164,171,3.7278513231698205,0.03168796418103004,10,34187,1000000,2.9818553071688205,2.978392959692899,2.9670873712090886,0.5247009029688193,0.022446313872933388,0.007701877970248461,0.009839186444878578,0.012399503029882908,0.02105690725147724,0.10314760357141495,0.029378600418567657,0.22030141949653625,0.2290167510509491,0.019274171441793442,0.10436735302209854,0.030577924102544785,0.1734851896762848,0.14932255446910858
2,221,34327,-105.92617736279499,140,3.630079689621925,0.0315926280927688,10,34327,1000000,2.347742857677596,2.3550795359270915,2.3451474656483957,0.6344510540543566,0.014184772968292236,0.012126997113227844,0.011290145106613636,0.018241403624415398,0.023040222004055977,0.14722388982772827,0.03547856956720352,0.21507146954536438,0.24095956981182098,0.02079193852841854,0.15756171941757202,0.03845854103565216,0.24664375185966492,0.20164094865322113
2,222,34407,-109.32625577226281,80,4.157815323770047,0.03155091306871146,10,34407,1000000,2.5490186389535667,2.559159286133945,2.5440305676311255,0.7670184530317783,0.020490139722824097,0.01449431013315916,0.014338371343910694,0.022770695388317108,0.029443103820085526,0.2536938488483429,0.043750908225774765,0.28165403008461,0.2560420632362366,0.022946905344724655,0.1911749690771103,0.03955443203449249,0.2565247714519501,0.2596558928489685
2,223,34483,-114.68430958874524,76,2.9566442055361613,0.031531524550707186,10,34483,1000000,2.3055083266326357,2.3265860461762973,2.2898418796913966,0.7711616364683498,0.017309635877609253,0.015341772697865963,0.014679067768156528,0.023810317739844322,0.029049446806311607,0.1797669380903244,0.055093683302402496,0.31169527769088745,0.276298463344574,0.026948586106300354,0.22181172668933868,0.044114913791418076,0.2996477782726288,0.19289135932922363
2,224,34540,-109.1596863400191,57,3.0282217872142794,0.0315164203760191,10,34540,1000000,2.707699069082737,2.7091027119755746,2.6900584813952446,0.5539963324690423,0.020293615758419037,0.013104158453643322,0.01347946934401989,0.0238957479596138,0.025283528491854668,0.16613423824310303,0.03904164209961891,0.179377943277359,0.09592385590076447,0.02101191319525242,0.1636386513710022,0.04492241144180298,0.2715831398963928,0.17119406163692474
2,225,34585,-110.19827182404697,45,3.1783581405878065,0.031441243529430965,10,34585,1000000,2.6911546155810355,2.663906082510948,2.6760986134409905,0.7796586534491291,0.02497386932373047,0.013897559605538845,0.015118861570954323,0.02430126443505287,0.03751947358250618,0.23086091876029968,0.07047687470912933,0.37525826692581177,0.2670493721961975,0.027831831946969032,0.17479175329208374,0.05488976836204529,0.2577721178531647,0.0946567952632904
2,226,34647,-112.44735392928123,62,2.744338875015577,0.03142030116400601,10,34647,1000000,2.303235427538554,2.2979624847571056,2.2876393417517344,0.752527048751231,0.013973777182400227,0.0137355737388134,0.011444995179772377,0.0208062045276165,0.032564353197813034,0.2031226009130478,0.05317790061235428,0.2859562337398529,0.2732899785041809,0.02207079716026783,0.15891572833061218,0.0496385395526886,0.3353964686393738,0.17700032889842987
2,227,34739,-107.38519692234695,92,2.7744447158442602,0.03138229059400382,10,34739,1000000,2.5619489659865695,2.5750469827817546,2.5671244141128327,0.7594827715901361,0.019733242690563202,0.014453599229454994,0.015049312263727188,0.018284590914845467,0.03067474253475666,0.23610009253025055,0.052803367376327515,0.2806139290332794,0.191610187292099,0.023446129634976387,0.17033155262470245,0.04623062163591385,0.30603745579719543,0.24152465164661407
2,228,34819,-106.75454776920378,80,3.0692544162273405,0.031371367345621556,10,34819,1000000,2.2560032343491914,2.2574666503816845,2.2562902020290494,0.6182586934417487,0.019065119326114655,0.01031678169965744,0.011234479956328869,0.019603561609983444,0.026841819286346436,0.2082507610321045,0.04482639580965042,0.21102170646190643,0.1358480006456375,0.018988164141774178,0.1354280412197113,0.04194137826561928,0.2654697597026825,0.20278528332710266
2,229,34923,-116.72770134545863,104,2.72385161370039,0.03130635851537626,10,34923,1000000,2.4233144713938235,2.42862544298172,2.4209721171855927,0.6509641556499096,0.014301544055342674,0.011075805872678757,0.014355063438415527,0.01892090030014515,0.028380630537867546,0.2188127636909485,0.045860156416893005,0.19820867478847504,0.13109943270683289,0.022121217101812363,0.20585480332374573,0.03417467698454857,0.23674079775810242,0.24631096422672272
2,230,34977,-108.70618193782866,54,2.609957921504974,0.03127031537302423,10,34977,1000000,2.358149080872536,2.346298123598099,2.355911743044853,0.7494568067752283,0.014112596400082111,0.013669032603502274,0.015033770352602005,0.018998682498931885,0.03445360064506531,0.21247616410255432,0.06197735667228699,0.3200359642505646,0.19907867908477783,0.022382386028766632,0.19115574657917023,0.05189953371882439,0.29439106583595276,0.20112407207489014
2,231,35069,-113.92045750841498,92,2.48230962422159,0.031248884617953616,10,35069,1000000,2.747566791044341,2.7343537953164843,2.7463641986250877,0.6147851900777954,0.026064753532409668,0.011483668349683285,0.012185666710138321,0.016848383471369743,0.024990016594529152,0.18116606771945953,0.037879329174757004,0.2013111710548401,0.15407690405845642,0.022829459980130196,0.20671434700489044,0.04217689111828804,0.2653530240058899,0.17491039633750916
2,232,35157,-113.7130849706009,88,2.7453096844255924,0.031188269460792926,10,35157,1000000,2.126867447420955,2.135786844417453,2.1184715643525123,0.8113825701628671,0.023889921605587006,0.016544252634048462,0.017225734889507294,0.017019769176840782,0.02875583805143833,0.2145477682352066,0.05105618014931679,0.27575650811195374,0.20234189927577972,0.028462780639529228,0.2800314426422119,0.06026042625308037,0.3747847378253937,0.26537102460861206
2,233,35285,-119.94381513260305,128,2.467516661187013,0.031214316490212786,10,35285,1000000,1.908577628682057,1.9308505398531755,1.9223414860665797,0.6627170196346317,0.013229644857347012,0.012068123556673527,0.012629164382815361,0.017017873004078865,0.02656540833413601,0.1993100643157959,0.04601616784930229,0.24889515340328217,0.14238335192203522,0.020454756915569305,0.19912225008010864,0.04382127895951271,0.29472729563713074,0.17602452635765076
2,234,35438,-129.18234348855913,153,2.7844077626864117,0.031167905494897036,10,35438,1000000,2.0898370641469954,2.0776508194208145,2.078787907163302,0.6337428447792472,0.02070447988808155,0.011952325701713562,0.013163434341549873,0.017358239740133286,0.023401211947202682,0.1982174962759018,0.032506249845027924,0.1763988733291626,0.12592053413391113,0.02413492649793625,0.21096283197402954,0.03647135570645332,0.2446838617324829,0.2536764442920685
2,235,35520,-118.10577651113272,82,3.0560039207339287,0.031106348263756665,10,35520,1000000,1.8180841639637948,1.829551762714982,1.8264020293951035,0.6215283034778223,0.012938488274812698,0.009321460500359535,0.012275876477360725,0.020132344216108322,0.02581886202096939,0.1601330041885376,0.043130602687597275,0.20473578572273254,0.1916651576757431,0.02294362522661686,0.18574149906635284,0.03867349028587341,0.23761051893234253,0.2156563699245453
2,236,35719,-123.44574167951941,199,2.771979044613085,0.03107332251786034,10,35719,1000000,1.4031329979237757,1.4017006811734878,1.3883959404732051,0.5760109776777638,0.015558361075818539,0.009830419905483723,0.011260604485869408,0.016793018206954002,0.021985525265336037,0.17268159985542297,0.038239624351263046,0.22224313020706177,0.16944852471351624,0.01951240561902523,0.17123311758041382,0.03129060938954353,0.21135230362415314,0.1814023107290268
