seo-minseok/DOB-RL/cycles/Cycle_5/results/mbrl_real_ratio=0.2/seed_2_progress.csv
seed,episode,total_steps,reward,episode_length,td_loss_avg,model_loss_avg,horizon_length,real_buffer_size,model_buffer_size,q1_avg,q2_avg,target_q_avg
2,1,98,-120.2318639010191,98,nan,nan,0,98,0,nan,nan,nan
2,2,170,-116.45638728141785,72,nan,nan,0,170,0,nan,nan,nan
2,3,1770,-83.9206328098262,1600,nan,nan,0,1770,0,nan,nan,nan
2,4,3370,-72.33649564883672,1600,nan,nan,0,3370,0,nan,nan,nan
2,5,3416,-104.87945730052888,46,nan,nan,0,3416,0,nan,nan,nan
2,6,3567,-120.76741895731539,151,nan,nan,0,3567,0,nan,nan,nan
2,7,5167,-73.13662212580675,1600,nan,nan,0,5167,0,nan,nan,nan
2,8,5277,-99.23507185047492,110,nan,nan,0,5277,0,nan,nan,nan
2,9,5344,-102.74465787876397,67,nan,nan,0,5344,0,nan,nan,nan
2,10,5444,-102.48553785774857,100,nan,nan,0,5444,0,nan,nan,nan
2,11,5538,-104.81489335279912,94,nan,nan,0,5538,0,nan,nan,nan
2,12,7138,-94.6372386449948,1600,nan,nan,0,7138,0,nan,nan,nan
2,13,7212,-100.05333835631609,74,nan,nan,0,7212,0,nan,nan,nan
2,14,7391,-110.16160631366074,179,nan,nan,0,7391,0,nan,nan,nan
2,15,7524,-100.02204192429781,133,nan,nan,0,7524,0,nan,nan,nan
2,16,7596,-105.73316114302725,72,nan,nan,0,7596,0,nan,nan,nan
2,17,7670,-121.74610363692045,74,nan,nan,0,7670,0,nan,nan,nan
2,18,7724,-113.82278205640614,54,nan,nan,0,7724,0,nan,nan,nan
2,19,7790,-101.9484293833375,66,nan,nan,0,7790,0,nan,nan,nan
2,20,9390,-101.42902802262688,1600,nan,nan,0,9390,0,nan,nan,nan
2,21,10183,-151.3993449283298,793,15.073830019749908,nan,0,10183,0,-0.20553945892800887,-0.2063078498467803,-0.29476899719900557
2,22,10282,-109.93072521360591,99,92.44563079410129,0.19317801436807355,1,10282,15360,-0.7692669462826517,-0.7883865657779906,-1.1326968007617526
2,23,10361,-117.65702447667718,79,90.94838794214385,0.13129870834449928,1,10361,30720,-1.011609303525516,-0.9349150761961937,-1.2362428401197707
2,24,10445,-125.19201118219644,84,83.71117345541715,0.09736285818119844,1,10445,46080,-1.0996119394898414,-1.056895136088133,-1.2957703717052937
2,25,10536,-107.27110029943287,91,94.92420324484507,0.08860068714867035,1,10536,61440,-1.4004091249571906,-1.3295831084251404,-1.594534879260593
2,26,10635,-100.27152162790298,99,104.74952057732476,0.08652255931278555,1,10635,76800,-1.7285629239347247,-1.6907502267095778,-1.9412773529688516
2,27,10731,-100.4567757663317,96,89.95864343775644,0.08501728867612234,1,10731,92160,-1.8507232321633234,-1.8305438174141777,-2.0100861887137094
2,28,10797,-106.77764861658216,66,89.51746014356613,0.0837497333685557,1,10797,107520,-2.0310831447442372,-2.0083183348178864,-2.16206064025561
2,29,10870,-98.95994962379336,73,94.18089015143258,0.08250317074476726,1,10870,122880,-2.3065412197794233,-2.328682599748884,-2.4466905287333898
2,30,11046,-133.4563086638227,176,77.41946002174826,0.08128112300284325,1,11046,138240,-2.310657183563008,-2.3153221249580382,-2.450579254066243
2,31,11235,-115.412995059276,189,64.26751709249285,0.07988419960173526,1,11235,153600,-2.5110989782545303,-2.511448613140318,-2.6098865316973794
2,32,11325,-123.19850560836494,90,57.42195150057475,0.0784824341766594,1,11325,168960,-2.64757510026296,-2.659961844815148,-2.710740135775672
2,33,11394,-117.67957622371614,69,48.81817146539688,0.07752224669763536,1,11394,184320,-2.610428277651469,-2.6209062178929647,-2.6181567986806233
2,34,11430,-104.82619820535183,36,55.3469569126765,0.0769088378458312,1,11430,199680,-2.6960861802101137,-2.7231031179428102,-2.8929159164428713
2,35,11555,-111.53267046716064,125,49.33635569214821,0.0763831320472739,1,11555,215040,-2.698515040675799,-2.6988537629445393,-2.7448483566443125
2,36,11605,-118.60843838006258,50,43.14090151309967,0.07547572096188863,1,11605,230400,-2.7351690697669984,-2.740581727027893,-2.819255292415619
2,37,11656,-116.88965471088886,51,53.7976572060585,0.07494945993026098,1,11656,245760,-2.9307833766937255,-2.9235138630867006,-3.061959490776062
2,38,11705,-118.75014721602201,49,50.15549505352974,0.07438030165654641,1,11705,261120,-2.7551407337188722,-2.769521564245224,-2.8625930905342103
2,39,11754,-120.66508188843727,49,58.48663742542267,0.07392522553602854,1,11754,276480,-3.043815976381302,-3.0521297991275786,-3.1755938202142717
2,40,11835,-111.7050407351926,81,52.38151194751263,0.0733837487189858,2,11835,307200,-2.9508156925439835,-2.967876457422972,-3.0200837776064873
2,41,11882,-118.21885751187801,47,51.20361974835396,0.07278164261277172,2,11882,337920,-3.0538251876831053,-3.071310046315193,-3.1390807539224626
2,42,11930,-117.23303334414959,48,61.40123970508576,0.07229833683889846,2,11930,368640,-3.0210618942976,-3.059401923418045,-3.1549985647201537
2,43,12011,-117.845523763448,81,63.275904673337934,0.07178307086013365,2,12011,399360,-3.2797336652874947,-3.300824984908104,-3.3962679892778396
2,44,12086,-112.51647188514471,75,64.94034220831735,0.07131627300835174,2,12086,430080,-3.4162108199937005,-3.4418453063283647,-3.549443631512778
2,45,12328,-114.68886719387956,242,54.6881057292223,0.07086464031368282,2,12328,460800,-3.7757071708639462,-3.7758550693591437,-3.8549216588338218
2,46,12409,-115.84317756677046,81,48.339472979307175,0.07017350401211944,2,12409,491520,-3.9680476233363153,-3.974924382567406,-4.04278131723404
2,47,12491,-112.9343447778374,82,42.260800743103026,0.0697127456828538,2,12491,522240,-4.138625819981098,-4.121829643845558,-4.168362525105477
2,48,12543,-121.49556830525398,52,37.8478798866272,0.06919543170370161,2,12543,552960,-3.993998465538025,-4.0057985305786135,-4.052800436019897
2,49,12949,-144.04857226088643,406,35.52956595420837,0.06874591768201854,2,12949,583680,-4.514028926491737,-4.5196001091599465,-4.545254574418068
2,50,13112,-130.69007916841656,163,27.62808675020933,0.06783362190425396,2,13112,614400,-4.518876671791077,-4.508277230709791,-4.562258506566286
2,51,13307,-123.24923618510365,195,26.45508851754038,0.06721094801924588,2,13307,645120,-4.9074799311788455,-4.9069751588921795,-4.943006870621129
2,52,13425,-115.26505250111222,118,24.97074039849368,0.06630658498581718,2,13425,675840,-5.06715892011469,-5.071212647177957,-5.097991022196683
2,53,13679,-124.54300583526492,254,20.932217539787292,0.06567524882176748,2,13679,706560,-5.048126154899597,-5.054837030410766,-5.083253516197205
2,54,13737,-121.92215994000435,58,22.685148153305054,0.06462310500114969,2,13737,737280,-5.4126491689682,-5.411558790206909,-5.42827075958252
2,55,13798,-123.31038157641888,61,19.240878305832545,0.0640128066376695,2,13798,768000,-5.369760247071584,-5.365988079706828,-5.381762377421061
2,56,13867,-106.34730700403452,69,22.65644310514132,0.0634748915878107,2,13867,798720,-5.3454327781995135,-5.344137116273244,-5.398564060529073
2,57,13911,-113.33893258869648,44,24.031244844198227,0.06294509977746157,2,13911,829440,-5.859565734863281,-5.8791129231452945,-5.89273961186409
2,58,13989,-119.16721304133534,78,22.844660343442644,0.06251720322043071,2,13989,860160,-5.830888298579625,-5.818112233706883,-5.851547697612218
2,59,14115,-125.10367571562529,126,18.167476017276446,0.06205373765141876,2,14115,890880,-5.851280228296916,-5.858507730563482,-5.885512328147888
2,60,14410,-132.26619667303748,295,19.418712736409287,0.06143619613665523,3,14410,936960,-6.121531576945864,-6.117935132980347,-6.171257731010174
2,61,14468,-109.53978068940341,58,18.27236549139023,0.060783905096884285,3,14468,983040,-6.439230895042419,-6.446290473937989,-6.495601930618286
2,62,14612,-114.34427054971457,144,19.001211944648198,0.060438489146708026,3,14612,1000000,-6.210684038911547,-6.222810349294117,-6.269849323374885
2,63,14770,-112.92883460968733,158,19.575665129820507,0.06014147276243968,3,14770,1000000,-6.5306841166814165,-6.535464884440104,-6.577123243014018
2,64,15059,-112.62733916484285,289,18.335014767731938,0.05978962880129005,3,15059,1000000,-6.7812030673027035,-6.7866052150726315,-6.820554111685071
2,65,15126,-114.58613733202219,67,16.290760066111883,0.05905780074154508,3,15126,1000000,-6.99598015944163,-6.985582232475281,-7.0017772515614825
2,66,15308,-117.27107721660286,182,15.761270486646229,0.05880470115922939,3,15308,1000000,-7.196444312731425,-7.194941133923001,-7.250811497370402
2,67,15377,-115.02709032967687,69,14.617080859343211,0.05861109162201989,3,15377,1000000,-7.538101899623871,-7.533079246679942,-7.550711846351623
2,68,16977,-45.09075731266057,1600,14.179653550982476,0.05827875590986676,3,16977,1000000,-7.332905886769295,-7.332663538008928,-7.365763767510653
2,69,18562,-140.43456263514236,1585,10.026575081144706,0.057497101612012796,3,18562,1000000,-6.690460099072396,-6.689679291429399,-6.722702022594742
2,70,18629,-102.81521750986576,67,8.169033719102542,0.056731543741706345,3,18629,1000000,-6.428241149584452,-6.427447652816772,-6.4461355368296305
2,71,18676,-102.41989550809376,47,10.956549179553985,0.056283435004728814,3,18676,1000000,-6.741200894117355,-6.735178631544113,-6.764753490686417
2,72,18717,-105.88633355963975,41,11.121465462446213,0.05593249979601414,3,18717,1000000,-6.7403127431869505,-6.71428165435791,-6.78354132771492
2,73,19422,-126.9016895564273,705,8.397825107489313,0.055610441229386964,3,19422,1000000,-6.3145855985369,-6.308661309480667,-6.339353376456669
2,74,19494,-100.81192778423429,72,7.677041413954326,0.0548851605951786,3,19494,1000000,-5.905996939114162,-5.909593755858285,-5.937281881059919
2,75,19709,-127.2975649740547,215,7.86145164228621,0.05457304260905897,3,19709,1000000,-6.014422053382511,-6.026728734515962,-6.0399279174350555
2,76,19767,-100.69814425706863,58,7.2595251941680905,0.05435298732236812,3,19767,1000000,-5.984141736030579,-5.957751083374023,-6.00739770412445
2,77,19824,-102.02630056720227,57,6.131775492429734,0.05413092614445852,3,19824,1000000,-6.247949237823486,-6.274014582633972,-6.256589298248291
2,78,19876,-100.03766813653056,52,8.624843989610673,0.05382731964255308,3,19876,1000000,-5.5960037851333615,-5.608041257858276,-5.631999974250793
2,79,19946,-101.82552347937599,70,7.835086557694844,0.05355864770678215,3,19946,1000000,-5.718048589570182,-5.725489408629281,-5.739444988114493
2,80,20002,-101.58345330576412,56,7.83207271695137,0.05328319344943736,4,20002,1000000,-4.864747672080994,-4.874103286266327,-4.8873603367805485
2,81,20074,-99.88149071019143,72,8.738173486505236,0.05305239317508844,4,20074,1000000,-5.207886969191687,-5.246839552266257,-5.253972138677325
2,82,20148,-97.31730555277318,74,6.410697261776243,0.05281683812156702,4,20148,1000000,-4.955159762927464,-4.976185619831085,-5.002627742290497
2,83,20203,-102.34261984052137,55,5.369230881929398,0.052581092798047596,4,20203,1000000,-4.439597463607788,-4.433419165611267,-4.476532340049744
2,84,20262,-105.0351573661901,59,7.9362248611450195,0.052357117548330216,4,20262,1000000,-4.20735524892807,-4.212076969146729,-4.241566104888916
2,85,20324,-99.72393286717124,62,6.357446950674057,0.05210029503589944,4,20324,1000000,-4.1092135505750775,-4.122641646116972,-4.1275231818358105
2,86,20424,-99.98127739364281,100,6.440134432315826,0.05187590190441296,4,20424,1000000,-3.892380504310131,-3.892411727309227,-3.899021548628807
2,87,20481,-104.52686429559253,57,5.373155242204666,0.051609192911205415,4,20481,1000000,-3.96096556186676,-3.9534571599960326,-3.9828830766677856
2,88,20551,-104.98089908901602,70,7.387882365499224,0.051388749160493415,4,20551,1000000,-3.6285663408892495,-3.6354669941323143,-3.655098554491997
2,89,20621,-100.87226854078472,70,6.574701689822334,0.05114937619306147,4,20621,1000000,-3.6314346040998187,-3.6274221403258187,-3.6480751284531183
2,90,20687,-100.7307483649347,66,4.860812901457151,0.05092122502314548,4,20687,1000000,-3.355240567525228,-3.347361445426941,-3.3493645270665486
2,91,20758,-102.7600309252739,71,6.169131339873586,0.050786781723921495,4,20758,1000000,-3.809900104573795,-3.8438374834401268,-3.8525157000337327
2,92,21880,-155.4289078132133,1122,5.485386574720698,0.05057259344882926,4,21880,1000000,-3.1868788230099847,-3.1905568109791993,-3.2082706612800913
2,93,21940,-104.18900344520807,60,6.0361205488443375,0.0503545061805669,4,21940,1000000,-2.8098500154912474,-2.799726437528928,-2.8432727058728537
2,94,22000,-104.97633372247219,60,5.311221485336621,0.050009567144454696,4,22000,1000000,-2.5162906711300215,-2.547542265057564,-2.5459675170481204
2,95,22075,-105.61828555725515,75,6.906292238405773,0.04974131756845643,4,22075,1000000,-2.2735382112009184,-2.2733284696936606,-2.3131822194371905
2,96,22142,-105.38435047492385,67,7.57373061478138,0.049478456412636956,4,22142,1000000,-2.421146394064029,-2.435471776127815,-2.4512336966892083
2,97,22209,-105.5510017927736,67,5.712821941574415,0.04923355592082637,4,22209,1000000,-2.344644951323668,-2.342573732386033,-2.3684530958533285
2,98,22271,-108.148094560951,62,6.872829067707062,0.048990877983413,4,22271,1000000,-2.390054286271334,-2.363870098690192,-2.3788713425397874
2,99,22330,-104.09484633989632,59,6.88924745798111,0.04878637084607468,4,22330,1000000,-2.2057288175821306,-2.2070868739485743,-2.2489333015680315
2,100,22435,-105.20770243555307,105,5.697589713633061,0.048635829905212154,5,22435,1000000,-2.2746772123873233,-2.2893616771697998,-2.317977883666754
2,101,22505,-105.02100685425103,70,5.441004504902022,0.04834911206102006,5,22505,1000000,-2.091342544449227,-2.091505582843508,-2.1131008714437485
2,102,22570,-103.785715052858,65,5.281361803412437,0.04813939031227795,5,22570,1000000,-1.7480176548163096,-1.7423811147610346,-1.7734905054171881
2,103,22627,-104.97627215785906,57,4.582911900281906,0.047907403023969945,5,22627,1000000,-1.667590194940567,-1.6625551238656044,-1.699092262685299
2,104,22751,-109.88643100112677,124,5.165312343835831,0.04772992193642439,5,22751,1000000,-1.9422695513814687,-1.9369667906314134,-1.955005292221904
2,105,22822,-109.540218799375,71,5.535290018575532,0.04744986585821166,5,22822,1000000,-1.6339555724390915,-1.6408462965062687,-1.6611841901072435
2,106,22888,-100.21251974068582,66,4.950670459866524,0.047242151041713996,5,22888,1000000,-1.808777791261673,-1.7925002882877985,-1.8309175198276837
2,107,22945,-108.24866205453873,57,6.138416256904602,0.04704102903939365,5,22945,1000000,-1.6197094559669494,-1.589632733464241,-1.6276271358132361
2,108,23006,-107.30925811175257,61,5.548163975278537,0.04687232117304641,5,23006,1000000,-1.8312719764808814,-1.826680137962103,-1.8568326252202192
2,109,23065,-101.07537436299026,59,4.5007340109348295,0.046684341542841346,5,23065,1000000,-1.3633964800834655,-1.3484586678445338,-1.364946227669716
2,110,23139,-114.68474007118493,74,4.469335755280086,0.04650164398606177,5,23139,1000000,-1.8269757756165095,-1.820849815436772,-1.832430301819529
2,111,23256,-117.19379480555654,117,5.599266973679716,0.04635770541926225,5,23256,1000000,-1.3964371211149476,-1.3911167709664864,-1.39290379461917
2,112,23372,-108.71691631060094,116,5.748759734088725,0.04622900840584879,5,23372,1000000,-1.663520877876065,-1.6613417378880762,-1.69249181043018
2,113,23485,-110.86581450887024,113,4.828456739674915,0.046012731098430064,5,23485,1000000,-1.3947668057273734,-1.3929673572832888,-1.4157700632106174
2,114,23569,-103.73180524911731,84,6.265498127788305,0.04589212986575815,5,23569,1000000,-1.6492991594597697,-1.6275797931477427,-1.6603517211973666
2,115,23624,-106.63557609170675,55,5.208968027830124,0.04574054109499506,5,23624,1000000,-1.5064481458067893,-1.5151946932077407,-1.5165825021266937
2,116,23687,-102.2122252183035,63,4.945360805094242,0.04556940902780363,5,23687,1000000,-1.3838179697593054,-1.4193608661492665,-1.4376891342302163
2,117,23817,-105.92786671547219,130,5.673167764223539,0.045386149936720084,5,23817,1000000,-1.2252779792134578,-1.2237819568468975,-1.2489119186997413
2,118,23875,-106.97285903338343,58,4.630298144817353,0.0451445744856925,5,23875,1000000,-1.4351215979456902,-1.4270873647928237,-1.4615239241719247
2,119,23939,-103.14670923631638,64,5.101228179534276,0.04501157638793778,5,23939,1000000,-0.876411643375953,-0.9262895945459604,-0.9277627814561129
2,120,24154,-114.15509084798396,215,4.58281491342045,0.04484699426158782,6,24154,1000000,-1.3408434862182255,-1.3436304829659915,-1.364868296469961
2,121,24292,-101.13691778969951,138,5.724705194051449,0.0447255782862293,6,24292,1000000,-1.0165565852935499,-1.0109314418756046,-1.041597980604722
2,122,24379,-104.7047156917397,87,4.579696051776409,0.04458024441297596,6,24379,1000000,-1.033468684926629,-1.0284606248140336,-1.0280858502723276
2,123,24450,-109.7026676107198,71,6.30297292641231,0.04443421849033289,6,24450,1000000,-1.0528857499361037,-1.0340503626636097,-1.078326198245798
2,124,24550,-112.43529351428151,100,5.675734313130379,0.04427564156682868,6,24550,1000000,-0.9728259813785552,-0.9690677519142628,-0.9955688329041004
2,125,24658,-105.3192802881822,108,5.439627303481102,0.04409879907181388,6,24658,1000000,-0.5853663857281208,-0.5879793633520604,-0.6161050817370415
2,126,24735,-102.18354142270982,77,6.400923582059996,0.04393962888150579,6,24735,1000000,-0.7786356270313263,-0.7788955443671771,-0.8186593963631562
2,127,24863,-112.32041424047202,128,4.801396651317676,0.043768510468200676,6,24863,1000000,-0.8297181768342853,-0.8106032609939575,-0.8312809394051631
2,128,25078,-100.19956415845081,215,4.150449376304945,0.04368928388734044,6,25078,1000000,-0.654136481561831,-0.658659887952464,-0.6678180484189874
2,129,25252,-107.77578222029842,174,4.456054562505554,0.043680641341864855,6,25252,1000000,-0.9472991150968215,-0.9462829592473366,-0.9672841633067412
2,130,25295,-110.25031920243055,43,3.6862152360379694,0.0436099409398173,6,25295,1000000,-1.0368307266384362,-1.024464800581336,-1.0353537127375603
2,131,25332,-107.22738756611943,37,3.874804706374804,0.043483933811487796,6,25332,1000000,-0.8532693823178609,-0.8382219642400741,-0.8611613367994626
2,132,25369,-107.27308148890734,37,5.626516963044803,0.043349430758227295,6,25369,1000000,-0.4877102881669998,-0.5119174818197886,-0.5599738389253617
2,133,25406,-107.0644553899765,37,5.5848201731840765,0.043260338674189665,6,25406,1000000,-0.29356580873330435,-0.29587826256950694,-0.31283778995275496
2,134,25443,-107.21606716513634,37,3.6579378406206766,0.04313604663618486,6,25443,1000000,-0.31433955232302346,-0.3017316997051239,-0.31529144793748853
2,135,25481,-107.15267317183316,38,6.158771332105001,0.0430295383990413,6,25481,1000000,-0.7153160467743873,-0.7195599099000295,-0.7361958449085554
2,136,25517,-106.26213673129678,36,4.302328142523765,0.04291348385590094,6,25517,1000000,-0.8416995281974474,-0.8007081359624862,-0.8244609435399374
2,137,25553,-106.9973711874336,36,4.222741426030795,0.042841321626295545,6,25553,1000000,-0.4884554376204809,-0.5277549922466278,-0.5274509737888972
2,138,25692,-117.02437542006373,139,5.187608281236429,0.04270922461342731,6,25692,1000000,-0.46251688146820435,-0.48339226165643107,-0.5062634341991865
2,139,25728,-107.10827390477061,36,4.350550557176272,0.04261627046515544,6,25728,1000000,-0.3132796009381612,-0.32810345192750295,-0.3641742487748464
2,140,25817,-103.29382861033082,89,5.627021955698728,0.042503081545233724,7,25817,1000000,-0.1304926687851548,-0.13896119240671395,-0.15905565600842236
2,141,25878,-98.33672655466944,61,6.084294748306275,0.042399240240454675,7,25878,1000000,-0.4901136887570222,-0.469250941524903,-0.5054337163766225
2,142,26084,-100.12351926369593,206,4.428251941651106,0.04231028959351798,7,26084,1000000,-0.4716122391447425,-0.4618032328411937,-0.47671719305217264
2,143,26169,-118.9314908022061,85,4.180624205619097,0.04225375033398666,7,26169,1000000,-0.8179691947996617,-0.7958705356344581,-0.8218114486895501
2,144,26242,-115.90861990861595,73,5.89700616981302,0.04216303735289698,7,26242,1000000,-0.6219299686806542,-0.591610947144883,-0.6050381281546184
2,145,26285,-108.55005849339068,43,3.7400535881519317,0.04203882661520266,7,26285,1000000,-0.4508901350200176,-0.46815413935109973,-0.4690586470067501
2,146,26332,-110.99668742716312,47,3.6308248177170754,0.04191893966125897,7,26332,1000000,-0.6587441220879555,-0.6329306177794933,-0.6757628787308931
2,147,26389,-112.80816221237183,57,3.675110869407654,0.04179122322817254,7,26389,1000000,-0.3196732622385025,-0.32604155987501143,-0.318375982940197
2,148,26541,-115.69446846295614,152,4.44448593378067,0.04166084438514169,7,26541,1000000,-0.3502474477390448,-0.3490503080189228,-0.370102273474137
2,149,26746,-125.99861829075962,205,4.1896537154912945,0.04167419620653958,7,26746,1000000,-0.5091317397914827,-0.5217571663483977,-0.5303943752124906
2,150,27633,-170.120214818744,887,3.488776881992817,0.04160184242690985,7,27633,1000000,-0.44596832796761937,-0.4502386973916807,-0.4654333190738478
2,151,27796,-137.23117107059807,163,3.6726449651643636,0.042350847728991434,7,27796,1000000,-0.51255749380216,-0.5127819936722517,-0.529598334338516
2,152,27863,-100.57564463699237,67,2.7221600929896037,0.04230060114030853,7,27863,1000000,-0.5247498884797096,-0.5387740968416135,-0.5329396806657314
2,153,27976,-125.93222897255328,113,3.5104150224815713,0.042147055827081205,7,27976,1000000,-0.6596991961652582,-0.6497309247878464,-0.6552807933904908
2,154,28054,-97.00985306408256,78,3.7450357513768333,0.042046221543889525,7,28054,1000000,-0.9445199225630079,-0.9485604479908943,-0.9615130163729191
2,155,28113,-102.88563902955502,59,2.436543953418732,0.04188993087875734,7,28113,1000000,-0.6655745267868042,-0.669270378947258,-0.6835659623146058
2,156,28174,-100.70789148285985,61,3.990508621931076,0.04177522672061162,7,28174,1000000,-0.41764560118317606,-0.4370562478899956,-0.42143344655632975
2,157,28245,-102.55004108510911,71,3.1576530205351965,0.04162718492701198,7,28245,1000000,-0.6825809291430882,-0.7170977992670876,-0.7205141829592842
2,158,28302,-103.32343953102827,57,4.119371671676635,0.04149765866046602,7,28302,1000000,-0.6286608837544918,-0.6379407557845116,-0.6480007296800614
2,159,28360,-102.69839971140027,58,2.860489301085472,0.04135097143776489,7,28360,1000000,-0.9516050887107849,-0.9518215799331665,-0.9382784226536751
2,160,28544,-115.22049717372283,184,3.8308855060074065,0.04123927392968626,8,28544,1000000,-0.7978660376535521,-0.7895314655370183,-0.816233852174547
2,161,28604,-102.0732868053019,60,3.0188840582966803,0.041194589263773534,8,28604,1000000,-0.7720807136967778,-0.7687862300003568,-0.78286937015752
2,162,28655,-103.2231519408524,51,2.8599741876125337,0.041070513906063616,8,28655,1000000,-0.9533426460623741,-0.9279424169659615,-0.9401167172193527
2,163,28749,-113.83608084218577,94,3.3133578495846856,0.040914408506842345,8,28749,1000000,-1.0599136850072277,-1.0742774092488818,-1.100484307275878
2,164,28801,-112.64258070662618,52,3.52334602534771,0.040833058082942096,8,28801,1000000,-0.9940803709626198,-1.0210592921078205,-1.009872270822525
2,165,28854,-110.45934941153973,53,4.6948813706636425,0.040719698950470916,8,28854,1000000,-1.3841208925843238,-1.3390978311002255,-1.3777372317016126
2,166,28925,-113.8951583718881,71,3.337867684875216,0.040601556863458385,8,28925,1000000,-1.3029776197459018,-1.297389086655208,-1.3096237540245057
2,167,28966,-106.81478061154485,41,4.064816930145025,0.04053142261691391,8,28966,1000000,-1.0323636200278998,-1.0249083675444126,-1.038536661863327
2,168,30566,-115.527926357463,1600,3.078066372042522,0.04040480440916565,8,30566,1000000,-1.7239527477137744,-1.7223911271151155,-1.7386164237116464
2,169,30900,-150.32003394700587,334,3.081495480374856,0.03855220946360703,8,30900,1000000,-2.277769575155143,-2.278832591212157,-2.2871928480990005
2,170,31039,-123.49606213439256,139,2.023520371776361,0.03846707601100206,8,31039,1000000,-2.6572312106306737,-2.6616894917992444,-2.6699950880729233
2,171,31136,-113.90405146591365,97,2.069434506694476,0.038375952926056445,8,31136,1000000,-2.3313775804307726,-2.340688011712498,-2.3429500033458073
2,172,31227,-119.83021158911288,91,2.774629894892375,0.03830100812387368,8,31227,1000000,-2.7021873431073296,-2.7216015870372456,-2.715405066145791
2,173,31354,-110.67877458501607,127,3.0122954815626146,0.03827333064754968,8,31354,1000000,-2.7667925181488195,-2.766709750890732,-2.7793943088501694
2,174,31455,-122.60954808909446,101,3.5344773915410044,0.03819382030801858,8,31455,1000000,-2.988835700303316,-2.980534489750862,-2.9950933285057544
2,175,31504,-111.78951763920486,49,2.597907441109419,0.03811209138503166,8,31504,1000000,-3.044135493040085,-3.0581662535667418,-3.0477220222353933
2,176,31590,-112.47875808179379,86,3.917427182197571,0.03804839562453067,8,31590,1000000,-3.0436723921447992,-3.056868005171418,-3.0590932700783013
2,177,31638,-111.12454944290221,48,3.7898416206240655,0.03801933702454981,8,31638,1000000,-3.5401187181472777,-3.5643924459815026,-3.558777725696564
2,178,31714,-121.26196763291955,76,2.914511075615883,0.03794886333852764,8,31714,1000000,-3.2216737500258854,-3.2369915166071483,-3.2476330463375365
2,179,31765,-110.56696400605142,51,2.3526670432090757,0.03790603078356603,8,31765,1000000,-3.1258227223157884,-3.1397430968284605,-3.1421695017814635
2,180,31802,-106.61574599333107,37,3.9935897260904314,0.037834352862730784,9,31802,1000000,-3.2049053559700647,-3.2058909634749093,-3.2201077540715537
2,181,31846,-109.04747698642313,44,2.3005497865378857,0.03775913312490429,9,31846,1000000,-3.2678883403539656,-3.2596643537282946,-3.283449886739254
2,182,31898,-111.43634926714003,52,2.343794687986374,0.03768757359895815,9,31898,1000000,-3.433906319737434,-3.433088743686676,-3.4517492830753325
2,183,32342,-150.48617867892608,444,2.4888934037224812,0.03763532410025276,9,32342,1000000,-3.6929762048477475,-3.681062673811208,-3.692818703299219
2,184,32605,-128.0921248467639,263,2.8277667208359794,0.03771260363695325,9,32605,1000000,-4.077557853953197,-4.075179790132321,-4.08933365777708
2,185,32789,-136.9073095927015,184,2.2935805514454843,0.037636767061833006,9,32789,1000000,-4.148038451208008,-4.142267112268342,-4.153128585053815
2,186,32953,-125.62785786786117,164,1.965343813225627,0.037610039718371506,9,32953,1000000,-4.266622424963861,-4.276187019702047,-4.282010502368212
2,187,33205,-134.07071255799383,252,2.059030256509781,0.03758386680468296,9,33205,1000000,-4.429424567341805,-4.418574065327644,-4.433346404194832
2,188,33731,-162.62747687892988,526,2.341207824389522,0.03759964401292246,9,33731,1000000,-4.655546198326808,-4.656783455037154,-4.665746523783757
2,189,34468,-115.63433264638297,737,2.0613212125758604,0.03767326441012873,9,34468,1000000,-4.932422826653474,-4.937269009241502,-4.944174895262065
2,190,36068,-38.17867395019857,1600,1.829350325651467,0.03785829371517867,9,36068,1000000,-5.540620546527207,-5.538735684603453,-5.542633905839175
2,191,37668,8.916617953917012,1600,1.510504912668839,0.038075154047636756,9,37668,1000000,-6.273466402366758,-6.271254411786795,-6.276163457930088
2,192,38077,-104.41279707034118,409,1.703445817232132,0.0384267599024132,9,38077,1000000,-6.430062303841114,-6.4261011949181555,-6.437853236198425
2,193,39677,-34.460998197318986,1600,1.5155580176319927,0.038315033545163836,9,39677,1000000,-6.233727119714022,-6.232234559617937,-6.23596482925117
2,194,41277,-82.99034673371352,1600,1.4815005695912986,0.038418268444605205,9,41277,1000000,-6.148719188570976,-6.1515810357593,-6.153229974545538
2,195,42877,-53.05453985766508,1600,1.3426326955482364,0.0385238339804406,9,42877,1000000,-5.949608338400721,-5.945313584059477,-5.948671527095139
2,196,44477,-40.973874864634126,1600,1.4752848703972996,0.038687061711759146,9,44477,1000000,-5.530367645286024,-5.528839370254428,-5.5324649772793055
2,197,46077,-61.14359945803881,1600,1.6840206329617649,0.0389050002358782,9,46077,1000000,-4.9395420579425995,-4.938285215180367,-4.943744591139257
2,198,47386,-141.3280372871086,1309,1.6423680873100575,0.03879167297143954,9,47386,1000000,-4.386330132851234,-4.387331610207374,-4.3911403277516365
2,199,48986,-116.46429686108604,1600,1.803332639671862,0.03855388479256952,9,48986,1000000,-4.106235046340153,-4.104345991723239,-4.109576525315642
2,200,50586,-143.24584648321616,1600,1.9300640001986176,0.03812622354799852,10,50586,1000000,-3.603680521417409,-3.6045336914039217,-3.6117253446159885
2,201,52186,-95.77177806617692,1600,1.736632016589865,0.03697812256108585,10,52186,1000000,-3.182203824305907,-3.1789961774274706,-3.184967502132058
2,202,53786,-81.34956370899454,1600,1.687644869470969,0.036800817811283575,10,53786,1000000,-3.106990418313071,-3.1095304689090697,-3.113019972401671
2,203,55386,-100.74400406540371,1600,1.7777669476065785,0.03572814533457397,10,55386,1000000,-2.9296184605546296,-2.9292760218307374,-2.933998821596615
2,204,56986,-99.42244816047605,1600,1.4812904724478722,0.034934953559351,10,56986,1000000,-2.5573728036973624,-2.5590344069804996,-2.561414499776438
2,205,58586,-84.39983762265183,1600,1.2989545225724577,0.03465390136023541,10,58586,1000000,-2.1696664080070334,-2.17326162294019,-2.174151403778233
2,206,60186,-57.34401528351009,1600,1.032636784594506,0.03445059194376594,10,60186,1000000,-1.895568389412947,-1.894593242155388,-1.8950526655605062
2,207,61786,-65.08393330150284,1600,0.985080678248778,0.034392462315183156,10,61786,1000000,-1.4402901651943103,-1.4399437583843246,-1.4400114043196663
2,208,63386,-38.165561355184764,1600,1.0197062763758005,0.034406355770503175,10,63386,1000000,-1.0584670786804053,-1.0542573428340256,-1.0570205216156319
2,209,63987,-126.65712908911519,601,1.2308493209878604,0.03450028687343504,10,63987,1000000,-0.6589266655718287,-0.6588861387098829,-0.6638827454671263
2,210,65587,-37.96642206754768,1600,1.056769634708762,0.034461779411697646,10,65587,1000000,-0.2808668215107173,-0.28194570817984643,-0.2824852806772105
2,211,67187,-30.738964341464452,1600,1.1043521432951093,0.03436316922112989,10,67187,1000000,-0.03189213478472084,-0.03336872207466513,-0.03339894064469263
2,212,67238,-117.32924288511276,51,1.5904399880766869,0.03431321440961297,10,67238,1000000,0.32786215245723727,0.30861892744898795,0.30237644851207734
2,213,67327,-126.31808053702116,89,1.03016269877553,0.034138099424559955,10,67327,1000000,0.18936821836978196,0.18736395426094532,0.17424691263586284
2,214,68927,-110.04466422274709,1600,1.2294398544449359,0.03399152048311312,10,68927,1000000,0.37823024980723857,0.3787886684946716,0.37589474669657646
2,215,70527,-58.792267763987184,1600,1.2176107568945735,0.0335933888379526,10,70527,1000000,0.5159638582542538,0.5132938880519942,0.510905239386484
2,216,72127,-66.7334410569747,1600,1.2527483552414924,0.033792079583713504,10,72127,1000000,0.47268418880645185,0.472750881081447,0.4703589542303234
2,217,73727,-71.87020280584693,1600,1.3922658532112837,0.03398020472664779,10,73727,1000000,0.7933149945922195,0.792253422269132,0.7914601467223839
2,218,75327,-31.07448812108487,1600,1.2503376242052764,0.03415229328530522,10,75327,1000000,0.8906778831081464,0.8906155745638534,0.8884044334338977
2,219,76927,-37.58096676773857,1600,1.2956350979302078,0.0342997064539432,10,76927,1000000,1.1956148618040607,1.1935837327688932,1.1919220359576865
2,220,78527,-56.073453404940665,1600,1.2140488343313336,0.03436024290861355,10,78527,1000000,1.4783714646846056,1.4752762867324054,1.4744494150904939
2,221,80127,-67.45590436598286,1600,1.1738371084071695,0.03447674201935335,10,80127,1000000,1.7997206180216745,1.7977980476198718,1.7955057140812278
2,222,81727,-77.02330280607566,1600,1.1924686354864389,0.0346381729003042,10,81727,1000000,2.3180808515194804,2.324950440404937,2.3196928188670425
2,223,83327,-65.93593228515238,1600,1.2404280350636692,0.03478925424270807,10,83327,1000000,2.6517683034017683,2.6515422359481455,2.650360571523197
2,224,84927,-61.50379366174457,1600,1.1841958832088857,0.03488940338828625,10,84927,1000000,3.082759469002485,3.081602787524462,3.0783010422531514
2,225,86527,-52.76272346335463,1600,1.1374228814337402,0.034865054164798355,10,86527,1000000,3.3748449170403183,3.3749510423652826,3.373392151664011
2,226,87530,-115.7612117480021,1003,1.3925417420119046,0.03476761690535307,10,87530,1000000,3.6261355423778294,3.624956188455224,3.622057032868266
2,227,88716,-95.79531805519946,1186,1.3258184335494445,0.0346028819796743,10,88716,1000000,3.882703995717279,3.8878740122383935,3.8794446461155254
2,228,89978,-80.25889045116492,1262,1.438689076675782,0.03440503466709271,10,89978,1000000,4.107745517340917,4.109071291864864,4.102661740153082
2,229,90049,-126.46618435904384,71,0.9215002702815193,0.03413718165325643,10,90049,1000000,4.337207056794848,4.332666560581752,4.3497302208627975
2,230,91181,-87.76769365393557,1132,1.238993380185777,0.033973378335379584,10,91181,1000000,4.456538394225382,4.457117170200939,4.452043749115108
2,231,92428,-25.85267049749382,1247,1.0897270573002678,0.03372245323547766,10,92428,1000000,4.706859693652199,4.703110795492126,4.70483185985396
2,232,94028,73.46269549045246,1600,1.1507943497225641,0.033571045262702943,10,94028,1000000,5.024260973073542,5.025470724618063,5.0223450342938305
2,233,95628,114.44996830809396,1600,1.1706498040445148,0.03345682396334372,10,95628,1000000,5.599199970550835,5.599887824263424,5.596630115937441
2,234,95899,-110.38762238249183,271,1.332654229744717,0.033325324594055676,10,95899,1000000,6.029788356798666,6.035831974170826,6.030742867787679
2,235,97048,-7.277611666359007,1149,1.1848263523034883,0.03318151382799136,10,97048,1000000,6.274575920899709,6.272275764691202,6.268159023502417
2,236,98121,14.505005698651075,1073,1.2383632947212069,0.033024982092353265,10,98121,1000000,6.739173358623113,6.739212815783849,6.7335854621691125
2,237,99515,49.92671323369723,1394,1.4226850588919877,0.032888522358680936,10,99515,1000000,7.174524946521512,7.179739900115583,7.17183099256145
2,238,99600,-124.33315595984459,85,1.939829553104937,0.03274475755394017,10,99600,1000000,7.761057925224304,7.783761107921601,7.767604345083237
2,239,99657,-113.60612208396196,57,1.536610196530819,0.03260223327337061,10,99657,1000000,7.494592638015747,7.49463194847107,7.491180267333984
2,240,99956,-98.19551103422418,299,1.2727910900424266,0.032487672352213684,10,99956,1000000,7.879018084756259,7.869087190463625,7.877847655888261
2,241,100497,-20.947891782037914,541,1.5918885231018067,0.032372534008235,10,100497,1000000,7.873504651475836,7.8767958093572545,7.865581436068924
2,242,102021,269.21682581782807,1524,1.4717598863828338,0.0322372495260115,10,102021,1000000,8.035020698999103,8.034766701804964,8.031820819095561
2,243,102956,46.54497978184372,935,1.6210259478098603,0.03210094633607359,10,102956,1000000,8.293610190063395,8.293464152530957,8.287521820939997
2,244,103370,-41.57406430132687,414,1.5054634060801528,0.03197174693826913,10,103370,1000000,8.442723292839236,8.445292761267686,8.43757182795827
2,245,103530,-98.39301212038845,160,1.525084082596004,0.031860055020456475,10,103530,1000000,8.446748638153077,8.453149005770683,8.44831053763628
2,246,103906,-92.1566337607801,376,1.613755175390759,0.03175373587652844,10,103906,1000000,8.621376392648028,8.619478803067594,8.618701052021336
2,247,104046,-101.19093424710445,140,1.4308208016412598,0.0316902569013,10,104046,1000000,8.703699507032121,8.702330572264534,8.694274650301253
2,248,104186,-129.399856521748,140,1.927245891732829,0.03159218817790251,10,104186,1000000,8.751926667349679,8.751966251645769,8.73715614931924
2,249,104424,-80.55383537616581,238,1.7885071584711905,0.03147026699568544,10,104424,1000000,8.485082238653431,8.480422859606536,8.477554939104163
2,250,104552,-109.19844677299261,128,1.363962917899092,0.03138660304492414,10,104552,1000000,8.823861908912658,8.811526997884114,8.825735334555308
2,251,105440,10.686345643363893,888,1.4004127306863665,0.031307894274215,10,105440,1000000,8.735256546193904,8.730770533193242,8.728005141290751
2,252,105874,-48.97341267578304,434,1.3234675779938698,0.03128020159042133,10,105874,1000000,8.54012265704399,8.540141298050104,8.534053033451702
2,253,106714,12.301177417393774,840,1.3659835125718798,0.031197883942501982,10,106714,1000000,8.654388344571704,8.659044135468347,8.654159437758581
2,254,107779,75.49750298960134,1065,1.4703100693745996,0.031144897531992635,10,107779,1000000,8.733411435361178,8.735851510065906,8.729045251855311
2,255,107870,-104.03038537874818,91,1.6015610141886605,0.031079561709295826,10,107870,1000000,8.845816930135092,8.829951307508681,8.823943196402656
2,256,107933,-106.54640362691134,63,1.834117108831803,0.030997952122480174,10,107933,1000000,8.991738335291545,8.992961080869039,8.972211956977844
2,257,107992,-104.4002493689768,59,0.9688578489422798,0.030914586796613318,10,107992,1000000,8.798072118759155,8.786166248321534,8.81532883644104
2,258,108166,-95.96633976884186,174,1.535848303007729,0.030837463012653877,10,108166,1000000,9.152238122154685,9.140978930978214,9.142056274414063
2,259,109723,268.2729423320852,1557,1.5192057492559956,0.030754772248850048,10,109723,1000000,9.018673513166366,9.015570575344947,9.010718526224936
2,260,111238,275.21783944615163,1515,1.6395542777038568,0.030791762629610912,10,111238,1000000,9.07157783113568,9.067548879171838,9.06441700426948
2,261,111787,-21.029281899333,549,1.6471792195406225,0.030773405922711262,10,111787,1000000,9.02157306406233,9.032106608814663,9.020016690536782
2,262,113387,261.2888560798019,1600,1.7819957756903022,0.030701066435966925,10,113387,1000000,8.925321809053422,8.925907714515924,8.918666862696409
2,263,114987,267.15958217944717,1600,1.5691989150177688,0.03069555805785354,10,114987,1000000,8.912872970104218,8.912271692156791,8.90513059720397
2,264,116587,232.611522892199,1600,1.6515901862550526,0.030661915542188625,10,116587,1000000,8.896998994201422,8.89593699067831,8.892591550201178
2,265,118187,236.91755062784068,1600,1.6838847219431772,0.03062188782070801,10,118187,1000000,9.00651864990592,9.008220235407352,8.998868722319603
2,266,119162,11.636948904022574,975,1.5237895793521528,0.03058127611579235,10,119162,1000000,9.11181129081962,9.11074076387071,9.104604761870865
2,267,120762,210.34528235229664,1600,1.6333420888520778,0.030521950556706357,10,120762,1000000,9.316560597717762,9.317101562619209,9.306678984165192
2,268,121959,76.06620740308426,1197,1.5905383499354875,0.030437311353471712,10,121959,1000000,9.432493727748133,9.435543874732586,9.42955662062188
2,269,122949,34.4669601644855,990,1.6206434536236103,0.03035502977804894,10,122949,1000000,9.669926054309112,9.66967919571231,9.662935255753874
2,270,124520,268.2552434077952,1571,1.383107364291598,0.03028595595749923,10,124520,1000000,9.885987597817827,9.882289313662584,9.881240578973369
2,271,125833,60.52288227691315,1313,1.3287115117122654,0.030211693350486304,10,125833,1000000,10.046469669123642,10.048163193782777,10.041300311707358
2,272,127433,242.248797532171,1600,1.2723253537993877,0.030128953415958636,10,127433,1000000,10.13964874535799,10.138458427488803,10.132455562353135
2,273,129029,260.6713273562491,1596,1.3992634202371228,0.030060705524575064,10,129029,1000000,10.352792837784726,10.353649001901255,10.346632004683872
2,274,130615,261.4361835774034,1586,1.3707649799276003,0.029971816104210954,10,130615,1000000,10.622978558721421,10.621567536607573,10.61796709615973
2,275,130804,-86.71325075719506,189,1.1594736164228783,0.02991234503029024,10,130804,1000000,10.757855444484287,10.753946929507785,10.748977557818096
2,276,132404,218.61658423405606,1600,1.4810650485707446,0.029837094934450255,10,132404,1000000,10.847059073746204,10.845164415538312,10.839941907823086
2,277,134004,196.25554854073562,1600,1.4588314825296402,0.029780147560685394,10,134004,1000000,11.16715826958418,11.165565587580204,11.15998057961464
2,278,135604,258.96889043133706,1600,1.4184308332344517,0.029715698646883663,10,135604,1000000,11.432176160514354,11.436253739595413,11.427493663430214
2,279,136985,275.54089744528756,1381,1.4978828800761181,0.029675183427375146,10,136985,1000000,11.521424536083055,11.520430312640425,11.516989605323127
2,280,138426,271.9079995639622,1441,1.3743433007401311,0.029644645264494084,10,138426,1000000,11.586080504457156,11.583697142534787,11.578980129957198
2,281,138495,-119.37904988089576,69,1.8932171375801166,0.029566004242472074,10,138495,1000000,11.617224645614623,11.618721993764241,11.606221596399942
2,282,139918,271.565648625372,1423,1.3492029341960876,0.02949345239656575,10,139918,1000000,11.798790216445923,11.793566740062875,11.79044440564975
2,283,141348,271.56472420762293,1430,1.3612373103107607,0.029423938498073808,10,141348,1000000,11.982567783502432,11.98983089773805,11.97998317471751
2,284,142681,278.3594252569601,1333,1.3780072244598454,0.029397092813598938,10,142681,1000000,12.006617634278491,12.007481568200248,12.000131518858716
2,285,143058,-71.9648817339912,377,1.3234813988208771,0.029368622418446216,10,143058,1000000,12.25131254196167,12.252826542467684,12.248333446399586
2,286,144499,271.544060805114,1441,1.3089295364916325,0.02931998644553775,10,144499,1000000,12.202029078205426,12.198350377546417,12.195588907599449
2,287,145861,278.73662482155487,1362,1.2887691024362165,0.029275414196171096,10,145861,1000000,12.246624291644377,12.25001096164479,12.240853322604123
2,288,147229,276.59614347293973,1368,1.3368810938013826,0.029237587616615778,10,147229,1000000,12.339674996628482,12.337540751345017,12.332692778110504
2,289,148438,285.9808958149515,1209,1.1723188689971964,0.029187693295487458,10,148438,1000000,12.440153350830078,12.441784543991089,12.436179333527884
2,290,149679,286.06204815302044,1241,1.2094561510208635,0.029097455646896336,10,149679,1000000,12.626229803792892,12.626814088513774,12.622307987366954
2,291,150939,282.50871932622977,1260,1.357512595415825,0.029012722450789046,10,150939,1000000,12.68924349981641,12.688138201880077,12.682678066738069
2,292,152161,285.10836529615335,1222,1.0750800379811496,0.028929165241808694,10,152161,1000000,12.829619825081748,12.82678084295304,12.826205649923105
2,293,153415,282.47369636502117,1254,1.2964806541085243,0.028856119267458534,10,153415,1000000,12.967750331115722,12.965096870422363,12.963484628295898
2,294,154584,287.677114488557,1169,1.1561413872601658,0.0287741434846942,10,154584,1000000,13.02071295606679,13.019199144429175,13.017266007127432
2,295,155749,287.1067080749199,1165,1.1545949096438186,0.028690539571034967,10,155749,1000000,13.208527498409666,13.204545379507131,13.20387324135879
2,296,156986,281.87819706462324,1237,1.1376115013186525,0.028616547007767255,10,156986,1000000,13.255743870308729,13.252667965540072,13.248334739654045
2,297,158229,279.8402288928628,1243,1.011743074523345,0.02857892904481271,10,158229,1000000,13.422474154349297,13.423548677659804,13.418522463306305
2,298,158530,-96.35906552243978,301,1.6937258121619623,0.028478591372746224,10,158530,1000000,13.37824388186137,13.3697305393219,13.368497999509176
2,299,159754,280.13131105015054,1224,1.3178133754120742,0.028415617697827585,10,159754,1000000,13.525201278436379,13.521808444476518,13.518617251661958
2,300,160920,287.05784554407,1166,1.153810766339302,0.028351918526558984,10,160920,1000000,13.650223697053976,13.645558921633096,13.64244487655574
2,301,161366,-40.32290863338858,446,0.9933071520348842,0.02827000416570092,10,161366,1000000,13.578709444132718,13.576685443791476,13.575378411466426
2,302,162641,280.2037391369231,1275,1.2809188487081546,0.028215102684442644,10,162641,1000000,13.699911350340354,13.699152145986481,13.693044353094626
2,303,163790,74.55259768944234,1149,1.0066927806555963,0.028149498036214374,10,163790,1000000,13.689904653816892,13.685370935473525,13.682553570730644
2,304,164783,-12.024829769856296,993,1.1765024585781074,0.02810719535260009,10,164783,1000000,13.76882490678267,13.770789890096646,13.761317385085906
2,305,165882,291.2465938515961,1099,1.088166313714117,0.02808884161492127,10,165882,1000000,13.743569311964402,13.744057238867523,13.744077567879213
2,306,166332,-81.2309141807491,450,0.9684968829651673,0.028007004391795456,10,166332,1000000,13.83137123743693,13.835642081366645,13.83146453221639
2,307,167562,284.1497488874011,1230,1.061515524571504,0.02797688549039115,10,167562,1000000,13.793931060884058,13.792831786861264,13.789395177267432
2,308,168882,276.29665115696844,1320,1.0957733505151488,0.0279136956381734,10,168882,1000000,13.778963229150483,13.778987104242498,13.777958231983764
2,309,170302,265.02219572197646,1420,1.0181493147814147,0.02785878314169809,10,170302,1000000,13.800339960044539,13.79954304090688,13.79677307437843
2,310,171388,288.3643534258008,1086,1.1295463364191904,0.027868550458647553,10,171388,1000000,13.807560693776166,13.813494684961107,13.807478914437471
2,311,172546,284.0786741967313,1158,1.000920362893654,0.02779209499758277,10,172546,1000000,13.86701764728712,13.867571026345958,13.86525403810584
2,312,172769,-122.45435481052846,223,0.8495856911282648,0.02773212452062602,10,172769,1000000,13.823491993817417,13.823121825131503,13.819647247141058
2,313,173853,18.97696148348041,1084,1.2642739130804936,0.027669325300320083,10,173853,1000000,13.847431902532223,13.84734340597082,13.842999181482528
2,314,174161,-88.34655005845707,308,1.187942942728599,0.027634611060851102,10,174161,1000000,13.82332397143046,13.820318562189739,13.820198386510214
2,315,174741,35.112532993778586,580,1.247080164955094,0.02759234134272179,10,174741,1000000,13.95088443098397,13.95411471333997,13.945924101204708
2,316,175837,143.97201670717914,1096,1.3376539816071682,0.027552755689931232,10,175837,1000000,13.85422541154634,13.851694913741646,13.849281545516547
2,317,175891,-108.98715198785067,54,1.250282910466194,0.02750501053333572,10,175891,1000000,13.94482566833496,13.921061801910401,13.927056827545165
2,318,176800,114.21981191542,909,1.1723684614317285,0.02744289001505072,10,176800,1000000,13.808624368243747,13.80595869700114,13.80147596359253
2,319,177390,63.14509866014123,590,1.1313427045436228,0.027387303840638935,10,177390,1000000,13.737454963134507,13.728139222678491,13.7312287581169
2,320,177464,-96.67003791593015,74,1.212656609926905,0.027359952154768514,10,177464,1000000,13.873109027317591,13.870872906276158,13.865339919498988
2,321,178057,54.63042788160965,593,1.0960489450496131,0.027311823805216243,10,178057,1000000,13.892426280652062,13.884312822050967,13.8875936346539
2,322,178706,60.96933478675783,649,1.176746354298666,0.027263683312766844,10,178706,1000000,13.678237491846085,13.684444200992584,13.679089215397834
2,323,178775,-102.70149645861238,69,1.0175265621393919,0.02724093293669743,10,178775,1000000,13.839613485336304,13.836955658594768,13.83533624013265
2,324,178841,-110.92932862835005,66,1.0154993061597148,0.02719298042819516,10,178841,1000000,13.733480962117513,13.727538522084554,13.726404047012329
2,325,179691,122.87104975059628,850,1.2355139278489,0.02715760689449373,10,179691,1000000,13.830352835935704,13.831535328135772,13.832931588116814
2,326,180863,280.21246713912115,1172,1.0894864242173667,0.027129989582380963,10,180863,1000000,13.76096917951209,13.75648910000793,13.755733533598418
2,327,181271,-5.581118414178491,408,1.1780477241426706,0.027092107102570383,10,181271,1000000,13.713447971343994,13.70878306388855,13.707332894802093
2,328,181642,-11.833770144730806,371,1.349506699837543,0.027055027846443393,10,181642,1000000,13.677395789687697,13.673780150026888,13.669877281704464
2,329,182749,285.2671379079111,1107,1.2996936430646615,0.027034100421652246,10,182749,1000000,13.760050248232755,13.760867495103316,13.759306538321756
2,330,183148,-8.330055230297148,399,1.3145051619181267,0.027009022922584697,10,183148,1000000,13.714574107145651,13.710680083739453,13.703908949631911
2,331,183600,-5.918120353948325,452,1.1382827001644504,0.026971528429564063,10,183600,1000000,13.700273236168755,13.700125075446234,13.697584478590224
2,332,183677,-97.20305503881536,77,1.469753008868013,0.026925203888077395,10,183677,1000000,13.526611886705671,13.512796565464564,13.529483154841833
2,333,183944,-103.6002139840275,267,1.455288884559503,0.026885193623065504,10,183944,1000000,13.700421674434955,13.700188900874211,13.695426313693707
2,334,184991,171.03698432911187,1047,1.222261352228144,0.026844896629501132,10,184991,1000000,13.683324723060315,13.683329777534192,13.678221816741504
2,335,186093,283.5719996620901,1102,1.3161403878473423,0.02683086784733657,10,186093,1000000,13.700943688479336,13.698876675692471,13.695180567828091
2,336,186397,-33.020668926648796,304,1.4941021017978589,0.026829102977980322,10,186397,1000000,13.635516131718953,13.6378693040212,13.633887205123902
2,337,187485,283.70724964747205,1088,1.3371390580648073,0.026801093236369256,10,187485,1000000,13.656424889741121,13.656962428269562,13.654337718751695
2,338,187582,-91.17852502502501,97,0.9730574894282553,0.0267842850934558,10,187582,1000000,13.36759548187256,13.360807408226862,13.363030264112684
2,339,187664,-99.10214602202177,82,1.3014780738390983,0.026738653575428144,10,187664,1000000,13.8286456823349,13.818899655342102,13.820265018939972
2,340,187875,-50.12455916404724,211,1.435772973760253,0.026695463357119736,10,187875,1000000,13.70853872753325,13.708185073307583,13.688280818575905
2,341,189029,280.72877675294876,1154,1.1758201656458172,0.026652459341485482,10,189029,1000000,13.712214945088261,13.715179810731307,13.712737615834111
2,342,189852,86.4787715470884,823,1.1700365593157163,0.026647192851893518,10,189852,1000000,13.571195683828215,13.574909757986301,13.565987257841156
2,343,190999,280.35342764586676,1147,1.2282369705211176,0.026637026490463473,10,190999,1000000,13.667264094269067,13.664164186778821,13.664203778484412
2,344,192140,280.71625341288745,1141,1.1695929256578286,0.026644406412079782,10,192140,1000000,13.68447590710824,13.682167585272538,13.680210834637023
2,345,193403,269.0896271420643,1263,1.2203022662727605,0.02664236603627602,10,193403,1000000,13.71579048557887,13.71235742947412,13.711108332210117
2,346,194491,282.2710456154309,1088,1.2148388628951376,0.026705454506851717,10,194491,1000000,13.722365200961077,13.722748743163216,13.72429311716998
2,347,195587,281.07556635630317,1096,1.1895885369714794,0.02671123911685126,10,195587,1000000,13.813201222725965,13.811164462238278,13.810681684301533
2,348,196682,284.107907069847,1095,1.1852940877438138,0.02672593653491368,10,196682,1000000,13.851690223676348,13.850065144705116,13.847124097106654
2,349,197830,281.0646712137386,1148,1.2610030535151038,0.026726920226388354,10,197830,1000000,13.853486399064984,13.852372343498363,13.844707161920113
2,350,199043,273.8216723576188,1213,1.3294083500573457,0.02676134255018233,10,199043,1000000,13.805379691005738,13.805150575874265,13.801724081591141
2,351,200209,279.62349965050817,1166,1.3506867904537196,0.026806172830820187,10,200209,1000000,13.927615917962173,13.930296139059395,13.920572853088379
2,352,201323,282.82633047550917,1114,1.3280721908519129,0.02684272177142662,10,201323,1000000,14.012174392390895,14.011015483924934,14.007704416910807
2,353,202375,286.9566387189552,1052,1.2466322088951156,0.02683320240456488,10,202375,1000000,14.080586182730539,14.079642180488223,14.07856839316232
2,354,203430,289.9475471563637,1055,1.214931653053278,0.026825175682389284,10,203430,1000000,14.11966126759847,14.116790480840773,14.11452058610462
2,355,204634,278.72427251562476,1204,1.3424248856989045,0.026807920613946233,10,204634,1000000,14.202377034028371,14.198649013837178,14.19601134777069
2,356,206234,-83.77857836289331,1600,1.2919642533734441,0.02681442696226603,10,206234,1000000,14.248759207129478,14.246488956809044,14.240904930233956
2,357,207834,-99.29071429069154,1600,1.226172363772057,0.026735245045852958,10,207834,1000000,14.320518620610237,14.32333395898342,14.317351320385933
2,358,209434,-102.72038232086925,1600,1.3324427008861677,0.026551836084128897,10,209434,1000000,14.369917998313904,14.365039901733399,14.363551602363586
2,359,211034,-96.17006351216696,1600,1.3492856684699654,0.026382869210006165,10,211034,1000000,14.30825361251831,14.307650061249733,14.303895463943482
2,360,212264,277.98940628324635,1230,1.1532442039923696,0.026235944335574954,10,212264,1000000,14.334631545369218,14.337094569012402,14.333742618560791
2,361,213462,280.49863762641326,1198,1.210948575065792,0.026217846406730822,10,213462,1000000,14.287280815188625,14.293169274851053,14.286205577048936
2,362,214726,276.0247044702992,1264,1.5258551551058652,0.026205823125959444,10,214726,1000000,14.204580637765309,14.200640757121738,14.192567131254409
2,363,215908,283.2766862632707,1182,1.1771432032271967,0.026192613056725277,10,215908,1000000,14.272339430501905,14.270373633756476,14.265102839065811
2,364,217080,281.847331664525,1172,1.267146192373246,0.026178741807279356,10,217080,1000000,14.206078020731608,14.202469811887823,14.201383205152984
2,365,218404,273.886808084324,1324,1.1584934179247781,0.02616733961710424,10,218404,1000000,14.2639484427192,14.263793849945069,14.257147617051096
2,366,219604,283.13559445226565,1200,1.1382354511941473,0.0261423944655388,10,219604,1000000,14.250919252236685,14.251428147951762,14.248112246195475
2,367,220711,287.35787367168814,1107,1.0846005808087913,0.0261347220262251,10,220711,1000000,14.197470976222645,14.199708282297308,14.194934218146583
2,368,221959,277.0318546695635,1248,1.18077019073009,0.02609541018256501,10,221959,1000000,14.124416710484413,14.12867815725265,14.123854890946419
2,369,223163,278.0746734943241,1204,1.164667011545971,0.02608878253137364,10,223163,1000000,14.152728890577952,14.153162972132366,14.148191955884299
2,370,224279,282.65213996288367,1116,1.1929560208105827,0.02607056962299794,10,224279,1000000,14.257386507429517,14.25488090257387,14.24801730508203
2,371,224507,-50.909919946454465,228,1.031666984290562,0.026046063140023334,10,224507,1000000,14.135526093569668,14.129758475043557,14.140891820734197
2,372,224944,-15.46320623671636,437,1.0657106319052536,0.026004493549250666,10,224944,1000000,14.240555120068928,14.233464329741722,14.229752973068592
2,373,226048,286.87481340626255,1104,1.0800156905840743,0.02596852523313613,10,226048,1000000,14.257835132425482,14.259491174871272,14.259765232259577
2,374,227237,280.76721815019846,1189,1.1231610168213562,0.025958562652601887,10,227237,1000000,14.24889136330556,14.24599205437353,14.243369513042902
2,375,228322,288.87201131135225,1085,1.1511512912775355,0.025962543787839985,10,228322,1000000,14.30684336732935,14.30425173441569,14.301012370321486
2,376,228386,-101.27283687703311,64,0.8220165527115265,0.025926483435478945,10,228386,1000000,14.420479567845662,14.398645273844402,14.413446633021037
2,377,228443,-107.47803195472807,57,1.4500876118987798,0.02589522154447699,10,228443,1000000,14.288524684906006,14.266895503997803,14.27189157485962
2,378,229344,155.28650506353006,901,1.0253106620700823,0.025862012211350316,10,229344,1000000,14.496154982248942,14.49702546013726,14.493644397523669
2,379,230339,293.2942875260487,995,1.1211978550812212,0.02582671829344951,10,230339,1000000,14.51999211263175,14.521899181905418,14.516933755200318
2,380,231396,291.3499868195504,1057,1.122603323605089,0.025794380063983217,10,231396,1000000,14.56593294325329,14.566246097201393,14.561309648241316
2,381,232996,-79.2146637631813,1600,1.1061582043557427,0.02574798900891204,10,232996,1000000,14.560421838164329,14.56017725944519,14.557384459972381
2,382,234596,207.22289816092234,1600,1.2495247495966033,0.02574775829965815,10,234596,1000000,14.600173563361167,14.596146457195282,14.590155565738678
2,383,236196,-72.3212849010597,1600,1.0487506802682764,0.02567968009638951,10,236196,1000000,14.541627777814865,14.539112337231636,14.535754953026771
2,384,237492,283.86614654236473,1296,1.0983068388273087,0.025762168959386524,10,237492,1000000,14.526894166488056,14.520974637556446,14.517340993511585
2,385,238505,58.23873256519437,1013,0.9732575856296732,0.0257231272257401,10,238505,1000000,14.448001197777172,14.448730765238848,14.44342378672987
2,386,238620,-83.56191075220704,115,0.8811128414151344,0.025702779010375727,10,238620,1000000,14.324261639334939,14.339813483845104,14.331982378526167
2,387,240149,266.0774364005774,1529,0.9727373343059107,0.025669973920790935,10,240149,1000000,14.331260967882056,14.331112908062183,14.326931869983673
2,388,241749,-40.81939187482931,1600,1.110565252660308,0.025631195491718627,10,241749,1000000,14.292401674985886,14.288292635083199,14.28640760421753
2,389,243349,41.260552655439824,1600,1.058257722586859,0.025745122649806874,10,243349,1000000,14.186508926153182,14.189780614376069,14.1836071652174
2,390,244493,289.9428531108424,1144,1.1302890067691342,0.025788804942186463,10,244493,1000000,14.146235558024625,14.149785838210791,14.140349930211118
2,391,245576,294.75520438794047,1083,1.1703832242465406,0.02574890518622769,10,245576,1000000,14.08530558038641,14.088263543446859,14.083905577659607
2,392,246599,296.71165907848626,1023,1.292332455059331,0.02569596115920562,10,246599,1000000,14.167246600693348,14.167369243210437,14.15943743200863
2,393,247344,126.90430516470224,745,1.1342201403216332,0.025648802697952538,10,247344,1000000,14.120873390661703,14.113594898017677,14.11071057448516
2,394,248427,293.57205266994424,1083,1.13529784547303,0.025613877311184374,10,248427,1000000,14.084926981396146,14.079712651394031,14.076744204980356
2,395,249438,298.5464993286878,1011,1.216691371650979,0.025586938967486633,10,249438,1000000,14.078981096437662,14.079987683626685,14.076781287051663
2,396,250495,294.39358033798635,1057,1.132020247844713,0.025551424907044873,10,250495,1000000,14.162353807176862,14.15943630309332,14.154770866575696
2,397,251529,294.9739716772456,1034,1.047728148804417,0.025515138647114653,10,251529,1000000,14.21350965870237,14.21550896746441,14.210796078431953
2,398,252546,297.85625702887774,1017,1.0775247166357418,0.025494153092274516,10,252546,1000000,14.282044160484087,14.282838813857277,14.278652099571605
2,399,253516,298.43337078532204,970,1.1772897452308038,0.025442562906664717,10,253516,1000000,14.325702905163322,14.327852728932175,14.323515976581376
2,400,254536,297.2426386801526,1020,1.2239724533413263,0.025406271378048743,10,254536,1000000,14.39322920406566,14.396005331301222,14.3901045069975
2,401,255861,280.90293670538813,1325,1.1887108775730613,0.0253683581343639,10,255861,1000000,14.478598884380226,14.477682542800903,14.4679716796586
2,402,256814,300.28965975902975,953,1.3664744428858946,0.025355459052372027,10,256814,1000000,14.453925563410708,14.464702189596077,14.454858496816534
2,403,257805,297.616899240762,991,1.2218237179811253,0.025318746626421675,10,257805,1000000,14.525005561173565,14.524882460122157,14.518132838817557
2,404,258740,300.7186663467437,935,1.0523297437216326,0.025289728328861845,10,258740,1000000,14.50138185254989,14.501167659349338,14.499593875228717
2,405,259661,302.75951435789466,921,0.9096796948786663,0.025265290426588295,10,259661,1000000,14.555686373295991,14.55585221104,14.549448190564695
2,406,260056,17.57058191113174,395,0.8676206395125542,0.025227835492759376,10,260056,1000000,14.625143016912999,14.623945270440517,14.619506134131015
2,407,261015,298.0968704111874,959,1.0503895844283857,0.025204554761718647,10,261015,1000000,14.667629043177554,14.67155827672858,14.662111347600034
2,408,261970,299.2792734215036,955,1.0040577734614673,0.02516616654597859,10,261970,1000000,14.62628551181994,14.624647107375296,14.625403575897217
2,409,262903,299.3917805682868,933,1.1392681418247121,0.025128172545576376,10,262903,1000000,14.617140100335561,14.619041965853784,14.61308498177477
2,410,263594,106.93636500835419,691,0.9700976483145918,0.025093922433894203,10,263594,1000000,14.64569191587144,14.649018261398094,14.644927747698798
2,411,264050,27.747072180733085,456,1.1112736117674245,0.0250710862281738,10,264050,1000000,14.6566858736674,14.664615779452854,14.652438297271729
2,412,264990,296.4796787442174,940,1.1804803358390927,0.02504740645931332,10,264990,1000000,14.71627423611093,14.720439059683617,14.709881130177925
2,413,265938,296.7029967531562,948,0.9720094758779445,0.025011653824920814,10,265938,1000000,14.715131389333846,14.718901233470186,14.711858112254042
2,414,266858,299.68932844512165,920,1.1511698043176337,0.024990374102647785,10,266858,1000000,14.728537542923638,14.725690077698749,14.7239568648131
2,415,267735,188.20725598186255,877,1.0206954420983105,0.024956245236313273,10,267735,1000000,14.80990953226199,14.812189677665973,14.807606860412948
2,416,268749,292.3760692104697,1014,1.1810677093186295,0.02491100388482522,10,268749,1000000,14.761285914997064,14.76257654794372,14.755137049797739
2,417,269654,299.6940387878567,905,1.1164146987472972,0.024880479258542254,10,269654,1000000,14.776084351009793,14.776742069456313,14.776148216459486
2,418,270562,298.39390731044114,908,0.9200583129458957,0.024847214639035914,10,270562,1000000,14.790266225602892,14.78911805152893,14.786257802115546
2,419,270872,-8.396883095614612,310,1.1961850172329334,0.024811653395870117,10,270872,1000000,14.874578377508348,14.884165410072573,14.87156746156754
2,420,271784,298.6711124498397,912,1.2852896963502025,0.024781904931555174,10,271784,1000000,14.876148940704681,14.877850177261855,14.870338702987839
2,421,272706,298.81130655296147,922,1.3958193967402306,0.024752407977688136,10,272706,1000000,14.960308542458908,14.962742709076922,14.95399527653404
2,422,273607,300.96946859546006,901,1.4128058036292592,0.024721033502958935,10,273607,1000000,15.059503996107313,15.059458258946737,15.049398461447822
2,423,274564,298.58266067132354,957,1.2907762398766844,0.024676906987187566,10,274564,1000000,15.127618000632838,15.129572792053223,15.11865568060624
2,424,275545,294.30771081522107,981,1.240041398557321,0.02465187702617557,10,275545,1000000,15.290408389422359,15.290562907043768,15.282373333950432
2,425,276440,197.539982592687,895,1.328354079966967,0.024621011606559544,10,276440,1000000,15.338514945212374,15.331909456145898,15.331391584203484
2,426,277121,105.2594804763794,681,0.9189339761129197,0.024592015233407573,10,277121,1000000,15.263049801658182,15.265252395237193,15.259697264783522
2,427,278042,299.615546181798,921,1.1314781839635386,0.02455632003059798,10,278042,1000000,15.341294197414232,15.33250064227892,15.332900734569716
2,428,278942,298.8317649513483,900,1.2060149230476882,0.024523151836754208,10,278942,1000000,15.383705951902602,15.385353247324625,15.3774992412991
2,429,279862,299.1624932605773,920,1.1219081224549723,0.024476258838700343,10,279862,1000000,15.382588347144749,15.383555960655212,15.375504939452462
2,430,280594,129.2399063706398,732,1.1263878866723955,0.024456029071649534,10,280594,1000000,15.372606180791985,15.368433474187981,15.36294799177614
2,431,281524,297.93921481631696,930,1.2051994112190059,0.02441992316986468,10,281524,1000000,15.439776296513054,15.443402468773627,15.433569901989353
2,432,282402,299.8906096983701,878,0.9748958379715339,0.024383620177371633,10,282402,1000000,15.475742971486058,15.475064252436846,15.472189114011567
2,433,283332,296.3813410848379,930,1.1467917244320596,0.024342738930895884,10,283332,1000000,15.363690169139575,15.360925373979795,15.3578353810054
2,434,284259,296.4026595056057,927,0.8184461753248521,0.024297350181930213,10,284259,1000000,15.563714290701824,15.563749221096868,15.562414583952531
2,435,285158,298.84266855660826,899,1.009130721643902,0.024278243515338447,10,285158,1000000,15.517923734429177,15.517276306366652,15.515834097915821
2,436,286096,294.0209372099489,938,1.071875246626235,0.024242831227838477,10,286096,1000000,15.507969770123882,15.508482642840313,15.503386764116184
2,437,286999,298.75847667455673,903,0.8646015820031365,0.024205101706739042,10,286999,1000000,15.65149787902832,15.649504839579265,15.643657151328194
2,438,287695,121.3954845815897,696,1.1168005674105623,0.024163279782758028,10,287695,1000000,15.784659315192181,15.77591229037962,15.77532555953316
2,439,288505,139.18184193782508,810,1.2838055388519058,0.02413926293587483,10,288505,1000000,15.678283860948351,15.676843394762203,15.670684351744475
2,440,289399,300.2739897444844,894,1.226021624046765,0.024109154621270404,10,289399,1000000,15.736828629354413,15.732671183682559,15.727672142928906
2,441,290298,299.27365795802325,899,1.3192883058084865,0.02407856281890718,10,290298,1000000,15.796515225828363,15.796493260244306,15.789999173196515
2,442,291211,298.30476946476847,913,0.9947989424997634,0.024054294714891022,10,291211,1000000,15.746573498484853,15.749541417845004,15.741767734485668
2,443,292101,299.96812135726213,890,1.106838393299265,0.0240262233422552,10,292101,1000000,15.857209580667902,15.855420814471298,15.850222047527184
2,444,293035,296.4776034960523,934,1.1277721361487463,0.02398754156175854,10,293035,1000000,15.911105905553345,15.911015280856882,15.904407709388323
2,445,293369,-8.923094894737005,334,1.3319803313775496,0.02396504749812073,10,293369,1000000,15.882433538725882,15.882711818001487,15.870696963685932
2,446,294309,296.03609137795866,940,1.1713391066112735,0.02393327140901373,10,294309,1000000,16.009650358240656,16.0044760176476,16.00208137491916
2,447,294680,-4.239907645154744,371,1.2176360568182694,0.02391425879839143,10,294680,1000000,15.941823572725863,15.949707897289379,15.943306299158046
2,448,295612,296.52407757844776,932,1.3832954257005645,0.02389250250731193,10,295612,1000000,16.158644441379014,16.15234965765348,16.145299946364535
2,449,296534,299.63251119479537,922,1.2863619721211168,0.02386653496620715,10,296534,1000000,16.097975641748178,16.093856806340426,16.091672933619954
2,450,296789,-26.82207510434091,255,0.9259236402362585,0.02383905825219624,10,296789,1000000,15.914693943023682,15.922554866790772,15.909642013549805
2,451,297447,104.61260395310819,658,1.0581377752813008,0.023807377310891345,10,297447,1000000,16.122723385737494,16.12606173295241,16.119157513838548
2,452,298348,300.13068477250636,901,1.1794269814756182,0.023782791042106267,10,298348,1000000,16.14596612824334,16.145142055087618,16.141439603169758
2,453,299235,300.25679043494165,887,0.9722221354318952,0.023763271230292933,10,299235,1000000,16.23704006238417,16.235346408323807,16.230243303559043
2,454,300121,159.7845998071134,886,1.1614198836751959,0.023725540536885324,10,300121,1000000,16.196734696084803,16.197265999967403,16.193377078663218
2,455,300802,121.01555098593235,681,1.0308708387043546,0.02369957016420734,10,300802,1000000,16.16070942738477,16.157649811576395,16.154828856973086
2,456,301698,300.3885911293328,896,1.0716387706861068,0.023662093143830908,10,301698,1000000,16.230187227484887,16.23379748698031,16.231896151853412
2,457,302590,299.2320005055517,892,1.0218443317024895,0.023625757165114017,10,302590,1000000,16.338349535224143,16.341015264961158,16.335356080130246
2,458,303546,298.77133446745574,956,0.9604940746567752,0.023589044122849182,10,303546,1000000,16.337202429520456,16.33552535107261,16.333064396506863
2,459,304441,299.0516996011138,895,0.9451634174317456,0.023577208521601688,10,304441,1000000,16.452858435170036,16.449200244432085,16.445967973216195
2,460,304659,-84.3702231226489,218,0.952446744307166,0.023533092692383687,10,304659,1000000,16.32285555430821,16.32113775525774,16.316263780139742
2,461,305111,34.20531531702727,452,1.1205386995772522,0.02350680332453478,10,305111,1000000,16.484592198265922,16.47561766518487,16.469267321692573
2,462,305502,13.834283247590065,391,0.9085379749154433,0.023480388894677164,10,305502,1000000,16.445343624017177,16.446157592382185,16.445127369807317
2,463,305704,-46.67736724950373,202,0.7836316191591323,0.023452804023548275,10,305704,1000000,16.40613727092743,16.41281078338623,16.40333076477051
2,464,306640,298.618900179863,936,1.3170179791267842,0.023434283338603628,10,306640,1000000,16.521272399861324,16.522965465053435,16.513322635363508
2,465,307595,297.48856364004314,955,1.1572194034880714,0.023404293252708635,10,307595,1000000,16.616057296552157,16.614298632772346,16.609503314369604
2,466,308214,98.32496686838567,619,1.4032943741219943,0.023371385802033292,10,308214,1000000,16.63828167368154,16.634089948310226,16.63168957507024
2,467,308934,116.95549054816365,720,0.9934072279319581,0.02334362569061978,10,308934,1000000,16.68293330801858,16.683262454138863,16.681969349914127
2,468,309289,2.9239621479064226,355,1.119421954335911,0.023315089440921546,10,309289,1000000,16.594341288975308,16.59474664415632,16.594072611672537
2,469,310230,297.011929878965,941,1.3252434370920378,0.023298421344631424,10,310230,1000000,16.681523526983057,16.682111992734544,16.673834673901823
2,470,310960,148.45964132621884,730,1.216420219307893,0.023267850267913365,10,310960,1000000,16.63754092830501,16.63623940585411,16.631486389734974
2,471,311921,296.0621546697803,961,1.3497411657706835,0.023250697744332093,10,311921,1000000,16.78572639922301,16.786647906899454,16.778989906112354
2,472,312849,296.3529112264514,928,1.1143899023532868,0.023217996779868005,10,312849,1000000,16.831363909140876,16.831291130314703,16.824429359643357
2,473,313369,52.7827237797901,520,1.2418049113610043,0.0231900755626968,10,313369,1000000,16.821784353256227,16.824489202866186,16.81873260828165
2,474,313642,-72.58450351655483,273,1.5789984682229934,0.023156925620387403,10,313642,1000000,16.95414599665889,16.947400845421686,16.93392710862336
2,475,314116,2.0291945149656385,474,1.144309021183785,0.023139944022001865,10,314116,1000000,16.96280224374,16.95980270872725,16.95062127214797
2,476,315047,300.22183326724917,931,1.2937223649153144,0.02312295770763954,10,315047,1000000,16.971562710628714,16.97750969343288,16.968973191579185
2,477,315292,-42.88779413513839,245,1.4868308934227874,0.023105063879241546,10,315292,1000000,17.10890612602234,17.10652084350586,17.0975604057312
2,478,316297,296.51811891794205,1005,1.2666932700239122,0.023078758493893004,10,316297,1000000,16.967135864257813,16.959251128196716,16.956976625442504
2,479,317255,297.66487498022616,958,1.035015256330371,0.023053921821669206,10,317255,1000000,17.02364887237549,17.021915937724867,17.014727573394776
2,480,317608,0.15774901118129492,353,1.2127001974093063,0.02304761105357101,10,317608,1000000,17.033057120186943,17.048644856044223,17.038874797821045
2,481,318134,70.22294636070728,526,1.1653024318054892,0.023028336205389553,10,318134,1000000,17.100561176813567,17.094525779210603,17.08940579157609
2,482,319068,294.91745163314044,934,0.9478268395508489,0.0230122420411423,10,319068,1000000,17.167392211832027,17.162606333660822,17.16273442750336
2,483,319509,33.52091366611421,441,1.0007565030320125,0.022983854216831915,10,319509,1000000,17.21783548268405,17.224582700295883,17.21632228114388
2,484,319580,-101.79845134727657,71,0.9689617327281407,0.02296587545459525,10,319580,1000000,17.076398767743793,17.078694820404053,17.05835575376238
2,485,319987,24.83956708945334,407,0.9894989218376576,0.02295324534071315,10,319987,1000000,17.209543561935426,17.20776481628418,17.207296669483185
2,486,320188,-44.030504766851664,201,0.8632058791071177,0.022926384223014126,10,320188,1000000,17.17103949546814,17.18719145298004,17.171875309944152
2,487,320401,-45.049708996899426,213,0.9079619963254247,0.022903214716662963,10,320401,1000000,17.099473494575136,17.109864698137557,17.098561777387346
2,488,320465,-102.78053914336488,64,1.389082007917265,0.02289302265283952,10,320465,1000000,17.23917768796285,17.2428657690684,17.23973128000895
2,489,320538,-97.78076033852994,73,1.1066104274775301,0.022865299196790256,10,320538,1000000,17.619606917245047,17.613308375222342,17.609263815198627
2,490,321434,297.8867581244558,896,0.9711339881057652,0.02286057070227929,10,321434,1000000,17.200853292058024,17.206879321109042,17.202433794000175
2,491,321530,-99.33518696203828,96,0.7666802081796859,0.022831866575694415,10,321530,1000000,16.923599105411107,16.9364092402988,16.927752039167615
2,492,321621,-96.16439070925117,91,0.9164235793881946,0.022818890141538414,10,321621,1000000,17.024403243594698,17.039853148990208,17.03645004696316
2,493,321683,-102.99101352877915,62,1.346143873780966,0.022806386039997677,10,321683,1000000,17.38981533050537,17.369502305984497,17.36315614382426
2,494,322582,298.60117282997817,899,1.0864759295802102,0.022790688510258502,10,322582,1000000,17.209165046991927,17.20866598922215,17.20552950548322
2,495,323495,298.67062706686556,913,1.0397466159620128,0.022772601573043085,10,323495,1000000,17.19934410053295,17.19845512306297,17.192034526447674
2,496,323576,-97.52204673178494,81,0.9308694122824818,0.022750546314327626,10,323576,1000000,17.223223710060118,17.237588453292847,17.23418507575989
2,497,324485,297.5895847948268,909,1.1065416734086142,0.022733982392078213,10,324485,1000000,17.18678824954563,17.186536715825397,17.179719400405883
2,498,325394,298.4503651158884,909,0.8969308758651217,0.022709469339949728,10,325394,1000000,17.155041404300267,17.158226239946153,17.152185667885675
2,499,326327,297.29349367599934,933,1.23064559076422,0.022685530574134007,10,326327,1000000,17.182534928475658,17.183312778062717,17.176773572737172
2,500,326645,-20.647524022962898,318,1.1169381338021447,0.022666260405150712,10,326645,1000000,17.316223310655165,17.321696059934556,17.309967034862886
2,501,326980,-2.4317419826984406,335,1.0760903643049073,0.022642457952394206,10,326980,1000000,17.267732348586573,17.268723542762526,17.26499224287091
2,502,327090,-97.48243038728833,110,1.1254919528961183,0.022632313697034636,10,327090,1000000,17.174066604267466,17.185361350666394,17.179814997586337
2,503,327999,301.83967241551727,909,1.4868117340488567,0.022614700832173006,10,327999,1000000,17.33790643480089,17.336487175623574,17.325826539993287
2,504,328873,304.043305920437,874,1.4839386679189301,0.022591811027392383,10,328873,1000000,17.266699522391132,17.26691778117213,17.257779149899537
2,505,329749,303.58956058416516,876,1.2233641530804593,0.022575145757293885,10,329749,1000000,17.29864464025388,17.304639411794728,17.296018170762338
2,506,330083,-14.684883878100663,334,1.006514282885826,0.022552798734833224,10,330083,1000000,17.266114275383227,17.260758368174233,17.26023261041352
2,507,331003,299.8156355395913,920,1.1661671894035586,0.022532829336382742,10,331003,1000000,17.42586493388466,17.43245656179345,17.422905312413754
2,508,331460,33.06024311296642,457,1.1913009823444818,0.022517185187413212,10,331460,1000000,17.513857216305205,17.518725145128037,17.509886298709446
2,509,332278,178.33966014254838,818,1.019464745528904,0.022497905954710913,10,332278,1000000,17.523047916977493,17.51376535038889,17.516337632544246
2,510,332493,-48.16348724067211,215,1.104854521811718,0.022482461831071665,10,332493,1000000,17.3340771039327,17.34517473947434,17.32896295275007
2,511,332759,-25.773904173634946,266,1.0435105798479456,0.02246661991838597,10,332759,1000000,17.461014956694385,17.45759973892799,17.461982583999635
2,512,333708,296.23401286639273,949,1.1785626923229466,0.02244858954915304,10,333708,1000000,17.56211986541748,17.565130511750567,17.56129228206391
2,513,334146,38.11556607019156,438,0.9900186640232108,0.022434437060554747,10,334146,1000000,17.60251884682234,17.598818936458855,17.600676840405132
2,514,334962,171.56638205237687,816,1.2416848323227447,0.022421980415438785,10,334962,1000000,17.71564715821066,17.716270151256044,17.709586255344345
2,515,335684,126.66348060034215,722,1.129609386690168,0.022399777852788672,10,335684,1000000,17.653549014197456,17.64906936619017,17.641538076930576
2,516,336601,298.95208752527833,917,1.2196420955011151,0.022381228475364723,10,336601,1000000,17.7069462618985,17.710130715632175,17.70297992203262
2,517,337143,70.13496068492532,542,1.2109767668432108,0.022361095205236665,10,337143,1000000,17.760799462706956,17.766879943565087,17.761316601435343
2,518,337415,-29.13546479679644,272,1.0510690079932963,0.022343718147673386,10,337415,1000000,17.674388892562302,17.681991948021782,17.674132234078865
2,519,337807,20.725571327842772,392,1.2073533366219356,0.022330129649264,10,337807,1000000,17.717477783790002,17.718396296867958,17.709589765010737
2,520,338373,89.66099920775741,566,1.1064717896083103,0.02231571686453882,10,338373,1000000,17.798784831592016,17.788769250256674,17.788210248947145
2,521,338816,30.92066691815853,443,1.1218316622671078,0.02229261076871664,10,338816,1000000,17.82650195902044,17.825240755081175,17.819438058679754
2,522,339599,173.32372499164194,783,0.8833346445399981,0.02227772645052531,10,339599,1000000,17.824867354906523,17.82434756205632,17.817986888151903
2,523,339933,-0.2870585508644581,334,1.1320644846129597,0.022266802089143677,10,339933,1000000,17.896640714009603,17.893047509048923,17.88675939386541
2,524,340472,77.33786195144057,539,1.0443349203481427,0.02225590058862302,10,340472,1000000,17.938621468813913,17.92757526253754,17.926258187923793
2,525,340782,-8.463890466839075,310,1.3798294965057605,0.022238733600203724,10,340782,1000000,17.95011787414551,17.949779747378443,17.944751994840562
2,526,341338,86.88312008231878,556,1.6342546613785354,0.0222240281786472,10,341338,1000000,17.9937424399636,17.984532472437078,17.977087671106514
2,527,341715,24.362798677757382,377,1.6646153031470807,0.02220417162816609,10,341715,1000000,18.043336427533948,18.061252264074376,18.040572540180104
2,528,342055,2.388891102746129,340,0.9481732269858613,0.022194868021424504,10,342055,1000000,18.08575411123388,18.080362286287194,18.08120698367848
2,529,342383,-13.616234210319817,328,1.582679297204595,0.022182528251045924,10,342383,1000000,18.02881641983986,18.037051483988762,18.02320404648781
2,530,342633,-26.008670885115862,250,1.6649665547460317,0.022161939242964772,10,342633,1000000,17.920381439208985,17.91906259918213,17.917950103759765
2,531,342898,-21.169648569077253,265,1.4235225835241951,0.022144339830620658,10,342898,1000000,18.152752168361957,18.15554804435143,18.145507324658908
2,532,343223,-4.644811485894024,325,1.2977492348058148,0.02213196632708962,10,343223,1000000,18.195608630776405,18.200584229826926,18.18899019062519
2,533,343618,29.25954381749034,395,1.610419021671017,0.022118075564874346,10,343618,1000000,17.976848966647417,17.973118569300723,17.965992426260925
2,534,343981,15.701083397492766,363,1.5607984795442058,0.02209770521472897,10,343981,1000000,18.12320653067695,18.118885265456306,18.111945022477045
2,535,344828,304.394586564973,847,1.271273624289426,0.02208739782145654,10,344828,1000000,18.00689763455164,18.004796822865803,17.9989806050346
2,536,345327,50.72667562402785,499,1.5371622812915213,0.022066715136013552,10,345327,1000000,18.17176204408918,18.16914735910844,18.16812538808706
2,537,345745,44.96621657302603,418,1.0156892373067576,0.02204617472143492,10,345745,1000000,18.171615377286585,18.17404433692374,18.173899438904552
2,538,345975,-32.740841941908,230,1.3060442243581232,0.022030295962030873,10,345975,1000000,18.1012236263441,18.09162202918011,18.08403548779695
2,539,346326,-5.5610679211094975,351,1.1451920858983482,0.022016868164706327,10,346326,1000000,18.177308376857212,18.185062828063966,18.173014316558838
2,540,346639,5.937174940481782,313,1.0520903633126328,0.021997254510700365,10,346639,1000000,18.20953173175935,18.21599372125441,18.21018305440103
2,541,347030,30.179020119830966,391,1.2328832860845023,0.02197402155986088,10,347030,1000000,18.18031325951601,18.181158075577173,18.170980133154455
2,542,347309,-17.870635917410254,279,1.1900768186621091,0.021965470495708243,10,347309,1000000,18.209552634203874,18.217543202859385,18.211834745053892
2,543,347682,22.784351168200374,373,1.1042880974307254,0.021957988199533394,10,347682,1000000,18.205865035185944,18.198452627336657,18.19908806826617
2,544,348053,17.39212502259761,371,1.182354443731743,0.021943970758808072,10,348053,1000000,18.260521419628247,18.267517308931094,18.262339143495304
2,545,348488,34.56883707083762,435,1.165713141009558,0.021929715853755544,10,348488,1000000,18.151099315909452,18.1475265658179,18.151136369483414
2,546,348721,-38.96863139420748,233,1.1246756643542777,0.021913023684525093,10,348721,1000000,18.30076906784721,18.289501148721445,18.29622816002887
2,547,349129,36.26360038667917,408,1.3703848330304027,0.021895432151576875,10,349129,1000000,18.29612084388733,18.29080701828003,18.291944613456725
2,548,349550,39.80475930683315,421,1.0354178751153604,0.021880115820680293,10,349550,1000000,18.24557483082726,18.241404240471976,18.237190603074573
2,549,350120,92.45326559897512,570,1.0627001291435016,0.02186064075178243,10,350120,1000000,18.258770626469662,18.259694723497358,18.259147866566977
2,550,350676,102.097924628295,556,0.9343219163065607,0.02185069526128073,10,350676,1000000,18.293456913341174,18.295274380770596,18.291709527102384
2,551,350931,-65.39195161452517,255,0.7355292718410492,0.02182660076203923,10,350931,1000000,18.429473670959474,18.425475021362306,18.42531941986084
2,552,351200,-32.00895734317601,269,1.2621848312278205,0.021809560123495667,10,351200,1000000,18.420036752407366,18.415831503501305,18.417032249157245
2,553,351379,-58.59644133411348,179,1.0598639430368648,0.021793062524105143,10,351379,1000000,18.42390512017643,18.423108544069176,18.413326005374685
2,554,351892,71.02841344848275,513,1.3448544314532889,0.021781039571360593,10,351892,1000000,18.36519733877743,18.36669105828977,18.3618267956902
2,555,352118,-33.58478418365121,226,1.531122491830452,0.02176665243670554,10,352118,1000000,18.30097597295588,18.297956119884144,18.305521176078102
2,556,352572,57.27125561982393,454,1.5862012032088306,0.02175555446220167,10,352572,1000000,18.427417941623265,18.431026944054498,18.423510540856256
2,557,353425,302.0080794747919,853,1.4056988746585215,0.021736808363785613,10,353425,1000000,18.430182676876292,18.42269990023445,18.424348418291878
2,558,354291,193.04405470658094,866,1.3312308285342054,0.021724060392142207,10,354291,1000000,18.47250356563302,18.468289342037465,18.463555038807005
2,559,354762,56.503543994389474,471,1.1370970756291074,0.02171087505488467,10,354762,1000000,18.519198730144094,18.51621599400297,18.512608471322565
2,560,355186,26.772095324471593,424,1.0871086525420348,0.02169684051077647,10,355186,1000000,18.546964654468354,18.548507308959962,18.538653721128192
2,561,355509,4.8140752874314785,323,1.356281680741813,0.021679325688498736,10,355509,1000000,18.4213160187006,18.420362061262132,18.415429881215097
2,562,355797,-24.65030057169497,288,1.1995774373012995,0.021665907118068678,10,355797,1000000,18.492555608068194,18.493761774471828,18.484427666664125
2,563,356198,33.74924474954605,401,1.1704982180614025,0.0216585982001769,10,356198,1000000,18.57934382677078,18.57212323665619,18.572362151145935
2,564,356690,70.3497951887548,492,1.521822725875037,0.02164305122183105,10,356690,1000000,18.4933454124295,18.496495606947917,18.48715768346981
2,565,357438,171.15763684920967,748,1.4359546257434666,0.021633997596809243,10,357438,1000000,18.461694406818697,18.462940034350833,18.455251866417964
2,566,358298,302.44197564944625,860,1.3100163417413484,0.021619383408621295,10,358298,1000000,18.603067213989966,18.600458436788514,18.596689062340314
2,567,358615,-4.452520456165075,317,1.5562862956115315,0.021615416260801427,10,358615,1000000,18.60156652696671,18.604459648747596,18.593871251998408
2,568,359472,299.561945207417,857,1.1700703840352156,0.021602342176827646,10,359472,1000000,18.699615550321692,18.697848998799042,18.69536584180944
2,569,360236,165.60110064828768,764,1.3214055144473127,0.02159797783033588,10,360236,1000000,18.694642964162323,18.6985329891506,18.68876712824169
2,570,360783,87.85340279899538,547,1.2669445757857627,0.02158297608979179,10,360783,1000000,18.650747588828757,18.642333883709377,18.64174092080858
2,571,361276,43.06885883118957,493,1.403800525546682,0.02156742791069514,10,361276,1000000,18.846104078876728,18.84487760699525,18.83395041640924
2,572,362122,197.32645768485963,846,1.1819081184542959,0.021557731367735655,10,362122,1000000,18.838649271783375,18.834346162705195,18.82694170247941
2,573,362625,48.16572796180844,503,1.2795952262580395,0.021543529693332345,10,362625,1000000,18.721806255340574,18.72304575920105,18.713712352752687
2,574,363396,64.2578213759698,771,1.236169701756595,0.021529494616792322,10,363396,1000000,18.85395808034129,18.85736984649262,18.84847545871487
2,575,364108,112.54171710717492,712,1.1540000906345291,0.021512027200034017,10,364108,1000000,18.75023329560186,18.747415088599837,18.747365905869174
2,576,364548,52.28993359301239,440,1.1916657495312393,0.02149549011434474,10,364548,1000000,18.795812524448742,18.80223647247661,18.79468844803897
2,577,365426,303.66598916240036,878,1.23092240750704,0.021476452840162506,10,365426,1000000,18.847385125872734,18.84912445572601,18.84335685708057
2,578,366388,114.4309812579304,962,1.3387289105526483,0.021459052371436804,10,366388,1000000,18.939706114927926,18.933234137296676,18.932940531770388
2,579,366999,95.1191425411962,611,1.2669801747579066,0.021449819197863054,10,366999,1000000,19.053412628173827,19.05681851340122,19.05627998914875
2,580,367871,298.22032969631255,872,1.3165931930872559,0.02143276604124247,10,367871,1000000,19.117645675834567,19.118636913957268,19.11296830232116
2,581,368935,292.0088553149253,1064,1.1725588740499795,0.02142911274643302,10,368935,1000000,19.105910732161323,19.10363187879886,19.098101827333558
2,582,369663,140.47968190908432,728,1.2124812550480581,0.021408784911062344,10,369663,1000000,19.127486414379543,19.123869544929928,19.122605095969305
2,583,370503,299.81321170553565,840,1.4178539447663796,0.021397313849213534,10,370503,1000000,19.247413185664584,19.240511777287438,19.23426829860324
2,584,371336,300.7105717919767,833,1.2712061286466307,0.021386054511774357,10,371336,1000000,19.338476931330668,19.33319460742445,19.329645996783153
2,585,372189,300.2903416790068,853,1.1822942677841466,0.02138209820487376,10,372189,1000000,19.361467297497917,19.361827440822825,19.357260801651897
2,586,373066,299.44888311624527,877,1.3902003242238157,0.021370498295322175,10,373066,1000000,19.341794303367877,19.342864062868316,19.33582931606249
2,587,373914,301.1278257602826,848,1.3683749273241985,0.021357778639063237,10,373914,1000000,19.4842564083281,19.482845913796197,19.48179136230832
2,588,374391,49.93306284211576,477,1.4719194718973434,0.02134342120020527,10,374391,1000000,19.525270794807597,19.533204829439203,19.514569185135212
2,589,375269,300.9427335234359,878,1.3708168554066242,0.021326597821395513,10,375269,1000000,19.570047264537592,19.56549017456756,19.563642598294663
2,590,376099,301.27635025419295,830,1.1655809543578022,0.0213187061249786,10,376099,1000000,19.616090969867017,19.618397521972657,19.614140426681704
2,591,376947,299.45898178219795,848,1.775498454308226,0.021309211277636454,10,376947,1000000,19.62045271737235,19.621151748157683,19.605937778382074
2,592,377787,303.3071232344955,840,1.7001675484435899,0.02129905697698975,10,377787,1000000,19.66299443017869,19.65689460209438,19.64861318497431
2,593,378632,302.7987901158631,845,1.6104676098651474,0.021289687905607924,10,378632,1000000,19.799540585563296,19.800173110053652,19.7886222135453
2,594,379469,303.15995460003614,837,1.4888108543333518,0.021276068045945153,10,379469,1000000,19.82772912979126,19.81963863602604,19.813260201373733
2,595,380378,300.0904736071825,909,1.4140773084842497,0.021261805016421758,10,380378,1000000,19.941492667728,19.944370051489937,19.93324131435818
2,596,381251,299.5525603853166,873,1.3704500914776119,0.021258004828785808,10,381251,1000000,19.953605844782686,19.94881067604854,19.946445012366635
2,597,382172,294.0311920642853,921,1.5595606536482987,0.02125103263797804,10,382172,1000000,20.03689952414969,20.033102737302364,20.026171901951667
2,598,383030,297.38822635635734,858,1.1594545840778772,0.02123063197467639,10,383030,1000000,20.235327855278463,20.2412769093233,20.235023193359375
2,599,383675,100.35714233666658,645,1.2445833179575856,0.021224637814123457,10,383675,1000000,20.12370699048042,20.125239592790603,20.122246593236923
2,600,384529,300.0160898100585,854,1.0785770294157897,0.021210285090283058,10,384529,1000000,20.182410053926354,20.187093310636634,20.17809481901281
2,601,385413,300.01150053180754,884,1.4799837293822995,0.02119301071926237,10,385413,1000000,20.313737893104552,20.31351656480269,20.305228314616464
2,602,386299,300.1990978298709,886,1.2683223651129414,0.021174027915272536,10,386299,1000000,20.327328145503998,20.32199210145257,20.318557417392732
2,603,387172,299.3151221908629,873,1.1890480895237676,0.02115050836636707,10,387172,1000000,20.339561094086747,20.329808846835434,20.326328713866484
2,604,388079,297.88148013781756,907,1.5046594033597245,0.021134562287528916,10,388079,1000000,20.450195581648085,20.45033571455214,20.441657581329345
2,605,388954,300.539761451073,875,1.287244279168803,0.021112914707991155,10,388954,1000000,20.519178759914706,20.517978735079712,20.511374202815965
2,606,389850,302.0846842813771,896,1.406389173676961,0.02109942747116913,10,389850,1000000,20.542604433552604,20.544695702027738,20.53576242146867
2,607,390336,46.052792297676206,486,1.6148222103404501,0.021084277074338572,10,390336,1000000,20.677968084812164,20.680850700537363,20.679122895002365
2,608,391192,301.49633641913533,856,1.377197055807885,0.021068798995650947,10,391192,1000000,20.632168931400074,20.63863477370318,20.632173969044405
2,609,391651,52.09547298029065,459,1.9204773352377944,0.02104638543148179,10,391651,1000000,20.582397215101455,20.579682477315266,20.571454997592504
2,610,392499,301.0063510136679,848,1.3868123581588623,0.021033329027902854,10,392499,1000000,20.79127224967593,20.79178029242016,20.78480891727266
2,611,393537,288.1987047258299,1038,1.457900572944324,0.021011332599565655,10,393537,1000000,20.712524165921998,20.71233394956126,20.703930932572746
2,612,394374,299.03893534839153,837,1.2591301327997662,0.020990580569518878,10,394374,1000000,20.72048265158412,20.722856158520802,20.714810821808964
2,613,395237,297.2435794342309,863,1.4671372698013518,0.020968397109128244,10,395237,1000000,20.8155985532805,20.814305405284085,20.811224062498226
2,614,396114,299.0137612828985,877,1.328277605724917,0.02094871132670996,10,396114,1000000,20.842751292524667,20.84335412211802,20.83670026187239
2,615,396989,299.8581972649554,875,1.1914233942098658,0.02093417706757469,10,396989,1000000,20.899486342243765,20.898905328772535,20.89819689345086
2,616,397850,299.559386249166,861,1.2486369862156206,0.020907129658886824,10,397850,1000000,21.06877083334812,21.06537535689598,21.06390728174254
2,617,398708,298.37872787355445,858,1.3686030880317968,0.02089313552505127,10,398708,1000000,21.06727273604449,21.060219789392807,21.05809097065645
2,618,399589,301.5272438619286,881,1.437573915394023,0.020870612075126062,10,399589,1000000,21.21702989881689,21.21534090692347,21.209562479365957
2,619,400418,302.77533079637215,829,1.5746931663691635,0.02085437391908505,10,400418,1000000,21.279525542840727,21.284234751724615,21.276697842667744
2,620,401321,302.16478534415364,903,1.384694406328102,0.02083298643330034,10,401321,1000000,21.369863681793213,21.374354118771024,21.363562545776368
2,621,402140,304.8225855557248,819,1.3273911201107649,0.02080995461677071,10,402140,1000000,21.431542931073977,21.42794420218762,21.422814767154648
2,622,402534,25.459328005090356,394,1.2395669773698617,0.020795234528324723,10,402534,1000000,21.531331478021084,21.525071696746043,21.521669319348458
2,623,403371,301.271866097115,837,1.4546375970973309,0.02077567911939103,10,403371,1000000,21.60474383342697,21.60041429220912,21.594036635433334
2,624,404224,304.12045856006444,853,1.5552646069140996,0.020759286352842257,10,404224,1000000,21.64903189939611,21.643960914611817,21.638115882873535
2,625,404633,37.09999526664615,409,1.2742066715471447,0.02073810802725849,10,404633,1000000,21.630546612739565,21.626603207588197,21.626675400733948
2,626,405486,303.36763225030154,853,1.3550094558912165,0.02072278174795682,10,405486,1000000,21.657726817411536,21.658233581991755,21.65366943359375
2,627,406315,304.13597158063203,829,1.4427421138099417,0.020706634456203545,10,406315,1000000,21.663776811739293,21.665140784659037,21.661128146473953
2,628,407163,305.3957358417101,848,1.3346729009678322,0.02069078583596597,10,407163,1000000,21.763895572934832,21.764009791328792,21.757337588355654
2,629,408037,302.87550862971693,874,1.3132020918845102,0.020676129179922727,10,408037,1000000,21.838648050680927,21.8375154363698,21.830971649871476
2,630,408912,301.9504497004673,875,1.2244170404199897,0.0206570535406726,10,408912,1000000,21.949910043299884,21.954590615458873,21.947421170377183
2,631,409763,301.8982995497063,851,1.5115978388312985,0.020643493365181485,10,409763,1000000,22.007700433170093,22.006631878123564,21.99955263923196
2,632,410599,302.3499597553164,836,1.2490951281624385,0.020625596048038763,10,410599,1000000,22.064776089679764,22.067269026514996,22.062158419137976
2,633,411453,301.98791183903813,854,1.3447829047546667,0.02061348702866227,10,411453,1000000,22.21297852011288,22.205998250175924,22.200913864584532
2,634,412284,303.51370210619643,831,1.222444019996258,0.020596485227745143,10,412284,1000000,22.24200399237943,22.24098518555423,22.23638279236943
2,635,413095,197.72677743807435,811,1.6175927311067044,0.02058538049995498,10,413095,1000000,22.361897117708935,22.35504628405159,22.354133330451116
2,636,413364,-45.614722854457796,269,1.3447039170620534,0.02056912181036338,10,413364,1000000,22.26624116897583,22.273888492584227,22.27168069252601
2,637,414229,301.057222831063,865,1.660475247747503,0.02055456051568338,10,414229,1000000,22.332453814218212,22.32970185168954,22.322819000066712
2,638,415122,300.7241605259478,893,1.4435728671677996,0.020537608232330737,10,415122,1000000,22.40930633330613,22.408681704489034,22.40247217885564
2,639,415982,304.24114936124533,860,1.2258733504733375,0.02052745628077786,10,415982,1000000,22.436339451545894,22.43463600291762,22.431904519990432
2,640,416795,306.9086304260418,813,1.1874054049406155,0.020511949089568333,10,416795,1000000,22.427624076089742,22.43096238359993,22.428107742027
2,641,417653,306.7606984693557,858,1.6414338259705725,0.02050146778151515,10,417653,1000000,22.524448233211743,22.524032922632554,22.515138480242562
2,642,418466,304.60820191167295,813,1.3683612267728205,0.02048455785317379,10,418466,1000000,22.538147820366753,22.53815262641436,22.531640479005414
2,643,419304,303.39516177773476,838,1.63584209266287,0.020467307810188677,10,419304,1000000,22.589877749063884,22.589406151369392,22.580260458337257
2,644,420229,303.62395982444286,925,1.303409980699096,0.020450947254879476,10,420229,1000000,22.679752096922503,22.678262716790904,22.674418849530426
2,645,421105,303.61134484782815,876,1.5708638637101855,0.02043849787667845,10,421105,1000000,22.64022625232565,22.636210834020854,22.628866767883302
2,646,422075,294.2248695846647,970,1.344967279168441,0.020415814701937568,10,422075,1000000,22.69560401562563,22.70244539398508,22.693579123192226
2,647,422995,304.9886005204171,920,1.38756085849853,0.02040444266037491,10,422995,1000000,22.759430887388145,22.75573906691178,22.747709958449654
2,648,423863,305.0964033212513,868,1.4236793437149635,0.02039679339124736,10,423863,1000000,22.82029867394026,22.81356575766275,22.805169972708057
2,649,424711,304.88315419107676,848,1.4034580841793545,0.02037223539015978,10,424711,1000000,22.834492279234386,22.822981144133067,22.818640293393816
2,650,425589,302.6738089513965,878,1.3122879286735565,0.02035915445201795,10,425589,1000000,23.01369115237532,23.01696894634729,23.005963845088566
2,651,426212,110.31916813086718,623,1.1143866409277243,0.020335069547358392,10,426212,1000000,23.023967752149026,23.02813682863789,23.025241565704345
2,652,427101,302.4905474372208,889,1.1971508400303057,0.020321235392811315,10,427101,1000000,23.0638357704336,23.06710567040877,23.059929884563793
2,653,427969,302.0897215679288,868,1.2892548557262609,0.020302386182642504,10,427969,1000000,23.1639594455098,23.16703504518021,23.155861980970517
2,654,428828,304.8991841580719,859,1.4305880618665148,0.02029547014465244,10,428828,1000000,23.145587945825913,23.14277535382439,23.135885831047506
2,655,429282,41.61763831973076,454,1.7019772342012989,0.020279849859983174,10,429282,1000000,23.241049393547907,23.239779082404244,23.230392083062068
2,656,430190,301.1304407482967,908,1.3281690351954765,0.020272329370598637,10,430190,1000000,23.302357633378772,23.30577252070109,23.300591860877145
2,657,431030,302.0064928997308,840,1.3970588591171518,0.02025490656824014,10,431030,1000000,23.284291921343122,23.278885289600918,23.276665587652296
2,658,431842,304.45904062036425,812,1.5336476874434286,0.020241694636333046,10,431842,1000000,23.322779596587758,23.320732411043142,23.30925516670133
2,659,432701,300.1940853577107,859,1.5317943780211842,0.02022475393112644,10,432701,1000000,23.411378164852366,23.41428811017205,23.40626984540154
2,660,433540,303.29709843173623,839,1.2427933008241725,0.020213876895319956,10,433540,1000000,23.483222306492817,23.484859535493047,23.475184842764612
2,661,434368,304.6869405992329,828,1.3405304466578656,0.020205695236911864,10,434368,1000000,23.554083189150184,23.547933787834353,23.547303246288763
2,662,435039,137.26874075457454,671,1.232594773990672,0.02019358279466125,10,435039,1000000,23.5949994670811,23.598572133192377,23.59455700205333
2,663,435917,302.45745473727584,878,1.214270917681613,0.02018614531780999,10,435917,1000000,23.746282044772443,23.740735805993793,23.73683747477915
2,664,436730,302.8106004744768,813,1.2366890070569,0.020173004693200297,10,436730,1000000,23.841238043043347,23.841981167263455,23.8373029143722
2,665,437558,304.7301217671484,828,1.2809489744919829,0.020171136425540418,10,437558,1000000,23.92013305105814,23.918587503200623,23.91105640690501
2,666,438444,301.68765273690224,886,1.4874913823452185,0.020154170494876122,10,438444,1000000,23.949374543536795,23.946096459302034,23.941733128374274
2,667,439304,300.13710043020546,860,1.2051576584490926,0.020148871001255092,10,439304,1000000,24.033488612951235,24.03617156050926,24.03000368295714
2,668,440140,301.2782861702144,836,1.1182412767715484,0.02013865586499761,10,440140,1000000,24.072426869495807,24.066724391155933,24.063747975912438
2,669,440952,304.298043275252,812,1.3095113814980894,0.02013284173372043,10,440952,1000000,24.0815529058009,24.081530629852672,24.073903517075525
2,670,441457,88.9860343770124,505,1.5807120688036085,0.020118805355177145,10,441457,1000000,24.20656622695923,24.208437007904053,24.199031986236573
2,671,442251,305.640608927235,794,1.1080547556422558,0.02010736291596417,10,442251,1000000,24.216918583157696,24.22058534501474,24.215074239803265
2,672,442654,27.20116125140339,403,1.3012420335691421,0.020090426879549747,10,442654,1000000,24.27347951889038,24.270421652793885,24.262274737358094
2,673,443236,113.10903067234904,582,1.1169295102935928,0.02007800097470801,10,443236,1000000,24.320052219259328,24.319542006788584,24.310328302712275
2,674,444067,303.5305054462515,831,1.407923546716212,0.02006454091065741,10,444067,1000000,24.38359530575304,24.380381666895854,24.37225978575557
2,675,444947,301.0210062066908,880,0.8636278838554228,0.02005015263041737,10,444947,1000000,24.453343686190518,24.447024126486344,24.449463603713294
2,676,445783,304.3470599716529,836,1.2831071247896517,0.020043853779530954,10,445783,1000000,24.525654282627336,24.525884161799787,24.517047587934748
2,677,446609,302.0104134352878,826,1.1293369318108732,0.020028880696509068,10,446609,1000000,24.5273162050945,24.52569564958898,24.523679402979408
2,678,447480,302.2607696899213,871,1.3678056709425546,0.020013274202217272,10,447480,1000000,24.558862333188113,24.560005532187976,24.548328640817225
2,679,448347,300.12829343415797,867,1.2956284541506753,0.020003104221094966,10,448347,1000000,24.573630208747332,24.57514307554378,24.56780941985374
2,680,449223,299.9969188757241,876,1.3016834402050095,0.019990743702930337,10,449223,1000000,24.60020981711903,24.602264658610025,24.594366573465283
2,681,450058,304.00045590288937,835,1.2595591518085405,0.01998186802020044,10,450058,1000000,24.641300130177694,24.640284614103386,24.63877096061247
2,682,450891,305.6043543573469,833,1.1972133794821889,0.019977663195761577,10,450891,1000000,24.70702448006136,24.712561248871218,24.699358207059195
2,683,451613,163.87275126599707,722,1.4438988861162216,0.019959662645877525,10,451613,1000000,24.803011451827157,24.796296413739523,24.786861644850838
2,684,452414,306.38201683200896,801,1.1884274433087558,0.0199497026570834,10,452414,1000000,24.830026187896728,24.830239565372466,24.824211719036104
