seo-minseok/DOB-RL/cycles/Cycle_6/results/mbrl_real_ratio=0.2/seed_1_progress.csv
seed,episode,total_steps,reward,episode_length,td_loss_avg,model_loss_avg,horizon_length,real_buffer_size,model_buffer_size,q1_avg,q2_avg,target_q_avg,model_pred_error_avg,model_err_hull_angle,model_err_hull_angvel,model_err_vel_x,model_err_vel_y,model_err_hip1_angle,model_err_hip1_speed,model_err_knee1_angle,model_err_knee1_speed,model_err_left_contact,model_err_hip2_angle,model_err_hip2_speed,model_err_knee2_angle,model_err_knee2_speed,model_err_right_contact
1,1,55,-102.87223488651216,55,nan,nan,0,55,0,nan,nan,nan,nan,nan,nan,nan,nan,nan,nan,nan,nan,nan,nan,nan,nan,nan,nan
1,2,1655,-78.73229569860268,1600,nan,nan,0,1655,0,nan,nan,nan,nan,nan,nan,nan,nan,nan,nan,nan,nan,nan,nan,nan,nan,nan,nan
1,3,3255,-86.5054579920834,1600,nan,nan,0,3255,0,nan,nan,nan,nan,nan,nan,nan,nan,nan,nan,nan,nan,nan,nan,nan,nan,nan,nan
1,4,3331,-96.76536486670375,76,nan,nan,0,3331,0,nan,nan,nan,nan,nan,nan,nan,nan,nan,nan,nan,nan,nan,nan,nan,nan,nan,nan
1,5,4931,-83.98975822437205,1600,nan,nan,0,4931,0,nan,nan,nan,nan,nan,nan,nan,nan,nan,nan,nan,nan,nan,nan,nan,nan,nan,nan
1,6,4980,-105.05510335043073,49,nan,nan,0,4980,0,nan,nan,nan,nan,nan,nan,nan,nan,nan,nan,nan,nan,nan,nan,nan,nan,nan,nan
1,7,5079,-118.59468586510047,99,nan,nan,0,5079,0,nan,nan,nan,nan,nan,nan,nan,nan,nan,nan,nan,nan,nan,nan,nan,nan,nan,nan
1,8,5191,-106.41878600837663,112,nan,nan,0,5191,0,nan,nan,nan,nan,nan,nan,nan,nan,nan,nan,nan,nan,nan,nan,nan,nan,nan,nan
1,9,5328,-109.66910830652341,137,nan,nan,0,5328,0,nan,nan,nan,nan,nan,nan,nan,nan,nan,nan,nan,nan,nan,nan,nan,nan,nan,nan
1,10,6928,-92.50391275517177,1600,nan,nan,0,6928,0,nan,nan,nan,nan,nan,nan,nan,nan,nan,nan,nan,nan,nan,nan,nan,nan,nan,nan
1,11,6974,-106.78397654462606,46,nan,nan,0,6974,0,nan,nan,nan,nan,nan,nan,nan,nan,nan,nan,nan,nan,nan,nan,nan,nan,nan,nan
1,12,7085,-104.04820696730167,111,nan,nan,0,7085,0,nan,nan,nan,nan,nan,nan,nan,nan,nan,nan,nan,nan,nan,nan,nan,nan,nan,nan
1,13,7157,-115.68982064398006,72,nan,nan,0,7157,0,nan,nan,nan,nan,nan,nan,nan,nan,nan,nan,nan,nan,nan,nan,nan,nan,nan,nan
1,14,7233,-103.34456634894013,76,nan,nan,0,7233,0,nan,nan,nan,nan,nan,nan,nan,nan,nan,nan,nan,nan,nan,nan,nan,nan,nan,nan
1,15,8833,-92.22089927567868,1600,nan,nan,0,8833,0,nan,nan,nan,nan,nan,nan,nan,nan,nan,nan,nan,nan,nan,nan,nan,nan,nan,nan
1,16,10140,-176.10736594011541,1307,15.231451754403366,nan,0,10140,0,-0.23781482353806496,-0.23580377117863724,-0.325626089317458,nan,nan,nan,nan,nan,nan,nan,nan,nan,nan,nan,nan,nan,nan,nan
1,17,10182,-122.54809787869453,42,63.45498572015204,0.20169422443096455,1,10182,1280,-0.7923975214362144,-0.8422866795212031,-1.1141840301454067,0.7857807030280431,0.1008673757314682,0.04195915162563324,0.027822861447930336,0.023005099967122078,0.04907429218292236,0.1674882024526596,0.08973687887191772,0.2563024163246155,0.03737075999379158,0.044029682874679565,0.2757053077220917,0.05794278904795647,0.4489951431751251,0.1266990453004837
1,18,10312,-103.66426123864949,130,73.45202975204357,0.14177400389542946,1,10312,2560,-1.0367702273222117,-1.056860990707691,-1.218478131065002,0.8767871709970327,0.037894126027822495,0.034116216003894806,0.024330785498023033,0.021335622295737267,0.03337077051401138,0.13790147006511688,0.07293649017810822,0.3397178053855896,0.17245200276374817,0.031977660953998566,0.22201243042945862,0.07302919030189514,0.5504066348075867,0.1878395527601242
1,19,10360,-106.66206278838217,48,67.39274291358888,0.10307974852621556,1,10360,3840,-0.9383098214864731,-0.9447479084134102,-1.217259731143713,0.8891529937585195,0.04037189856171608,0.04556000605225563,0.026557153090834618,0.04710496589541435,0.03222891315817833,0.24432198703289032,0.0482269711792469,0.19468313455581665,0.21358777582645416,0.05257517099380493,0.34930142760276794,0.10258715599775314,0.5339102149009705,0.2202664017677307
1,20,10498,-95.99047672050074,138,85.36368700724381,0.09058605641126632,1,10498,5120,-1.279403412800569,-1.2820282926926245,-1.5171289870372184,0.5852899419656699,0.018594900146126747,0.033628374338150024,0.01725894585251808,0.025607312098145485,0.017901835963129997,0.1490952968597412,0.037657998502254486,0.13901960849761963,0.22477997839450836,0.02520301379263401,0.16129852831363678,0.055898964405059814,0.28544023633003235,0.22747768461704254
1,21,10688,-113.2343368071597,190,78.87618715041562,0.0876526160211098,1,10688,6400,-1.4480671415203497,-1.4551136606617978,-1.726977382835589,0.8921154630811591,0.024385351687669754,0.012932264246046543,0.01732981950044632,0.019957929849624634,0.032425183802843094,0.20934458076953888,0.06624753773212433,0.5094858407974243,0.2920212149620056,0.027347492054104805,0.18143470585346222,0.050863515585660934,0.36356598138809204,0.2668139934539795
1,22,10812,-115.26512840483338,124,69.21220000833273,0.0859612829074627,1,10812,7680,-1.6433697159091631,-1.6583181803425153,-1.8594108293453853,0.8246636010946766,0.026868384331464767,0.017043789848685265,0.021876228973269463,0.021000688895583153,0.04249588027596474,0.21351705491542816,0.05340072512626648,0.3858771026134491,0.2600437104701996,0.04271593317389488,0.21009030938148499,0.07306050509214401,0.3802913427352905,0.26516178250312805
1,23,10911,-123.93060257658362,99,65.63176867432064,0.0844621761568955,1,10911,8960,-1.768173837661743,-1.7764260729153951,-1.993036828438441,0.7253948435036823,0.019731182605028152,0.0154549116268754,0.014697114937007427,0.026052013039588928,0.028998490422964096,0.18731974065303802,0.02780877985060215,0.19256636500358582,0.24046172201633453,0.04120956361293793,0.19618022441864014,0.0652865320444107,0.4130445420742035,0.26492393016815186
1,24,10946,-107.65084607899189,35,72.90810061295828,0.08308870118288766,1,10946,10240,-2.032542073726654,-2.029095184803009,-2.1961745182673136,0.9390036719185966,0.05531611293554306,0.011753429658710957,0.02433750033378601,0.04271356016397476,0.042542386800050735,0.28913673758506775,0.08686379343271255,0.5517104268074036,0.2315613031387329,0.0679028332233429,0.2571270763874054,0.08216720819473267,0.27560845017433167,0.30268844962120056
1,25,10989,-109.56731037050486,43,71.85238635540009,0.0822494380530857,1,10989,11520,-2.088230273127556,-2.095742166042328,-2.1974885672330857,0.7870549275431522,0.05612650513648987,0.01337460707873106,0.01741275191307068,0.03192231431603432,0.03277187421917915,0.30223894119262695,0.043518178164958954,0.2447042465209961,0.2239854782819748,0.0666530430316925,0.19365520775318146,0.08753940463066101,0.3185260593891144,0.29203394055366516
1,26,11038,-114.88242164440453,49,74.97479400634765,0.08128692387115388,1,11038,12800,-2.149959236383438,-2.155368593335152,-2.2528187960386274,0.8428405553710704,0.042863160371780396,0.018913112580776215,0.014149947091937065,0.034040290862321854,0.045522719621658325,0.2116866260766983,0.07191126048564911,0.3381447196006775,0.2735961079597473,0.051483411341905594,0.3156670033931732,0.0846804827451706,0.3456568121910095,0.2746928930282593
1,27,11081,-109.61926499009132,43,77.03306000232696,0.08043133314958839,1,11081,14080,-2.162237060070038,-2.191672593355179,-2.3574745416641236,0.9665996016458024,0.05553330481052399,0.013163927011191845,0.017237769439816475,0.0271765049546957,0.036404237151145935,0.4076921343803406,0.07219433784484863,0.4517683982849121,0.20686255395412445,0.06298097223043442,0.21552950143814087,0.08464860916137695,0.35985860228538513,0.3109837770462036
1,28,11120,-108.72497195005417,39,76.7157704671224,0.07975819013839544,1,11120,15360,-2.275791613260905,-2.305874216556549,-2.4818584362665814,0.982693361166196,0.03774454817175865,0.01596718467772007,0.020642582327127457,0.02427106909453869,0.04978999122977257,0.3558862805366516,0.07627740502357483,0.5913950800895691,0.22554028034210205,0.056911952793598175,0.26404476165771484,0.08320543169975281,0.26996806263923645,0.2819349467754364
1,29,11185,-115.35227850265801,65,82.49718200763067,0.07913411713616793,1,11185,16640,-2.384431477387746,-2.3883525590101877,-2.5647671739260356,1.0621349912423355,0.018377088010311127,0.01073118019849062,0.011023477651178837,0.018826045095920563,0.03918955475091934,0.38066366314888,0.07987403124570847,0.6662503480911255,0.250710129737854,0.05309164524078369,0.3247491717338562,0.09341809153556824,0.3707588315010071,0.30000215768814087
1,30,11221,-107.58738652616739,36,85.07842737833658,0.0786214763341948,1,11221,17920,-2.3917199929555255,-2.4220341801643372,-2.695240239302317,1.053078646461169,0.039431024342775345,0.014539942145347595,0.021644413471221924,0.025351507589221,0.04891647771000862,0.4302234947681427,0.0855243131518364,0.649194598197937,0.24990418553352356,0.06449390947818756,0.29440823197364807,0.08728087693452835,0.31059184670448303,0.23534870147705078
1,31,11276,-113.8086082674563,55,81.02571176052093,0.07812454215315885,1,11276,19200,-2.5789468050003053,-2.5845841932296754,-2.7366704964637756,1.0456255891106345,0.02097742259502411,0.009735492058098316,0.015235776081681252,0.021855218335986137,0.038172684609889984,0.38100430369377136,0.08370816707611084,0.6394148468971252,0.30179333686828613,0.05666791647672653,0.31828758120536804,0.09202911704778671,0.3250134587287903,0.2659180462360382
1,32,11315,-109.05562796443701,39,73.23733174800873,0.07764082026075234,1,11315,20480,-2.4680450121561686,-2.474694339434306,-2.543416106700897,0.8574420465872838,0.03174234926700592,0.011199451982975006,0.02202817052602768,0.027511388063430786,0.0338689461350441,0.265986829996109,0.07528837025165558,0.4288887679576874,0.22647717595100403,0.05680186301469803,0.2738562226295471,0.09815438091754913,0.3429708480834961,0.23993991315364838
1,33,11357,-110.06486753001809,42,71.20539798736573,0.07706635743379593,1,11357,21760,-2.6743505716323854,-2.674184572696686,-2.78008414208889,0.8191053697041103,0.03175826743245125,0.015272378921508789,0.02080630138516426,0.026351293548941612,0.034373968839645386,0.2804489731788635,0.06595250219106674,0.3250472843647003,0.2506208121776581,0.0588812381029129,0.31197741627693176,0.086018867790699,0.32770881056785583,0.21227875351905823
1,34,11459,-105.96129605919123,102,74.77042030572892,0.07653974927961826,1,11459,23040,-2.70350661277771,-2.7188590562343595,-2.8921317291259765,0.9079113260788076,0.015612157993018627,0.01606353372335434,0.0073316581547260284,0.024574657902121544,0.042678505182266235,0.2935081124305725,0.06592079252004623,0.5343263745307922,0.28946295380592346,0.05647711083292961,0.31769660115242004,0.06098867952823639,0.2268487960100174,0.19053776562213898
1,35,12804,-177.91276362352073,1345,46.83883874327389,0.07600545178760182,1,12804,24320,-2.646879346168308,-2.6508699706630474,-2.719725891981107,1.0038249756323803,0.016458751633763313,0.013961447402834892,0.011561448685824871,0.009453204460442066,0.01382335927337408,0.120024174451828,0.07244372367858887,0.5544174313545227,0.3277567923069,0.030308328568935394,0.3065519630908966,0.06735207140445709,0.4501453638076782,0.2348719984292984
1,36,12838,-110.66429875791073,34,40.67372237443924,0.07369171217083931,1,12838,25600,-1.6891938348611195,-1.6907850325107574,-1.764787644147873,0.7672241093481288,0.05725930631160736,0.0241769477725029,0.01664833538234234,0.028087804093956947,0.04779881238937378,0.27041366696357727,0.05581262707710266,0.2691233158111572,0.20837612450122833,0.06831377744674683,0.19039224088191986,0.09315548092126846,0.36195412278175354,0.20495513081550598
1,37,12874,-110.50371988117695,36,34.42860186100006,0.07259339240193367,1,12874,26880,-1.5024035421510538,-1.511454245944818,-1.5424161829054355,0.7885140230258306,0.04204842448234558,0.02571854740381241,0.017867635935544968,0.02678561769425869,0.0551590658724308,0.29250016808509827,0.059152647852897644,0.27075421810150146,0.23560316860675812,0.07086014747619629,0.16602447628974915,0.08460504561662674,0.332489937543869,0.24218694865703583
1,38,12908,-109.82274457812309,34,30.565171162287395,0.07189819185435772,1,12908,28160,-1.6758090982834497,-1.6415425717830658,-1.7168904523054758,0.6886833678273594,0.0591646283864975,0.027813391759991646,0.011239949613809586,0.02680443972349167,0.03941088169813156,0.17895148694515228,0.044068578630685806,0.18404749035835266,0.18798166513442993,0.0652279406785965,0.17314544320106506,0.09105391800403595,0.3447156250476837,0.20613589882850647
1,39,12941,-110.36468528211117,33,38.3207026998202,0.0713820046633482,1,12941,29440,-1.881293253103892,-1.923535833756129,-1.9866666813691458,0.7271686575629495,0.06319589167833328,0.030531156808137894,0.013623462058603764,0.027576996013522148,0.036590173840522766,0.16362975537776947,0.05274196341633797,0.21870341897010803,0.16794125735759735,0.06720215082168579,0.1888849437236786,0.09337691217660904,0.3651321232318878,0.1951671540737152
1,40,12976,-108.82061384618282,35,38.9720095316569,0.07088844834268093,1,12976,30720,-1.5399831314881642,-1.5310869812965393,-1.6024013032515845,0.7421384458030973,0.04540855810046196,0.020352819934487343,0.01488727517426014,0.02617756836116314,0.03468727692961693,0.17794488370418549,0.05388689041137695,0.25602516531944275,0.15343548357486725,0.05944455787539482,0.17498865723609924,0.08829958736896515,0.34002068638801575,0.23572224378585815
1,41,13011,-109.36773358285427,35,34.85941995382309,0.07042767219245434,1,13011,32000,-1.41478331387043,-1.4558744229376317,-1.4936759629597267,0.6735479959419796,0.04487542808055878,0.020872585475444794,0.014390707015991211,0.026902107521891594,0.034925442188978195,0.16652069985866547,0.042843304574489594,0.17185482382774353,0.1581772267818451,0.06374366581439972,0.175074964761734,0.09123194217681885,0.35145604610443115,0.18592393398284912
1,42,13044,-109.15119659900665,33,33.343732174237566,0.06997595676779747,1,13044,33280,-1.6296140698095163,-1.6366968629260858,-1.6818664334714413,0.7305035509846427,0.048396818339824677,0.01894184947013855,0.01631898060441017,0.02802067995071411,0.03688040003180504,0.17014643549919128,0.054875362664461136,0.2744009494781494,0.1242709755897522,0.05909644439816475,0.17943349480628967,0.09070640802383423,0.3264031410217285,0.18843288719654083
1,43,14644,-53.01804649922997,1600,26.945733892321588,0.06948570574820041,1,14644,34560,0.22526792454067618,0.22457364007132127,0.179392348586116,0.6916324205882848,0.0073074037209153175,0.009989058598876,0.0071350266225636005,0.008997593075037003,0.020089048892259598,0.1484626978635788,0.033978257328271866,0.2648978531360626,0.23520708084106445,0.013901893049478531,0.13764750957489014,0.033216118812561035,0.26735198497772217,0.3543230891227722
1,44,14695,-105.19672284135595,51,20.68778856754303,0.06569595434948018,1,14695,35840,2.8247705364227294,2.7647442013025283,2.737792319059372,0.9811403272198695,0.020296785980463028,0.01827576383948326,0.010931712575256824,0.028988156467676163,0.040979187935590744,0.3100680410861969,0.07801911234855652,0.43545427918434143,0.21909566223621368,0.038117002695798874,0.3071211576461792,0.07368824630975723,0.4948498606681824,0.22779136896133423
1,45,16295,-138.60753888683394,1600,21.25000705651939,0.06532643766779649,1,16295,37120,5.684029478244484,5.683200161093846,5.63506999229081,0.7129197591915727,0.012985426001250744,0.021508224308490753,0.028770454227924347,0.007476867642253637,0.02409348078072071,0.2824357748031616,0.04306885227560997,0.2979946434497833,0.17017719149589539,0.03343964368104935,0.3207099139690399,0.026614131405949593,0.2649781107902527,0.23272064328193665
1,46,16374,-109.74211639445275,79,21.8411423938615,0.061231228638262976,1,16374,38400,8.535002756118775,8.565942505427769,8.49086890220642,0.9013195588618894,0.037278443574905396,0.017626170068979263,0.017343077808618546,0.019302118569612503,0.03893756493926048,0.3066624402999878,0.07217736542224884,0.25497910380363464,0.2990001142024994,0.02892964705824852,0.26291725039482117,0.05447250232100487,0.46530237793922424,0.19405871629714966
1,47,16459,-112.86919658258557,85,16.88536941409111,0.060498905986074415,1,16459,39680,8.771149861812592,8.786172181367874,8.742118841409683,0.8590825648868785,0.03438807278871536,0.018079908564686775,0.018109604716300964,0.019538218155503273,0.031710393726825714,0.2757263779640198,0.07146870344877243,0.25228866934776306,0.29380685091018677,0.02950444258749485,0.2411869317293167,0.05522643402218819,0.45453423261642456,0.18398341536521912
1,48,16539,-109.19191496819258,80,18.702091126143934,0.06001742756925523,1,16539,40960,8.828619545698166,8.818439102172851,8.765503370761872,0.8618889641016722,0.033374764025211334,0.01962510123848915,0.017875943332910538,0.02062373235821724,0.036382853984832764,0.302097886800766,0.06322625279426575,0.2546345293521881,0.2675902247428894,0.034282002598047256,0.26805832982063293,0.05749425292015076,0.4487544894218445,0.20066508650779724
1,49,16622,-115.38556564692408,83,20.137627190351488,0.05964917627861723,1,16622,42240,8.733853030204774,8.738611119985581,8.728070521354676,0.7464606460318508,0.03734250366687775,0.017929082736372948,0.01634289138019085,0.020482691004872322,0.030181456357240677,0.2602231502532959,0.06715943664312363,0.2542192041873932,0.2507246434688568,0.027329562231898308,0.2053963989019394,0.04684529826045036,0.3501288592815399,0.1891392171382904
1,50,16702,-110.919259108603,80,16.712964048981668,0.0591664956882596,1,16702,43520,9.231497627496719,9.22584372162819,9.2130506336689,0.737159701436758,0.03303328529000282,0.01987757347524166,0.019320284947752953,0.02107902243733406,0.038637425750494,0.2870507836341858,0.06132985278964043,0.2618987560272217,0.2296592891216278,0.03020859695971012,0.2071019411087036,0.050555843859910965,0.3169195055961609,0.1884782612323761
1,51,16781,-111.62968593277037,79,20.63565947668893,0.05873170607365095,1,16781,44800,9.151239565440587,9.163141005379813,9.107011474881853,0.7051154989984971,0.03233988955616951,0.019381769001483917,0.018854821100831032,0.019832750782370567,0.034309450536966324,0.26774969696998596,0.059109997004270554,0.2751716375350952,0.20990826189517975,0.0311763733625412,0.20237353444099426,0.050090789794921875,0.2989356219768524,0.18707060813903809
1,52,16858,-114.05115856137127,77,19.798522341251374,0.05830486618555509,1,16858,46080,9.27438256399972,9.278461817332676,9.226887689317977,0.6890563608764054,0.03150089830160141,0.01805967651307583,0.016861004754900932,0.01666618511080742,0.032634589821100235,0.2355961799621582,0.06288761645555496,0.30040425062179565,0.19929911196231842,0.027550656348466873,0.1749219447374344,0.04163055121898651,0.2373286336660385,0.2117321938276291
1,53,16939,-112.64746445510536,81,19.05822431743145,0.05789721748003593,1,16939,47360,9.547262120246888,9.540061295032501,9.492837995290756,0.6558522085348765,0.02718566171824932,0.021841879934072495,0.01593577116727829,0.018236752599477768,0.030611960217356682,0.24419009685516357,0.053262993693351746,0.27904340624809265,0.18152613937854767,0.028765063732862473,0.1677982211112976,0.04505205154418945,0.22530114650726318,0.20619241893291473
1,54,17001,-109.56655583297834,62,24.143936532735825,0.05747493456936244,1,17001,48640,9.865145683288574,9.867989643414814,9.830130608876546,0.8595310939896491,0.01979847438633442,0.019311921671032906,0.016840724274516106,0.022445155307650566,0.039287108927965164,0.3167952597141266,0.06643959134817123,0.4214009940624237,0.17007288336753845,0.04177531227469444,0.26529809832572937,0.053578004240989685,0.34967002272605896,0.21312186121940613
1,55,17095,-94.58694805949926,94,20.675626781251694,0.057162811347480975,1,17095,49920,9.68160858684116,9.711554622650146,9.64908012284173,0.8717007044147937,0.02431657910346985,0.014169455505907536,0.01676465943455696,0.020342674106359482,0.03382091969251633,0.2739677131175995,0.0574658066034317,0.3353210985660553,0.2361154407262802,0.04364432021975517,0.3245623707771301,0.053704194724559784,0.331706702709198,0.2914351522922516
1,56,17200,-94.24067305121571,105,20.090696252584458,0.056870782070539215,1,17200,51200,9.910900478363038,9.926095561981201,9.87413311958313,0.8552478455361866,0.020716622471809387,0.015438929200172424,0.015015644952654839,0.022543679922819138,0.03084341064095497,0.24243512749671936,0.05151263624429703,0.3227624297142029,0.22598014771938324,0.034249063581228256,0.2740364074707031,0.05300717055797577,0.3572087585926056,0.3306024968624115
1,57,17329,-112.66472313599661,129,17.608441932996115,0.056566013451387634,1,17329,52480,9.988167266050974,9.988137710094453,9.954431343078614,0.8450165719024895,0.020434148609638214,0.016253827139735222,0.012017462402582169,0.021646773442626,0.03414197638630867,0.2719602882862091,0.06144610419869423,0.3704938292503357,0.23275494575500488,0.039926327764987946,0.28314122557640076,0.04575280100107193,0.32889696955680847,0.24687747657299042
1,58,17406,-102.91939327400178,77,20.641997783524648,0.05622643340212196,1,17406,53760,10.401130287987845,10.390224368231637,10.366791200637817,0.8163280870233264,0.02060769498348236,0.013302759267389774,0.012669991701841354,0.020286299288272858,0.03877994045615196,0.25160205364227295,0.05939580127596855,0.2790990173816681,0.20919634401798248,0.04256168007850647,0.3074397146701813,0.056733082979917526,0.29877570271492004,0.3093402683734894
1,59,17479,-110.49783907923847,73,20.439095352377212,0.05592980685073938,1,17479,55040,10.66405963897705,10.652807310649328,10.616361679349627,0.7513472441941091,0.017486099153757095,0.01592901349067688,0.013397754170000553,0.01720789633691311,0.035888608545064926,0.24238045513629913,0.05276540294289589,0.26756489276885986,0.17817816138267517,0.03881869465112686,0.28302353620529175,0.04744688421487808,0.3227537274360657,0.22850216925144196
1,60,17558,-112.62256112974137,79,20.37304220029286,0.05555082245127243,1,17558,56320,10.523055076599121,10.533219282967703,10.475188405173165,0.7434769472743892,0.017632272094488144,0.016096848994493484,0.01241622306406498,0.01586260460317135,0.03185811638832092,0.21413207054138184,0.051236845552921295,0.26398351788520813,0.1737363487482071,0.04321272298693657,0.3187311291694641,0.049094054847955704,0.3277621865272522,0.19995683431625366
1,61,17640,-112.23794142249972,82,18.568134528398513,0.05519622803172645,1,17640,57600,10.984244668483734,10.956592166423798,10.936139249801636,0.720950915864328,0.016775041818618774,0.015521273016929626,0.01394630502909422,0.019594350829720497,0.0339173823595047,0.2727835178375244,0.04915458336472511,0.24828794598579407,0.1639963686466217,0.03636307269334793,0.2769947946071625,0.0460306741297245,0.27782538533210754,0.21130947768688202
1,62,17716,-114.24499256769195,76,18.502240933690754,0.054817369678879485,1,17716,58880,10.826711096082414,10.856385680607387,10.802634872709001,0.6442794905681359,0.013684059493243694,0.016312673687934875,0.00961691327393055,0.017835959792137146,0.03211882710456848,0.2189265340566635,0.04675978794693947,0.23334264755249023,0.15567588806152344,0.030930954962968826,0.23429451882839203,0.04083607718348503,0.2758321762084961,0.17122845351696014
1,63,17793,-110.79492765013129,77,16.90051837478365,0.05442073056879251,1,17793,60160,11.414851549693516,11.429726791381835,11.381383766446795,0.6763995049835799,0.014836856164038181,0.013153229840099812,0.01181767974048853,0.018533699214458466,0.03190433606505394,0.23716478049755096,0.048083752393722534,0.23435543477535248,0.17762483656406403,0.0309116430580616,0.2483820766210556,0.04025938734412193,0.2816203832626343,0.1959753930568695
1,64,17872,-113.9910885989666,79,17.284639286994935,0.05407012338223665,1,17872,61440,11.534411403111049,11.540739727020263,11.47659946169172,0.6403693639779393,0.017050009220838547,0.014430194161832333,0.011037355288863182,0.019100019708275795,0.029744848608970642,0.1955164223909378,0.043818555772304535,0.19348318874835968,0.1658184975385666,0.030584951862692833,0.2340669333934784,0.04240410774946213,0.28715255856513977,0.1809203177690506
1,65,17927,-105.58179586997721,55,19.810614013671874,0.05369203558218652,1,17927,62720,11.287701053619385,11.304432621002197,11.268133172988891,0.8312684649770911,0.022104782983660698,0.01771773025393486,0.011360617354512215,0.023493055254220963,0.036744702607393265,0.2755773067474365,0.05872408673167229,0.3342653512954712,0.17261123657226562,0.035047922283411026,0.2493971288204193,0.05829393491148949,0.33451148867607117,0.2737034261226654
1,66,18005,-105.1660803258419,78,19.394422580514636,0.0534442935032504,1,18005,64000,11.856138910566058,11.875171334402902,11.799377700260708,0.7016490002473196,0.014924868941307068,0.012889481149613857,0.010424569249153137,0.01994461752474308,0.029861832037568092,0.20141947269439697,0.048124827444553375,0.25856277346611023,0.18796639144420624,0.02928493544459343,0.24934272468090057,0.05082423985004425,0.3062104284763336,0.23282620310783386
1,67,18100,-100.84166249539703,95,21.93016246027417,0.053115206020218984,1,18100,65280,11.77777264383104,11.767894315719605,11.704051706526014,0.8316842720696801,0.018007026985287666,0.014261696487665176,0.011661355383694172,0.020473787561058998,0.030581684783101082,0.2503705322742462,0.06164133548736572,0.40212273597717285,0.21485856175422668,0.03223278746008873,0.2650994658470154,0.0524350069463253,0.3018037974834442,0.29865092039108276
1,68,18195,-97.01946191163734,95,20.423899343278674,0.05288743763097695,1,18195,66560,11.920998276604546,11.915784692764282,11.888087182574802,0.7911396497174313,0.0157746821641922,0.012134043499827385,0.009890180081129074,0.018174517899751663,0.033485766500234604,0.26511433720588684,0.05750935152173042,0.3299389183521271,0.24475039541721344,0.02850797027349472,0.24032379686832428,0.0546710379421711,0.3171202540397644,0.28088459372520447
1,69,18260,-109.31716795591637,65,22.12395256360372,0.052612899432719594,1,18260,67840,12.058982626597087,12.07482614517212,12.009101581573486,0.7630516226475056,0.016402266919612885,0.01583150587975979,0.012684008106589317,0.023158682510256767,0.027734065428376198,0.2270527333021164,0.04785136133432388,0.3501143753528595,0.1599130928516388,0.03644854947924614,0.29523563385009766,0.048030417412519455,0.33666545152664185,0.1794208437204361
1,70,18356,-112.2898662192747,96,18.49934200445811,0.0523175168205315,1,18356,69120,12.340967008802625,12.332687854766846,12.258675490485297,0.7690768499548236,0.016266463324427605,0.016136018559336662,0.011657170951366425,0.023925641551613808,0.02679412253201008,0.2560768723487854,0.05498417839407921,0.35050439834594727,0.16345861554145813,0.03276680037379265,0.2736836373806,0.051927629858255386,0.29982638359069824,0.1983029842376709
1,71,18454,-102.52598178607877,98,17.278996544414095,0.052085049397928615,1,18454,70400,12.765493732028537,12.768136713239882,12.740042866600884,0.7832679590400384,0.017486488446593285,0.012653311714529991,0.010031968355178833,0.01572902500629425,0.028418244794011116,0.19953055679798126,0.05544983595609665,0.3423863649368286,0.23015287518501282,0.030853385105729103,0.24024398624897003,0.054795391857624054,0.31705158948898315,0.2718439996242523
1,72,18579,-106.74815046170261,125,19.99926792283853,0.051815783915420376,1,18579,71680,13.02079238096873,13.051353804270427,12.97593421936035,0.8051451065540314,0.013493392616510391,0.01221639383584261,0.015097809955477715,0.020340662449598312,0.029593218117952347,0.2646423876285553,0.05463194102048874,0.3415270447731018,0.22492526471614838,0.0338163897395134,0.2862408459186554,0.05367230623960495,0.32518452405929565,0.21198302507400513
1,73,18689,-100.83499586349353,110,20.908808863162996,0.051595984989156324,1,18689,72960,13.070295229825106,13.064963566173207,13.033499622344971,0.7932136684656144,0.016337469220161438,0.01142928283661604,0.012841256335377693,0.018599485978484154,0.025359606370329857,0.21530809998512268,0.0484742596745491,0.3161965310573578,0.2428533136844635,0.03376620262861252,0.2793007493019104,0.052771955728530884,0.33719372749328613,0.23437485098838806
1,74,18752,-109.15125948190689,63,23.073145123322806,0.051357401938062826,1,18752,74240,13.295572853088379,13.276578823725382,13.16688421567281,0.9256243038745153,0.017907319590449333,0.01609552837908268,0.015159263275563717,0.02623831480741501,0.028956465423107147,0.30562624335289,0.06231397017836571,0.4428142309188843,0.1169082447886467,0.0352737195789814,0.2817637324333191,0.06595184653997421,0.39209869503974915,0.28936731815338135
1,75,19292,-135.4766440098174,540,18.57026185238803,0.051146453088277005,1,19292,75520,14.277362913555569,14.27611114890487,14.240124983257717,0.9654940711679282,0.015606417320668697,0.014448756352066994,0.012457498349249363,0.016847319900989532,0.02472558803856373,0.26964595913887024,0.05423596873879433,0.4652986526489258,0.29070669412612915,0.024803658947348595,0.2608188986778259,0.04758766293525696,0.34942424297332764,0.3430996835231781
1,76,19720,-123.77669033862185,428,18.06959794532685,0.05158875598510106,1,19720,76800,15.331383196512858,15.339127994719005,15.299200904937017,0.8805259773246595,0.02525700442492962,0.013382215052843094,0.013576827012002468,0.01645701378583908,0.02400330826640129,0.2147812843322754,0.05916036665439606,0.42818599939346313,0.20687231421470642,0.027922218665480614,0.27197253704071045,0.056893929839134216,0.3911038637161255,0.23858141899108887
1,77,19957,-134.36356027424335,237,18.964596046053845,0.051625544065004816,1,19957,78080,16.149754093004308,16.152094235627548,16.12343975564708,0.9017030628170142,0.017134172841906548,0.011907899752259254,0.013671733438968658,0.0185982845723629,0.022537890821695328,0.20915822684764862,0.06273674219846725,0.44059574604034424,0.21617905795574188,0.02811066433787346,0.30164816975593567,0.05891881883144379,0.4068075716495514,0.2314152717590332
1,78,20087,-130.72285488341004,130,17.19142181781622,0.051508015045871984,1,20087,79360,16.612360514127293,16.628584003448488,16.578029617896448,0.8372250530582208,0.014597923494875431,0.012862229719758034,0.012490365654230118,0.01784677430987358,0.026910632848739624,0.19363343715667725,0.06297875940799713,0.4410235583782196,0.20275169610977173,0.030879853293299675,0.27777695655822754,0.05011766031384468,0.3447200059890747,0.19055654108524323
1,79,20184,-126.4207512694411,97,18.684078086747064,0.05129764019869841,1,20184,80640,16.75109340879652,16.751208941141766,16.73239370981852,0.8862712168201958,0.020472176373004913,0.013423203490674496,0.01412859745323658,0.018899666145443916,0.030908070504665375,0.22118382155895233,0.06093570217490196,0.44662585854530334,0.199355348944664,0.03133179247379303,0.30439865589141846,0.0551091730594635,0.37941887974739075,0.2113950401544571
1,80,20314,-127.99922822788358,130,16.453787902685313,0.05116855666423455,1,20314,81920,17.175369849571815,17.18984721990732,17.153237636272724,0.8723527768483529,0.018881820142269135,0.012086759321391582,0.01537714246660471,0.01869475468993187,0.030119726434350014,0.24330155551433563,0.05953988432884216,0.44034209847450256,0.19013968110084534,0.03075973317027092,0.2868785858154297,0.05655314028263092,0.3539450466632843,0.2237069308757782
1,81,20507,-132.9715605773963,193,18.12051734108674,0.05096438204563117,1,20507,83200,17.310208727184094,17.316640944229928,17.27146191346018,0.7590249306642948,0.01058813463896513,0.01034396979957819,0.01368485577404499,0.018404820933938026,0.02065243199467659,0.18970990180969238,0.05076739937067032,0.35396090149879456,0.23760800063610077,0.025958139449357986,0.24780067801475525,0.0480707585811615,0.3047522008419037,0.17496776580810547
1,82,22107,-43.69409742834978,1600,16.555660888701677,0.05071915422566235,1,22107,84480,19.601082399487495,19.603923987150193,19.56833920478821,0.9253263964876532,0.0249711275100708,0.018777325749397278,0.014594377018511295,0.013306825421750546,0.025278523564338684,0.24431316554546356,0.04758288711309433,0.3346589207649231,0.2822055518627167,0.026378171518445015,0.2831098437309265,0.05687791854143143,0.46310126781463623,0.19062228500843048
1,83,22287,-118.90043631475419,180,16.039744658602608,0.052216721187497296,1,22287,85760,21.931142891777885,21.92593897713555,21.92215242385864,0.7590053415960736,0.02568410150706768,0.015513630583882332,0.014206482097506523,0.018290847539901733,0.023121433332562447,0.21350860595703125,0.05669170990586281,0.36466288566589355,0.17594513297080994,0.02465025521814823,0.22456800937652588,0.04793202131986618,0.3305240571498871,0.2011280208826065
1,84,22446,-118.80141345690936,159,14.792090721130371,0.05176110113489217,1,22446,87040,22.195609703063965,22.202803738911946,22.159282137552896,0.7882165637031291,0.016659531742334366,0.012586753815412521,0.012272026389837265,0.01814652793109417,0.027233650907874107,0.2410849630832672,0.052456293255090714,0.3602575361728668,0.254650354385376,0.02906627394258976,0.22414684295654297,0.04553261026740074,0.3576461374759674,0.1703268438577652
1,85,22556,-129.5397255718708,110,18.177475023269654,0.0514529027130412,1,22556,88320,22.500864947925916,22.463351717862217,22.477735450051046,0.7584334871985695,0.02337748371064663,0.012266297824680805,0.014026460237801075,0.01871420070528984,0.026753230020403862,0.2275225669145584,0.05052480101585388,0.3542789816856384,0.17173948884010315,0.02861974388360977,0.2563793361186981,0.0454581119120121,0.29199743270874023,0.20352011919021606
1,86,22650,-115.80879066511989,94,14.280414670043521,0.051159622317010704,1,22650,89600,22.546503448486327,22.522748618655733,22.5125633875529,0.7871984097551792,0.01859280653297901,0.01753772236406803,0.019849566742777824,0.023121843114495277,0.028025183826684952,0.25546661019325256,0.04195819050073624,0.2857586443424225,0.12256721407175064,0.03080393746495247,0.3040904402732849,0.04856628552079201,0.29646605253219604,0.270911306142807
1,87,22751,-122.57575790956616,101,15.800686974525451,0.05090364937416532,1,22751,90880,23.031772899627686,23.03623941421509,23.011113109588624,0.8060471746000913,0.023216014727950096,0.01382829062640667,0.016535570845007896,0.021146409213542938,0.02822764962911606,0.2591801881790161,0.04384440556168556,0.33369752764701843,0.1414935141801834,0.03115737810730934,0.28358194231987,0.053179334849119186,0.36371248960494995,0.2287340611219406
1,88,22868,-127.60841430677101,117,16.128468669544567,0.050688879945400084,1,22868,92160,22.93288735476407,22.92114108692516,22.916012607921253,0.7371469198638557,0.015424888581037521,0.010586990974843502,0.015324786305427551,0.016383612528443336,0.022021079435944557,0.20836451649665833,0.04461854696273804,0.3135508894920349,0.16615146398544312,0.02797425538301468,0.24741455912590027,0.050472941249608994,0.324371337890625,0.20275670289993286
1,89,22970,-113.81054685544223,102,14.978741647005082,0.05039857035774863,1,22970,93440,22.856248149871828,22.84438144683838,22.830823020935057,0.7581424689760395,0.015107035636901855,0.01628158427774906,0.0186301376670599,0.02282516472041607,0.029056644067168236,0.25470730662345886,0.04578489810228348,0.29887425899505615,0.11501295119524002,0.028872251510620117,0.25386300683021545,0.044273413717746735,0.30244648456573486,0.27359116077423096
1,90,24570,-72.87946024048142,1600,15.419545081481338,0.05015289365742984,1,24570,94720,25.113045382499696,25.11587244272232,25.093221871852876,0.9751867590099573,0.013862826861441135,0.016882343217730522,0.017091237008571625,0.011802148073911667,0.023053638637065887,0.28505808115005493,0.04291230067610741,0.3219256103038788,0.2857968509197235,0.03074876219034195,0.33334827423095703,0.05477789044380188,0.45918309688568115,0.2722940444946289
1,91,24692,-106.60904676723294,122,14.998623335361481,0.05155027172283123,1,24692,96000,27.08022936185201,27.06562091509501,27.05276568730672,0.6752813465771128,0.020647980272769928,0.010877596214413643,0.007648230530321598,0.012789770029485226,0.01797349750995636,0.13730494678020477,0.03331775218248367,0.2670186161994934,0.11084640026092529,0.024837130680680275,0.20439384877681732,0.07296740263700485,0.41962358355522156,0.21830885112285614
1,92,24793,-117.7209669384174,101,14.727612389326096,0.051115442137233916,1,24793,97280,27.086119766235353,27.079704513549803,27.036299953460695,0.8855619020391219,0.011088471859693527,0.012016619555652142,0.016902344301342964,0.020879920572042465,0.02743188478052616,0.2503487169742584,0.05144721269607544,0.36636102199554443,0.25103262066841125,0.02853107452392578,0.23776839673519135,0.05714352801442146,0.4071505069732666,0.28993910551071167
1,93,25018,-113.65735187882092,225,14.528418418494137,0.05086170812137425,1,25018,98560,27.441858187588778,27.422710618105803,27.40517101287842,0.7901527364386453,0.014481469057500362,0.014643386006355286,0.01587463542819023,0.01579570211470127,0.021312063559889793,0.22384721040725708,0.03706632927060127,0.27369338274002075,0.17739331722259521,0.025842878967523575,0.26407915353775024,0.049913886934518814,0.37785300612449646,0.24412667751312256
1,94,25122,-122.50777408666909,104,16.08567554950714,0.05057927959204949,1,25122,99840,27.856853370666503,27.907684421539308,27.854973239898683,0.8288806863129139,0.01291872188448906,0.009995752014219761,0.01630975492298603,0.01966327615082264,0.02203502506017685,0.20072762668132782,0.047984734177589417,0.3194616734981537,0.22402770817279816,0.029094256460666656,0.23996791243553162,0.05873825028538704,0.40099287033081055,0.27787625789642334
1,95,25193,-107.35469196364284,71,14.509984149251665,0.05033721004669764,1,25193,101120,27.72808930533273,27.79470078604562,27.72947382245745,0.7654235245476306,0.027471821755170822,0.014177744276821613,0.014644050039350986,0.02447829768061638,0.02457471750676632,0.2097986489534378,0.050347644835710526,0.2579341232776642,0.11495150625705719,0.031456489115953445,0.24899117648601532,0.055691976100206375,0.40177059173583984,0.26006558537483215
1,96,25273,-116.89887540787458,80,16.94478167593479,0.05009008355590762,1,25273,102400,28.089436507225038,28.030536270141603,28.065237164497375,0.7131178420037031,0.02205480821430683,0.01511557400226593,0.014981183223426342,0.017390096560120583,0.02655387483537197,0.21029289066791534,0.044163815677165985,0.27590852975845337,0.10644594579935074,0.03158697113394737,0.22966352105140686,0.0531349703669548,0.3715997338294983,0.19922104477882385
1,97,25335,-111.79049503989518,62,13.607584647337596,0.049821549228259494,1,25335,103680,27.85456635157267,27.826542123158774,27.856793308258055,0.8876038578248793,0.017455775290727615,0.010816081427037716,0.016353068873286247,0.021366437897086143,0.02639252133667469,0.20202770829200745,0.060392823070287704,0.3855181336402893,0.1712656468153,0.03326895460486412,0.2567102611064911,0.06659325212240219,0.4546031951904297,0.27648043632507324
1,98,25404,-112.62989796046168,69,14.250737810134888,0.04959255465287335,1,25404,104960,28.45685952504476,28.49849863052368,28.463424396514892,0.8853735768276713,0.013163162395358086,0.011362487450242043,0.015614219009876251,0.023687805980443954,0.024593861773610115,0.2371939718723297,0.053873661905527115,0.3506219983100891,0.1473151296377182,0.036546822637319565,0.2794381082057953,0.06494297832250595,0.46352702379226685,0.26456016302108765
1,99,25479,-113.56254221382551,75,13.832541983468191,0.049388544479704866,1,25479,106240,28.47372022356306,28.47294352395194,28.45926066807338,0.8553795536359151,0.018088264390826225,0.014639832079410553,0.011731988750398159,0.020107751712203026,0.023452352732419968,0.20467613637447357,0.0551985502243042,0.37608277797698975,0.1740647554397583,0.03044666349887848,0.25412556529045105,0.06220947206020355,0.4185390770435333,0.29350894689559937
1,100,25548,-111.1599495606497,69,16.17109565337499,0.049185288983463034,1,25548,107520,28.366164620717367,28.381732940673828,28.373553212483724,0.7123061869887338,0.02364763431251049,0.016661999747157097,0.016197044402360916,0.027785932645201683,0.027160560712218285,0.2131626009941101,0.04526554048061371,0.2565864622592926,0.0946476012468338,0.02927407994866371,0.23055697977542877,0.04867154732346535,0.3695814311504364,0.19028735160827637
1,101,25668,-117.55414274591021,120,13.651540170113245,0.04896863619938041,1,25668,108800,28.646828190485635,28.626707315444946,28.63227079709371,0.759403828283151,0.013538605533540249,0.012949180789291859,0.0122720031067729,0.018854130059480667,0.021624427288770676,0.21882061660289764,0.04308750480413437,0.31926169991493225,0.1355845034122467,0.030583899468183517,0.2227615863084793,0.046987615525722504,0.34841105341911316,0.2901591956615448
1,102,26219,-120.7074278993532,551,15.266473716389049,0.04872088300436735,1,26219,110080,28.911980178139427,28.91265303178267,28.885275032737038,0.8354198984571897,0.01715940050780773,0.013544302433729172,0.014200199395418167,0.013161049224436283,0.02254667319357395,0.22936679422855377,0.045981306582689285,0.32907751202583313,0.23749631643295288,0.023994654417037964,0.262858510017395,0.04850253090262413,0.3708249032497406,0.23167870938777924
1,103,26288,-105.91629981808364,69,13.877288059393566,0.04868624918162823,1,26288,111360,29.26871264775594,29.284950510660806,29.246929136912026,0.7903455539026122,0.026382483541965485,0.015306361950933933,0.014006257988512516,0.022454550489783287,0.029173851013183594,0.22525735199451447,0.04404890909790993,0.2234240025281906,0.10756169259548187,0.025057604536414146,0.24200129508972168,0.0516059584915638,0.4077669680118561,0.32115063071250916
1,104,26360,-105.22345459181815,72,14.98109085219247,0.04844777916430258,1,26360,112640,29.31327220371791,29.29992858341762,29.300293813432965,0.7131623323592875,0.018847592175006866,0.01716424524784088,0.012967411428689957,0.02217857353389263,0.030293865129351616,0.23140491545200348,0.03894762322306633,0.2174275517463684,0.09382238239049911,0.02696366049349308,0.21313220262527466,0.041228603571653366,0.35769641399383545,0.22359564900398254
1,105,26424,-109.36522683082148,64,14.591094195842743,0.048246497456349575,1,26424,113920,29.587932713826497,29.539247926076253,29.54880406061808,0.6728861723095179,0.024993503466248512,0.015823161229491234,0.013394483365118504,0.0235271118581295,0.029720930382609367,0.2215670645236969,0.03678884357213974,0.24929745495319366,0.1035885438323021,0.02854338102042675,0.2106509506702423,0.04364161938428879,0.3217604160308838,0.18376858532428741
1,106,26479,-105.56634104344994,55,15.237801160812378,0.04797505007930172,1,26479,115200,29.64648094177246,29.656159973144533,29.637833671569823,0.8461141442710703,0.031020591035485268,0.016031935811042786,0.017294252291321754,0.01839335821568966,0.033818766474723816,0.283560186624527,0.04941539466381073,0.300299733877182,0.1631729006767273,0.03206441551446915,0.26071977615356445,0.04326529800891876,0.3446422219276428,0.3148970901966095
1,107,26555,-116.37336271628737,76,16.69718595913478,0.047801194954844355,1,26555,116480,29.603174345833914,29.596391323634556,29.634067617143902,0.7285871709647932,0.028287777677178383,0.017048418521881104,0.0130463857203722,0.020183810964226723,0.028586262837052345,0.2332562655210495,0.045311447232961655,0.282426118850708,0.10292134433984756,0.026451418176293373,0.21456454694271088,0.04721769690513611,0.3508114814758301,0.19618012011051178
1,108,26625,-105.9822074919939,70,12.033913002695357,0.0475566503998724,1,26625,117760,29.722266469682967,29.72157655443464,29.713597815377373,0.6848036050796509,0.020005255937576294,0.015850810334086418,0.014450655318796635,0.02294144406914711,0.027298271656036377,0.21227657794952393,0.040273766964673996,0.24740946292877197,0.10248812288045883,0.029178231954574585,0.22126662731170654,0.03885720297694206,0.3008277118206024,0.21047735214233398
1,109,26698,-105.41693509556353,73,14.82706048488617,0.04733730905617659,1,26698,119040,29.64923392704555,29.63367805480957,29.632540811811175,0.7279696554353793,0.02324087731540203,0.013132846914231777,0.013409714214503765,0.02135295607149601,0.02407052181661129,0.20152771472930908,0.04401479288935661,0.24420388042926788,0.10317791998386383,0.026433663442730904,0.206942617893219,0.04375439137220383,0.344380646944046,0.3074379563331604
1,110,26761,-108.82483416609466,63,17.406172732512157,0.047157297455347504,2,26761,121600,29.75184809366862,29.762840938568115,29.713134161631267,0.686753140082435,0.024655034765601158,0.014871039427816868,0.013010038994252682,0.02342870645225048,0.026767844334244728,0.19738996028900146,0.04355931282043457,0.2584023177623749,0.09369288384914398,0.02855336107313633,0.21837739646434784,0.04101454094052315,0.2941025197505951,0.21185606718063354
1,111,26826,-109.69376490823925,65,17.141833066940308,0.046921818072979266,2,26826,124160,29.810687160491945,29.811252085367837,29.782918453216553,0.6752324654505804,0.02338932640850544,0.013315049931406975,0.01571788266301155,0.023099999874830246,0.025609124451875687,0.1929553747177124,0.04100968688726425,0.27672889828681946,0.10632748156785965,0.03184710443019867,0.2423332929611206,0.04073430225253105,0.2968786656856537,0.19183014333248138
1,112,26896,-113.72795638348907,70,15.094149562290736,0.04672738500655844,2,26896,126720,29.857423264639717,29.8558935710362,29.80293126787458,0.6445214978286198,0.026272699236869812,0.01371257659047842,0.012695329263806343,0.0181123036891222,0.02569047175347805,0.19169282913208008,0.04170679673552513,0.25491365790367126,0.09868760406970978,0.026092475280165672,0.18883737921714783,0.04847711697220802,0.31767767667770386,0.1679053157567978
1,113,26964,-110.43513011815958,68,16.16809070110321,0.04649977571907497,2,26964,129280,29.935391648610434,29.953461329142254,29.94221976598104,0.6250682460034594,0.027583852410316467,0.015364386141300201,0.01394912414252758,0.019377101212739944,0.031178275123238564,0.23056913912296295,0.042064398527145386,0.26223182678222656,0.09910949319601059,0.026216737926006317,0.18913772702217102,0.03905525803565979,0.24481874704360962,0.19010740518569946
1,114,27031,-111.2308298740536,67,10.413253259658813,0.046277436968826115,2,27031,131840,29.782035223642985,29.776976935068767,29.77572946548462,0.633098455062553,0.025853954255580902,0.014936160296201706,0.013206611387431622,0.01872260868549347,0.027562903240323067,0.2218083143234253,0.037394002079963684,0.2537871301174164,0.10272198915481567,0.02776174433529377,0.20304830372333527,0.04180212691426277,0.276398241519928,0.15641707181930542
1,115,27085,-107.24895261134952,54,12.283315048217773,0.04606892385653087,2,27085,134400,30.320209999084472,30.32922798156738,30.296393089294433,0.7661676986349953,0.01492972020059824,0.012075221166014671,0.013954466208815575,0.022280192002654076,0.025783535093069077,0.21554820239543915,0.045427460223436356,0.24640867114067078,0.09116867184638977,0.028716890141367912,0.2154236137866974,0.050781410187482834,0.37314409017562866,0.33670371770858765
1,116,27155,-104.87091668182984,70,15.312199599402291,0.0458956709929875,2,27155,136960,29.88141190665109,29.882449804033552,29.85046580178397,0.7518559477158955,0.02100152149796486,0.011769506148993969,0.014034543186426163,0.01995212957262993,0.02278735861182213,0.19862835109233856,0.04647332429885864,0.2748330533504486,0.16805899143218994,0.030169278383255005,0.23530875146389008,0.04937438294291496,0.32321232557296753,0.26838740706443787
1,117,27227,-104.75351474620402,72,15.037427704674856,0.04574725918190659,2,27227,139520,29.77551304953439,29.804726900373186,29.760384368896485,0.6586856225298511,0.022578995674848557,0.013379531912505627,0.013610105961561203,0.01794895902276039,0.027544762939214706,0.22837169468402863,0.04680042341351509,0.2849755883216858,0.12335658073425293,0.02174353040754795,0.17689089477062225,0.036673303693532944,0.25445282459259033,0.20218150317668915
1,118,27277,-110.54112856462598,50,13.5588054895401,0.04555229150321124,2,27277,142080,29.755159187316895,29.777808723449706,29.77190547943115,0.7247449734807014,0.016065143048763275,0.013182975351810455,0.016826240345835686,0.027831172570586205,0.028724761679768562,0.23324593901634216,0.04661228135228157,0.24001182615756989,0.08415330201387405,0.027996981516480446,0.22343887388706207,0.04395299032330513,0.32784703373908997,0.2800843119621277
1,119,27357,-105.22371530905366,80,17.404300731420516,0.045393899940657165,2,27357,144640,29.846152973175048,29.88770158290863,29.831733918190004,0.6940800029784441,0.022101247683167458,0.014134650118649006,0.015687186270952225,0.016215885058045387,0.028782397508621216,0.2512756288051605,0.041441336274147034,0.26935845613479614,0.12730328738689423,0.02524631842970848,0.19376559555530548,0.04299158975481987,0.287407249212265,0.19365796446800232
1,120,28112,-141.46536618401296,755,15.310317948977152,0.045198784100840675,2,28112,147200,30.17748385365804,30.174876258850098,30.16157391357422,0.9562411827362136,0.016506869345903397,0.015142237767577171,0.012557306326925755,0.017869342118501663,0.022463733330368996,0.2504848539829254,0.04862773045897484,0.4336000680923462,0.30753907561302185,0.024352986365556717,0.2482387274503708,0.04615368694067001,0.37743428349494934,0.35291004180908203
1,121,28664,-128.3098796295817,552,15.347466434131968,0.04571871070550122,2,28664,149760,31.01134724010121,31.021214499040084,30.995217597267846,0.9522798010080621,0.018656523898243904,0.014529198408126831,0.015404329635202885,0.017751332372426987,0.023734677582979202,0.25070706009864807,0.05293044447898865,0.427692711353302,0.30470243096351624,0.023260679095983505,0.23027858138084412,0.04787774011492729,0.38609322905540466,0.35258927941322327
1,122,28718,-109.03964883740991,54,16.277922196388246,0.04599007363389204,2,28718,152320,31.23072208404541,31.232907943725586,31.177499198913573,0.7540087810269108,0.013398909009993076,0.011368585750460625,0.015157969668507576,0.02594972588121891,0.02405005320906639,0.21480615437030792,0.05406799539923668,0.34814515709877014,0.17315341532230377,0.026122786104679108,0.21616420149803162,0.055228784680366516,0.33161431550979614,0.19976261258125305
1,123,28773,-110.78083773655817,55,14.931991157531739,0.04581134099779385,2,28773,154880,31.103240661621093,31.090481452941894,31.098544197082518,0.6992990382693031,0.01781601272523403,0.010706273838877678,0.014965057373046875,0.026598598808050156,0.020959917455911636,0.18495823442935944,0.04980146512389183,0.34775394201278687,0.14979815483093262,0.022732246667146683,0.18150529265403748,0.045635223388671875,0.278226763010025,0.2059001922607422
1,124,28818,-108.9645472324919,45,16.64321414232254,0.04559928033101771,2,28818,157440,31.065411186218263,31.00988597869873,31.00601682662964,0.652832226951917,0.019680019468069077,0.008741679601371288,0.017376864328980446,0.028048265725374222,0.020296389237046242,0.19104896485805511,0.05377260968089104,0.3362047076225281,0.1668262928724289,0.022853758186101913,0.15349769592285156,0.033825311809778214,0.1950482726097107,0.2035205215215683
1,125,28901,-117.21906369598582,83,15.956707656383514,0.045403629767575435,2,28901,160000,30.62773377895355,30.627238082885743,30.61863491535187,0.7313426905367748,0.019625026732683182,0.010585933923721313,0.01294692698866129,0.025792593136429787,0.026868540793657303,0.2117478996515274,0.044863827526569366,0.329423725605011,0.12365321815013885,0.02810758538544178,0.21528515219688416,0.061464931815862656,0.36573395133018494,0.18883706629276276
1,126,28955,-108.48225972242653,54,17.45239426612854,0.04525497640216989,2,28955,162560,30.7836572265625,30.788580627441405,30.725646514892578,0.6974866484050397,0.021561753004789352,0.00997289177030325,0.016893142834305763,0.023082725703716278,0.020523950457572937,0.17482627928256989,0.05046185851097107,0.3391670882701874,0.18068687617778778,0.022364290431141853,0.16109171509742737,0.04117383435368538,0.29478782415390015,0.1885415017604828
1,127,29143,-107.76093712355942,188,14.494488284322951,0.045083003926329905,2,29143,165120,31.155858951144747,31.174535263909235,31.151049031151665,0.7386881235115071,0.029706459492444992,0.011463652364909649,0.013525567017495632,0.017982060089707375,0.0211020577698946,0.1952810138463974,0.04768109321594238,0.3400972783565521,0.16811898350715637,0.020335186272859573,0.189721941947937,0.04707752913236618,0.32106342911720276,0.24544501304626465
1,128,29201,-107.68372149579227,58,17.895441207885742,0.04490604701295363,2,29201,167680,30.912872123718262,30.885166473388672,30.808456230163575,0.7482378215625368,0.015124172903597355,0.011721963062882423,0.01269715465605259,0.024255095049738884,0.026879074051976204,0.22719882428646088,0.05310925841331482,0.3517557978630066,0.163037970662117,0.025872470811009407,0.18482466042041779,0.05251121148467064,0.2969985902309418,0.2279200404882431
1,129,29257,-106.4137437203899,56,12.964027590751648,0.04475676559826784,2,29257,170240,30.95212417602539,30.936619338989257,30.94573070526123,0.6353676047708307,0.015270628035068512,0.010134028270840645,0.012452312745153904,0.02775566838681698,0.02451224811375141,0.17773352563381195,0.043212056159973145,0.2841908931732178,0.16245606541633606,0.02293981984257698,0.16772642731666565,0.051743388175964355,0.2574732005596161,0.18698474764823914
1,130,29339,-104.03074608929455,82,19.906110551953315,0.04461709413219962,2,29339,172800,30.91481444835663,30.91937849521637,30.893496656417845,0.6795772493975919,0.012185432948172092,0.011306303553283215,0.01191018521785736,0.022728711366653442,0.02169530652463436,0.17727558314800262,0.037266768515110016,0.2724207043647766,0.15119817852973938,0.023653516545891762,0.18658916652202606,0.055074360221624374,0.3112814724445343,0.24320630729198456
1,131,29444,-112.77053220802918,105,17.586360511779784,0.04442728985297052,2,29444,175360,30.710706329345705,30.688512878417967,30.67358860015869,0.7738076143321537,0.013256058096885681,0.013980813324451447,0.016066312789916992,0.02599143609404564,0.024943850934505463,0.22781910002231598,0.04502171650528908,0.28526172041893005,0.1229899525642395,0.026720693334937096,0.22263969480991364,0.05157741531729698,0.3351971507072449,0.2954004406929016
1,132,29516,-103.2776714656502,72,16.183610704966952,0.04428276742929998,2,29516,177920,30.879296902247837,30.848366110665456,30.868840163094657,0.7827293465120925,0.012285755015909672,0.011764262802898884,0.015456361696124077,0.023321442306041718,0.023202674463391304,0.18874888122081757,0.0455419085919857,0.3720477521419525,0.21004752814769745,0.021532390266656876,0.19661635160446167,0.04857213795185089,0.29377293586730957,0.2673087418079376
1,133,29584,-101.34504656749777,68,17.351125184694926,0.04416350476767706,2,29584,180480,30.822456963857015,30.775499153137208,30.782687664031982,0.7870329969069537,0.01748645305633545,0.011757172644138336,0.01940448023378849,0.021597029641270638,0.023692741990089417,0.17972131073474884,0.04604497179389,0.35245391726493835,0.1713315099477768,0.023211132735013962,0.21179531514644623,0.053856514394283295,0.3239000737667084,0.3006090521812439
1,134,29641,-105.81537428777665,57,13.461501064300537,0.04404226609546205,2,29641,183040,29.855233993530273,29.8549747467041,29.819593238830567,0.6166647803365138,0.015860697254538536,0.006965555250644684,0.013683265075087547,0.030322177335619926,0.02121671661734581,0.16069042682647705,0.044444989413022995,0.287341833114624,0.15084590017795563,0.018306901678442955,0.1389177292585373,0.054054759442806244,0.2770826518535614,0.1968047022819519
1,135,29705,-107.11076411418617,64,16.290661092599233,0.043863973144603816,2,29705,185600,30.704103247324625,30.66005013783773,30.663259347279865,0.6332637933082879,0.014352419413626194,0.009193485602736473,0.012441562488675117,0.027806147933006287,0.02234497293829918,0.18482907116413116,0.045633379369974136,0.3238925039768219,0.15274974703788757,0.019953493028879166,0.16215960681438446,0.04645697772502899,0.21244178712368011,0.171700581908226
1,136,29763,-104.90350518468767,58,17.29966398715973,0.04369001909448155,2,29763,188160,30.3185941696167,30.302688980102538,30.29677089691162,0.6576356153035986,0.017022712156176567,0.011514492332935333,0.014027900993824005,0.01847735233604908,0.020482821390032768,0.17551776766777039,0.04341895878314972,0.25511524081230164,0.17296573519706726,0.01809060573577881,0.15995943546295166,0.044573165476322174,0.276081919670105,0.24549081921577454
1,137,29837,-105.27195679210126,74,12.922343962533134,0.04353541886626647,2,29837,190720,30.081975446428572,30.03327568599156,30.051216207231793,0.6434246760767859,0.026697451248764992,0.00999720860272646,0.016421642154455185,0.02186623401939869,0.022859182208776474,0.19286450743675232,0.04086066409945488,0.2824127972126007,0.1430308073759079,0.01825408637523651,0.15360531210899353,0.03906033933162689,0.2965603470802307,0.17264901101589203
1,138,29933,-105.5154840350151,96,17.283516783184474,0.04338267691561888,2,29933,193280,30.181358337402344,30.18986070421007,30.192214753892685,0.7067971600530049,0.018474707379937172,0.011699285358190536,0.014263235963881016,0.025066392496228218,0.02418278157711029,0.1937086433172226,0.043142691254615784,0.32647669315338135,0.17217640578746796,0.02379760704934597,0.20538680255413055,0.05251331999897957,0.3043636381626129,0.20267699658870697
1,139,30017,-118.85247886367142,84,17.19265534877777,0.04323450506118865,2,30017,195840,29.622536873817445,29.638430857658385,29.622839641571044,0.7825601931129184,0.019350187852978706,0.015348691493272781,0.013665078207850456,0.026734357699751854,0.019235726445913315,0.18466517329216003,0.04922530800104141,0.41511258482933044,0.1809305101633072,0.02854962646961212,0.21917606890201569,0.05249304324388504,0.29744628071784973,0.1545249968767166
1,140,30107,-107.6390533670783,90,16.45561261177063,0.0431538868854698,2,30107,198400,29.42673291100396,29.417761929829915,29.395172437032063,0.7645861961775355,0.021233156323432922,0.012249790132045746,0.012856844812631607,0.02234119549393654,0.026467569172382355,0.22102580964565277,0.05070963501930237,0.4194488525390625,0.18469977378845215,0.023480985313653946,0.1844182312488556,0.04853249713778496,0.27315109968185425,0.2037394791841507
1,141,30161,-104.1997775984928,54,20.920086374282835,0.04298520950425384,2,30161,200960,30.425680694580077,30.42781036376953,30.429800720214843,0.6712889792742552,0.010727704502642155,0.010381869971752167,0.017589205875992775,0.023491499945521355,0.025621481239795685,0.17271241545677185,0.04611378163099289,0.3133027255535126,0.19065427780151367,0.022261466830968857,0.17649561166763306,0.046524714678525925,0.2270018309354782,0.21138982474803925
1,142,30245,-106.95874860789627,84,19.283862045407297,0.04284260398429683,2,30245,203520,29.831324434280397,29.816976690292357,29.799903535842894,0.6251366236025379,0.019570454955101013,0.010664121247828007,0.016450384631752968,0.023524519056081772,0.023975441232323647,0.19842731952667236,0.04141392558813095,0.30623897910118103,0.1381649672985077,0.020858237519860268,0.16582302749156952,0.0361662395298481,0.2456790655851364,0.15348666906356812
1,143,30318,-100.11933073727414,73,19.336628658430918,0.042692365560491205,2,30318,206080,29.939154706682476,29.940556389944895,29.881742995125908,0.7034047452146059,0.017044007778167725,0.009971152059733868,0.018589744344353676,0.020714329555630684,0.02441110648214817,0.17814867198467255,0.04695485904812813,0.3203825056552887,0.18443188071250916,0.019655466079711914,0.18507640063762665,0.04631508141756058,0.26299169659614563,0.22001443803310394
1,144,30393,-100.71789595391601,75,17.17154576097216,0.042554655374359276,2,30393,208640,29.580868312290736,29.56387402670724,29.58445941380092,0.6653910233577093,0.011450088582932949,0.010975989513099194,0.016183501109480858,0.0239584781229496,0.029297487810254097,0.181898832321167,0.045575473457574844,0.24047192931175232,0.16634447872638702,0.021591639146208763,0.17185474932193756,0.04268084466457367,0.256408154964447,0.26044607162475586
1,145,30435,-108.18121815286577,42,17.725138008594513,0.04242609074433981,2,30435,211200,29.229981660842896,29.19068145751953,29.20688877105713,0.6909098302324613,0.016289478167891502,0.013915179297327995,0.015439989045262337,0.021787265315651894,0.029164697974920273,0.19528591632843018,0.05377553775906563,0.3037325441837311,0.19217999279499054,0.018909836187958717,0.16596882045269012,0.05042915791273117,0.2375877946615219,0.2411385029554367
1,146,30498,-105.34320500213653,63,21.153883349895477,0.04230029685896332,2,30498,213760,29.72244904836019,29.70573008855184,29.66544132232666,0.622007669910552,0.015390871092677116,0.012512657791376114,0.013692939653992653,0.02551909349858761,0.026768673211336136,0.19751819968223572,0.04186178743839264,0.28607383370399475,0.14704672992229462,0.0234998669475317,0.19330617785453796,0.0421658419072628,0.22736090421676636,0.18146903812885284
1,147,30563,-105.55657453276217,65,14.496737273534139,0.042151713195969075,2,30563,216320,29.26611878077189,29.273363558451333,29.253605047861736,0.6292704410277881,0.016025522723793983,0.012720480561256409,0.013485469855368137,0.026123685762286186,0.029229741543531418,0.2202269285917282,0.044545978307724,0.26220816373825073,0.1552927941083908,0.025009965524077415,0.2098347395658493,0.045263759791851044,0.23193839192390442,0.1718052178621292
1,148,30648,-101.1011529318057,85,17.615323251485826,0.04201997625602394,2,30648,218880,29.400910758972167,29.405850219726563,29.368538355827333,0.688952780120513,0.011421846225857735,0.010024597868323326,0.01527353748679161,0.0256499070674181,0.026683010160923004,0.1958668828010559,0.046630073338747025,0.27759018540382385,0.16899001598358154,0.01797815039753914,0.15809255838394165,0.04457896575331688,0.294402152299881,0.22982123494148254
1,149,30725,-100.17780709033832,77,19.5502331835883,0.04186877688439954,2,30725,221440,29.38473012106759,29.414376286097934,29.38981056213379,0.7072644729118842,0.018765617161989212,0.010643824934959412,0.017656413838267326,0.020417483523488045,0.024483997374773026,0.19001919031143188,0.04508991539478302,0.2762490510940552,0.15841005742549896,0.02066531404852867,0.19612926244735718,0.043238863348960876,0.2877903878688812,0.2565496265888214
1,150,30811,-106.0394980199635,86,15.704756858944894,0.04174368832881252,2,30811,224000,29.732597208023073,29.7441326379776,29.716379904747008,0.588394356501657,0.026891322806477547,0.011928283609449863,0.015230059623718262,0.019771035760641098,0.024926936253905296,0.21296410262584686,0.038875360041856766,0.232298344373703,0.15132829546928406,0.02110983058810234,0.19266590476036072,0.033546142280101776,0.23096328973770142,0.14726875722408295
1,151,30881,-104.10949185863137,70,16.09382995877947,0.041575506484756865,2,30881,226560,29.057289259774343,29.053568921770367,29.04976327078683,0.6202303524528231,0.014312643557786942,0.01238890178501606,0.01672859862446785,0.022123156115412712,0.023663807660341263,0.15413038432598114,0.041844386607408524,0.24827834963798523,0.17493939399719238,0.021675731986761093,0.17300568521022797,0.04570477828383446,0.21605929732322693,0.2539937198162079
1,152,30962,-101.82866848260164,81,19.48970144689083,0.0414500869375964,2,30962,229120,29.33851456642151,29.316566276550294,29.29957172870636,0.6638690996685146,0.025335824117064476,0.015073289163410664,0.015521090477705002,0.0229240283370018,0.022795075550675392,0.1555667668581009,0.045731186866760254,0.319494366645813,0.17196626961231232,0.020077979192137718,0.19023802876472473,0.040363915264606476,0.2688022255897522,0.17071442306041718
1,153,31089,-93.39214806631207,127,17.587822324037553,0.04132640701408188,2,31089,231680,29.150017563501994,29.13487548828125,29.099263874689736,0.7595582817952464,0.022641945630311966,0.015110879205167294,0.015168064273893833,0.018348319455981255,0.024433422833681107,0.20705221593379974,0.043584879487752914,0.3203578293323517,0.18863742053508759,0.02318231575191021,0.24296657741069794,0.03665155544877052,0.29315313696861267,0.2492365837097168
1,154,31481,-114.45056475838646,392,18.137087298050904,0.04124965357386376,2,31481,234240,29.115756215804662,29.1268525099143,29.101121873121997,0.785411545398588,0.018282972276210785,0.01457307394593954,0.01545695960521698,0.017455626279115677,0.024647487327456474,0.21235430240631104,0.048934828490018845,0.3413839042186737,0.2033648043870926,0.022362159565091133,0.2393496185541153,0.042249009013175964,0.30298930406570435,0.24894513189792633
1,155,31553,-109.36668768431991,72,20.76612808704376,0.041310315695209585,2,31553,236800,29.495912551879883,29.482469858442034,29.489465876988003,0.6582757145580318,0.020963747054338455,0.012528806924819946,0.011812160722911358,0.02467818185687065,0.020244700834155083,0.16818341612815857,0.04042097553610802,0.2344689667224884,0.10883019119501114,0.027532072737812996,0.2033776193857193,0.06001441180706024,0.36385196447372437,0.1603241115808487
1,156,31663,-92.85573167726398,110,16.803338571028277,0.04116108331496154,2,31663,239360,28.632715329256925,28.67165435444225,28.63970770402388,0.7443609629165042,0.025291461497545242,0.015386899933218956,0.017764970660209656,0.017093051224946976,0.02442166581749916,0.20823469758033752,0.04333953931927681,0.30777478218078613,0.16127236187458038,0.028357351198792458,0.30469682812690735,0.0366675890982151,0.27608996629714966,0.21260961890220642
1,157,31714,-107.98043008521199,51,20.503135142326354,0.04108316429504534,2,31714,241920,28.788015174865723,28.676212463378906,28.813277015686037,0.6622530137206993,0.022157933562994003,0.013843659311532974,0.013278450816869736,0.025217875838279724,0.02033761702477932,0.19801029562950134,0.05303077772259712,0.25990283489227295,0.10050002485513687,0.02594759501516819,0.16950012743473053,0.054688263684511185,0.3321716785430908,0.15780439972877502
1,158,31812,-101.1923216227442,98,19.30618957148658,0.040951004636481526,2,31812,244480,28.782236671447755,28.786890453762478,28.73344961802165,0.6532669584361874,0.02713496796786785,0.016109218820929527,0.016888415440917015,0.02142600156366825,0.020428813993930817,0.17543606460094452,0.036620717495679855,0.25036942958831787,0.16807003319263458,0.025104770436882973,0.25479045510292053,0.03833119943737984,0.24225576221942902,0.21004019677639008
1,159,32076,-85.83617427013814,264,19.66748269337874,0.04079728095281509,2,32076,247040,28.93898292688223,28.942737381274885,28.933884444603553,0.7058254696541664,0.020349375903606415,0.017450250685214996,0.017463689669966698,0.01744581013917923,0.023282498121261597,0.20085255801677704,0.03992325812578201,0.28040698170661926,0.1364724487066269,0.023157361894845963,0.23537449538707733,0.0414164662361145,0.29549241065979004,0.23561197519302368
1,160,32228,-93.06202302407473,152,17.13363099257151,0.04071441937088966,2,32228,249600,29.071205444335938,29.069452819824217,29.082094955444337,0.7097010702679032,0.024423664435744286,0.013288399204611778,0.015016160905361176,0.017515018582344055,0.02355315163731575,0.21767769753932953,0.039412837475538254,0.28615856170654297,0.14013119041919708,0.02205265685915947,0.22622859477996826,0.03848201036453247,0.2948223352432251,0.20901000499725342
1,161,32357,-92.36587684694678,129,19.607098323106765,0.04056570919752121,2,32357,252160,28.791429487864175,28.807139190038047,28.782789119084676,0.7027012541774631,0.020806849002838135,0.014420921914279461,0.015742819756269455,0.017191821709275246,0.02400106005370617,0.2246953696012497,0.03661174327135086,0.25797346234321594,0.14734192192554474,0.02468368038535118,0.27316606044769287,0.035358529537916183,0.27931296825408936,0.17519132792949677
1,162,32461,-111.66330257430673,104,20.558967390060424,0.040477358638530685,2,32461,254720,28.61211715698242,28.61189001083374,28.597986392974853,0.6901541711905828,0.01567796990275383,0.012280136346817017,0.016177000477910042,0.016910282894968987,0.02154754474759102,0.21581608057022095,0.044040702283382416,0.32616126537323,0.13537254929542542,0.021305959671735764,0.20439767837524414,0.04366515204310417,0.28980863094329834,0.18232090771198273
1,163,32522,-110.01617948524654,61,14.975103890895843,0.04036466393560644,2,32522,257280,29.02108885447184,29.03902940750122,29.04135694503784,0.6029568341423254,0.02613186091184616,0.013544143177568913,0.011968462727963924,0.02266768552362919,0.0207806546241045,0.18000568449497223,0.0429183691740036,0.2394620031118393,0.10644195228815079,0.025392189621925354,0.1779009997844696,0.04473142698407173,0.28176870942115784,0.1325477957725525
1,164,32625,-116.70209355931729,103,17.193168885707856,0.04021387212858425,2,32625,259840,28.845523529052734,28.8529252243042,28.836800632476805,0.6125966113747903,0.015210124664008617,0.011343089863657951,0.012137656100094318,0.023992689326405525,0.01619686931371689,0.1742558479309082,0.03471347689628601,0.2293960005044937,0.11193619668483734,0.021874215453863144,0.18721947073936462,0.041039660573005676,0.2982991635799408,0.17850255966186523
1,165,32753,-131.4397676754743,128,20.22897841334343,0.040072251011536816,2,32753,262400,28.783054717381795,28.789395380020142,28.739720837275186,0.6174418042646721,0.027490276843309402,0.012592222541570663,0.014008424244821072,0.018980326130986214,0.02307646907866001,0.20895984768867493,0.03163311257958412,0.23078465461730957,0.15378902852535248,0.021362412720918655,0.18475699424743652,0.0388604998588562,0.2472471296787262,0.17976149916648865
1,166,32832,-111.04347446002066,79,17.12045850072588,0.03991173528076157,2,32832,264960,28.48164223262242,28.481218092782157,28.43659962245396,0.5823850773180588,0.021990060806274414,0.011723374016582966,0.013284936547279358,0.021733565255999565,0.017800796777009964,0.19132791459560394,0.03841083124279976,0.2423567920923233,0.11571304500102997,0.02094343863427639,0.17308002710342407,0.040780339390039444,0.2663286328315735,0.12357412278652191
1,167,32886,-105.24102040566504,54,19.817533364295958,0.03976107763010077,2,32886,267520,28.774320793151855,28.786456489562987,28.807074737548827,0.5992095727059576,0.01231476478278637,0.012277024798095226,0.01693865843117237,0.02365913614630699,0.018734987825155258,0.17494089901447296,0.03848016634583473,0.23383399844169617,0.1829681098461151,0.022222677245736122,0.19705723226070404,0.03495858237147331,0.20597417652606964,0.13698792457580566
1,168,32963,-112.60370341967791,77,17.68398427963257,0.0396544467221247,2,32963,270080,28.960167721339634,28.98180844443185,28.916763741629463,0.5779474222814882,0.02344840206205845,0.010985963977873325,0.013280040584504604,0.0230102576315403,0.0202587079256773,0.17470107972621918,0.03730885311961174,0.24869249761104584,0.12326670438051224,0.020697955042123795,0.147966668009758,0.04403404891490936,0.263984352350235,0.10379321873188019
1,169,33035,-119.21599059086293,72,19.790112488610404,0.039494548854418096,2,33035,272640,28.644724818638394,28.65899317605155,28.643357603890554,0.5714645474735234,0.01821148581802845,0.011273534037172794,0.01217671763151884,0.02438923716545105,0.016477026045322418,0.162075474858284,0.04115544632077217,0.2588467597961426,0.10527288913726807,0.017690885812044144,0.16342636942863464,0.04798145592212677,0.28140872716903687,0.13165581226348877
1,170,33127,-105.36013206280768,92,17.487167368994818,0.039369456753019214,2,33127,275200,28.64413397047255,28.644078233506946,28.611304812961155,0.5652070281946141,0.017645856365561485,0.012161856517195702,0.011604275554418564,0.021833468228578568,0.02467515505850315,0.21735423803329468,0.029836105182766914,0.22043028473854065,0.12032265216112137,0.023291483521461487,0.17527760565280914,0.030712520703673363,0.2121303826570511,0.1360480636358261
1,171,33218,-113.8583647608757,91,17.75551506943173,0.03923521205609621,2,33218,277760,28.63494561513265,28.630540466308595,28.60965266757541,0.670988706769524,0.027735093608498573,0.012670416384935379,0.01660960726439953,0.019255345687270164,0.020464416593313217,0.1880752593278885,0.03755216673016548,0.2602093517780304,0.13917618989944458,0.02294902503490448,0.19435212016105652,0.04651150479912758,0.3160102963447571,0.1819636970758438
1,172,33326,-113.37511144392192,108,19.72559421300888,0.03913633936019831,2,33326,280320,28.620628070831298,28.620388202667236,28.61992961883545,0.574640277221247,0.02340782806277275,0.013550898991525173,0.015202932059764862,0.02164245769381523,0.021418841555714607,0.20885485410690308,0.035213664174079895,0.24416141211986542,0.12085328996181488,0.022366853430867195,0.18173004686832428,0.03187676891684532,0.1917777955532074,0.1363108903169632
1,173,33452,-119.78822796605527,126,20.21170228521029,0.03900009107704346,2,33452,282880,28.65400506655375,28.644079717000327,28.664056539535522,0.5435897979944472,0.018436722457408905,0.012823792174458504,0.011567777022719383,0.018785793334245682,0.016651075333356857,0.17250706255435944,0.036786038428545,0.22495800256729126,0.12189473956823349,0.01845373958349228,0.15824204683303833,0.03752133622765541,0.2558983564376831,0.13786053657531738
1,174,33504,-108.71699819341302,52,21.17373556137085,0.03881706747584618,2,33504,285440,28.703838348388672,28.73122230529785,28.719690284729005,0.5662796781040155,0.03108326718211174,0.012862415984272957,0.011192044243216515,0.026236869394779205,0.02116345427930355,0.17433974146842957,0.03879055753350258,0.22574302554130554,0.1033327504992485,0.022005055099725723,0.15070296823978424,0.042425040155649185,0.22792528569698334,0.1492725908756256
1,175,33673,-114.93647606763989,169,21.194641357660295,0.03873631213146907,2,33673,288000,29.083697545528413,29.08009682893753,29.055106008052825,0.669380638197329,0.017062725499272346,0.014635157771408558,0.02057577669620514,0.019991498440504074,0.023061225190758705,0.25707441568374634,0.04138863831758499,0.2499164342880249,0.12098231166601181,0.023706484586000443,0.2110459804534912,0.03570283576846123,0.24476101994514465,0.18341901898384094
1,176,33905,-129.7551213428378,232,19.627593372179113,0.038604725544689265,2,33905,290560,28.816089024751083,28.82823654672374,28.80074512647546,0.6549914425303196,0.02103991061449051,0.013320637866854668,0.01375642791390419,0.018128858879208565,0.02150678262114525,0.22190500795841217,0.040090158581733704,0.28861716389656067,0.10652932524681091,0.0202659759670496,0.19395866990089417,0.0321829579770565,0.25385338068008423,0.1732073426246643
1,177,34053,-111.92498839925975,148,20.902437838486264,0.038499590094116604,2,34053,293120,29.286229528699604,29.28244819641113,29.27774166379656,0.6296474016397386,0.025351276621222496,0.012215659022331238,0.01361785363405943,0.019786974415183067,0.018788686022162437,0.19339333474636078,0.03557306155562401,0.25956353545188904,0.11749792098999023,0.02083808369934559,0.19917957484722137,0.029038703069090843,0.2323092669248581,0.2027377486228943
1,178,34104,-111.47348750196397,51,18.20258566379547,0.03837798096351606,2,34104,295680,29.634827384948732,29.601545333862305,29.603768768310548,0.5819950623839509,0.015877919271588326,0.010078907944262028,0.0132698779925704,0.021326476708054543,0.018372612074017525,0.14260204136371613,0.048680711537599564,0.2633143365383148,0.1311217099428177,0.018158791586756706,0.15795981884002686,0.0448048897087574,0.24500012397766113,0.17095471918582916
1,179,34186,-105.10973133891821,82,19.5942108720541,0.038265053219252956,2,34186,298240,29.520518827438355,29.52937388420105,29.495148968696594,0.5636808500602478,0.014236019924283028,0.010777458548545837,0.013024337589740753,0.0194979477673769,0.021385086700320244,0.15827161073684692,0.039977241307497025,0.25748807191848755,0.12817984819412231,0.020687073469161987,0.16333767771720886,0.03815238177776337,0.20803986489772797,0.1655644178390503
1,180,34375,-127.93407658301294,189,21.315024511019388,0.038128354123100304,2,34375,300800,29.57815056906806,29.570657528771296,29.5617133670383,0.6668872324720262,0.028229542076587677,0.011748264543712139,0.015328877605497837,0.016630904749035835,0.0243336483836174,0.24592170119285583,0.0389750674366951,0.3092960715293884,0.09668000787496567,0.02248610556125641,0.20552974939346313,0.03286813199520111,0.23162956535816193,0.15696364641189575
1,181,34462,-112.55739750340581,87,22.515499439835548,0.03802533136374915,2,34462,303360,29.88942406177521,29.907805228233336,29.863329935073853,0.5250469437618365,0.019353028386831284,0.012241900898516178,0.015926875174045563,0.019677355885505676,0.019011355936527252,0.18906648457050323,0.037351448088884354,0.21681633591651917,0.0951610878109932,0.0204561036080122,0.15114061534404755,0.03303854912519455,0.17603619396686554,0.12523941695690155
1,182,34523,-111.29181458801031,61,21.732578972975414,0.03788028448097296,2,34523,305920,30.918474356333416,30.923937702178954,30.906345240275066,0.6723958131719808,0.024511588737368584,0.01304643228650093,0.013165791518986225,0.02564818039536476,0.023955466225743294,0.217215895652771,0.033846400678157806,0.24004578590393066,0.12992244958877563,0.0221488568931818,0.17593681812286377,0.04453224688768387,0.27626925706863403,0.2425144910812378
1,183,34649,-116.74257130827755,126,22.678550205628078,0.037767852645422983,2,34649,308480,30.27914398511251,30.248851569493613,30.23137197494507,0.5444154507584043,0.026420127600431442,0.011715425178408623,0.013591451570391655,0.02075250633060932,0.021827245131134987,0.19571083784103394,0.03381866589188576,0.23741862177848816,0.09490081667900085,0.020041070878505707,0.1596265584230423,0.03137161582708359,0.1985611766576767,0.1431066244840622
1,184,34820,-118.58932864200324,171,23.017687940597533,0.037636146766168097,2,34820,311040,30.806966747957116,30.801309047025793,30.763720198238598,0.6295505844884448,0.02773136831820011,0.010258282534778118,0.014664383605122566,0.01809244602918625,0.023305512964725494,0.2049761563539505,0.034961964935064316,0.2843402922153473,0.11731068789958954,0.019635360687971115,0.17588821053504944,0.03742705285549164,0.23467250168323517,0.1645461469888687
1,185,34877,-112.59018971025944,57,21.142607049942015,0.037518116199027965,2,34877,313600,30.856957626342773,30.8491410446167,30.87678611755371,0.6279572773920862,0.025416439399123192,0.012680862098932266,0.014488336630165577,0.020617207512259483,0.0173751600086689,0.1616828590631485,0.047064974904060364,0.2850358784198761,0.11313220113515854,0.017603948712348938,0.1745695173740387,0.0361885204911232,0.22479011118412018,0.18679910898208618
1,186,34993,-110.93291459232569,116,22.263111142678696,0.03741779002799269,2,34993,316160,31.003036273609506,31.013918269764293,30.994358132102274,0.6247679264894848,0.016577569767832756,0.01201793272048235,0.013985972851514816,0.021267976611852646,0.02077428624033928,0.20160527527332306,0.031765107065439224,0.21395474672317505,0.10862737149000168,0.02246425673365593,0.19687068462371826,0.038022905588150024,0.24865089356899261,0.2096501588821411
1,187,35141,-90.13838390167803,148,23.071200920854295,0.03732643763206023,2,35141,318720,32.030869933537076,32.028196007864814,32.02059174946376,0.6621634678764118,0.02315663732588291,0.009597321972250938,0.0165934506803751,0.020727988332509995,0.019908877089619637,0.1581171602010727,0.03906195983290672,0.26821887493133545,0.13395245373249054,0.01849101297557354,0.21026499569416046,0.03628018498420715,0.2790011167526245,0.18735502660274506
1,188,35195,-113.20403904467821,54,20.8526726770401,0.03720939268704748,2,35195,321280,31.2891499710083,31.399167518615723,31.36368911743164,0.8144648251710115,0.026611413806676865,0.013525362126529217,0.013284089043736458,0.02085563912987709,0.021552111953496933,0.20409224927425385,0.04005737975239754,0.30991968512535095,0.3048689365386963,0.021952450275421143,0.1672545224428177,0.04163989797234535,0.25894221663475037,0.27137234807014465
1,189,35338,-124.60510077234358,143,23.83677532502583,0.03715117423910729,2,35338,323840,31.75820518221174,31.776819338117328,31.768184389386857,0.7057507701895454,0.020021161064505577,0.01158184465020895,0.01701420359313488,0.01726420223712921,0.020940765738487244,0.2185244858264923,0.03369773551821709,0.24289241433143616,0.14588864147663116,0.02399326115846634,0.22270798683166504,0.039799079298973083,0.27580124139785767,0.20667198300361633
1,190,35393,-113.88128960132599,55,22.45702991485596,0.03710679235071808,2,35393,326400,33.54728809356689,33.54060745239258,33.568808212280274,0.7753683111884377,0.023043984547257423,0.015181546099483967,0.01139838621020317,0.018810905516147614,0.024624455720186234,0.232140451669693,0.04325367882847786,0.2514634132385254,0.26008230447769165,0.025389065966010094,0.20741869509220123,0.04432530328631401,0.26224735379219055,0.2452169954776764
1,191,35447,-116.65438020974398,54,19.519788608551025,0.037002776522675286,2,35447,328960,32.34982070922852,32.377729415893555,32.35086410522461,0.5666115198422361,0.0159763190895319,0.011106322519481182,0.011004305444657803,0.022187454625964165,0.02207179367542267,0.15955083072185516,0.03885268792510033,0.2051093727350235,0.1859469711780548,0.023070581257343292,0.17375962436199188,0.03466548025608063,0.1873355656862259,0.10617876797914505
1,192,35497,-116.44286643341184,50,24.28151876449585,0.036902482950709005,2,35497,331520,33.350349769592285,33.32039073944092,33.30145626068115,0.558090932071209,0.018637727946043015,0.010627571493387222,0.011793425306677818,0.02215644344687462,0.024969270452857018,0.18296384811401367,0.037846263498067856,0.20598897337913513,0.16412225365638733,0.023084605112671852,0.16465219855308533,0.03067474439740181,0.18941861391067505,0.12365313619375229
1,193,35541,-110.48492307960987,44,23.513791292905807,0.036782567162552605,2,35541,334080,33.07230486869812,33.07555546760559,33.06865611076355,0.6433987668292089,0.023943912237882614,0.013988718390464783,0.01426274236291647,0.022025542333722115,0.023748105391860008,0.20201611518859863,0.04536706581711769,0.28700658679008484,0.23498965799808502,0.02056032419204712,0.12927839159965515,0.043741997331380844,0.19082756340503693,0.14659565687179565
1,194,35587,-113.2354414910078,46,22.31073734164238,0.03672314774299013,2,35587,336640,32.68972611427307,32.671096324920654,32.70955367088318,0.6130353617279426,0.01855595037341118,0.012276438064873219,0.01129196397960186,0.02293948456645012,0.02216842956840992,0.17518657445907593,0.04197857156395912,0.2459603250026703,0.2393023818731308,0.02306590974330902,0.16780807077884674,0.03302135691046715,0.16913439333438873,0.1303703337907791
1,195,35637,-112.28779907897115,50,27.108960227966307,0.036615002943243054,2,35637,339200,32.49221809387207,32.49680488586426,32.45387924194336,0.7216044193506241,0.020648814737796783,0.01374075934290886,0.01676977425813675,0.0214554350823164,0.0230381041765213,0.21062730252742767,0.04331735149025917,0.27286505699157715,0.21401841938495636,0.023359647020697594,0.16167102754116058,0.04083654284477234,0.25621265172958374,0.24417643249034882
1,196,35761,-122.38311627414078,124,26.39974927306175,0.036562388382262466,2,35761,341760,33.43487893740336,33.426664145787555,33.3842050075531,0.6228608880792895,0.02359575405716896,0.012596371583640575,0.014224018901586533,0.019009828567504883,0.021173985674977303,0.22387182712554932,0.03444754704833031,0.24942314624786377,0.14926227927207947,0.020307250320911407,0.16908910870552063,0.033296868205070496,0.23380227386951447,0.14987720549106598
1,197,35823,-113.63271476328373,62,26.840517942110697,0.03649701362462353,2,35823,344320,33.69054886500041,33.704121907552086,33.659187157948814,0.7097391947623222,0.019722528755664825,0.01695505529642105,0.013149150647222996,0.019948510453104973,0.02732209675014019,0.27645155787467957,0.035020943731069565,0.2136169970035553,0.16660696268081665,0.02679034136235714,0.2305464893579483,0.041353318840265274,0.25699111819267273,0.21299299597740173
1,198,35872,-112.24109275639057,49,25.95844503045082,0.036382997403149125,2,35872,346880,33.72126784324646,33.74193706512451,33.69698691368103,0.6771128916618775,0.02198043093085289,0.011609658598899841,0.015096894465386868,0.01954648271203041,0.021718500182032585,0.24064026772975922,0.047579746693372726,0.24807478487491608,0.21823912858963013,0.02323765866458416,0.17810657620429993,0.04397183656692505,0.21990926563739777,0.17163221538066864
1,199,35919,-111.43394028767943,47,21.135552680492403,0.03632358592003584,2,35919,349440,33.44766931533813,33.47370572090149,33.469216632843015,0.6501590080083685,0.02001277357339859,0.011396464891731739,0.015075784176588058,0.021328212693333626,0.024883316829800606,0.22703388333320618,0.041345179080963135,0.22795608639717102,0.22081060707569122,0.020321287214756012,0.15606677532196045,0.04211682081222534,0.22288289666175842,0.17844811081886292
1,200,35974,-119.83766924217343,55,23.77400020122528,0.036217945995075364,3,35974,353280,33.72602153778076,33.72149890899658,33.67996620178223,0.5777096423235807,0.01878374256193638,0.01027439720928669,0.014029067009687424,0.017462164163589478,0.01970328576862812,0.13963255286216736,0.05137977749109268,0.2930884063243866,0.19109003245830536,0.01623777486383915,0.12286346405744553,0.042129579931497574,0.1766781508922577,0.11480308324098587
1,201,36021,-114.16095856763422,47,19.06768735051155,0.03610369227560503,3,36021,357120,34.12109909057617,34.13088130950928,34.09881324768067,0.7064896749055132,0.026681305840611458,0.014075285755097866,0.015642603859305382,0.018655870109796524,0.023228850215673447,0.24652065336704254,0.04879871383309364,0.2534305155277252,0.2687245309352875,0.016537006944417953,0.14746101200580597,0.04192652180790901,0.2021629512310028,0.15871122479438782
1,202,36067,-111.74787502735853,46,25.52306854724884,0.03604440762794443,3,36067,360960,33.14782376289368,33.14961495399475,33.11921691894531,0.6881923869900082,0.02520602196455002,0.012366383336484432,0.015082819387316704,0.019215848296880722,0.01926540955901146,0.19625914096832275,0.038427043706178665,0.24587291479110718,0.21551856398582458,0.02366943471133709,0.1835910826921463,0.04235341399908066,0.22393883764743805,0.2280433624982834
1,203,36225,-112.53921467531472,158,20.61828012148539,0.035985391408737216,3,36225,364800,34.3038383102417,34.331722768147785,34.297040100097654,0.6003908198091048,0.022805701941251755,0.01061144657433033,0.012274686247110367,0.015429525636136532,0.020467083901166916,0.21162940561771393,0.03479837626218796,0.24104267358779907,0.1415833830833435,0.017814427614212036,0.16256779432296753,0.03447591885924339,0.23572182655334473,0.15967728197574615
1,204,36276,-115.85737340897322,51,27.927581629753114,0.035888554029008174,3,36276,368640,34.21881595611572,34.22720058441162,34.202324028015134,0.6084496006369591,0.01627485454082489,0.011162135750055313,0.012614099308848381,0.020157601684331894,0.02035590074956417,0.15853258967399597,0.046819835901260376,0.2853245437145233,0.20630767941474915,0.017870597541332245,0.13577477633953094,0.03673519939184189,0.2134234458208084,0.10472500324249268
1,205,36329,-116.35511813871562,53,24.851684613227846,0.03581669358602652,3,36329,372480,34.91051540374756,34.92498237609863,34.8992280960083,0.6115792090038084,0.01620975136756897,0.00956546701490879,0.011266886256635189,0.01971876434981823,0.023645810782909393,0.18854117393493652,0.03700871393084526,0.23416538536548615,0.2369726300239563,0.019287975504994392,0.12866215407848358,0.035084959119558334,0.18456079065799713,0.1377948671579361
1,206,36381,-117.5470719859004,52,26.797372398376464,0.035725572969473846,3,36381,376320,33.9871329498291,33.99660053253174,33.96256649017334,0.521888872465262,0.016702277585864067,0.012009987607598305,0.01141802966594696,0.02205236628651619,0.02121516317129135,0.18321600556373596,0.03585974499583244,0.21142682433128357,0.17108918726444244,0.018050026148557663,0.12822218239307404,0.029859699308872223,0.14446133375167847,0.09054754674434662
1,207,36446,-118.27350994944572,65,20.20832909742991,0.03565594764872336,3,36446,380160,35.27313470840454,35.245961634318036,35.22887763977051,0.5589004709170415,0.020348817110061646,0.012402835302054882,0.011462750844657421,0.01975286565721035,0.018807755783200264,0.17152108252048492,0.03673400357365608,0.22105450928211212,0.19709531962871552,0.019836869090795517,0.12685850262641907,0.033343613147735596,0.15664131939411163,0.14471063017845154
1,208,36514,-109.88236507494003,68,27.776988863945007,0.03555751517677391,3,36514,384000,34.57848062515259,34.587390104929604,34.551975091298424,0.5572997033596039,0.013787987641990185,0.009896478615701199,0.01232002954930067,0.01849960722029209,0.01604343019425869,0.1251617670059204,0.035542577505111694,0.229013592004776,0.11069926619529724,0.017825881019234657,0.14470599591732025,0.03995443508028984,0.25543028116226196,0.1631259024143219
1,209,36585,-111.51744270604104,71,24.232529497146608,0.0354680754270562,3,36585,387840,35.286989620753694,35.300372341700964,35.30647416796003,0.5825932426771647,0.015569549053907394,0.009925085119903088,0.013028550893068314,0.016118520870804787,0.018795501440763474,0.1719963401556015,0.04096833989024162,0.24687200784683228,0.2449665665626526,0.01730988174676895,0.12822891771793365,0.03689565137028694,0.18289561569690704,0.1370602250099182
1,210,36644,-115.73964186757803,59,29.998728656768797,0.03534494641591126,3,36644,391680,34.51356636047363,34.49879299163818,34.42052585601807,0.6842475452665555,0.019382426515221596,0.013063392601907253,0.011419042944908142,0.019173717126250267,0.022175932303071022,0.20627695322036743,0.03771839290857315,0.2476174235343933,0.2540041506290436,0.02064240723848343,0.1465175598859787,0.036119624972343445,0.20199573040008545,0.20382747054100037
1,211,36834,-136.27590898703784,190,27.322371324739958,0.035290261011544644,3,36834,395520,35.44617228257029,35.48316826067473,35.42809468319542,0.5950253367424011,0.02539004199206829,0.012357125990092754,0.013791444711387157,0.016436155885457993,0.0203220434486866,0.19731636345386505,0.035684745758771896,0.22905980050563812,0.16233514249324799,0.017492901533842087,0.16771632432937622,0.03376273065805435,0.2287759929895401,0.15162552893161774
1,212,36891,-107.68283784447704,57,29.44464217185974,0.03518793780643206,3,36891,399360,35.04787452697754,35.05563018798828,34.97914695739746,0.5617332748676601,0.013053176924586296,0.012770328670740128,0.01137307658791542,0.018644047901034355,0.02044501155614853,0.19113178551197052,0.028778886422514915,0.18183815479278564,0.21832939982414246,0.02009890042245388,0.1456628441810608,0.03552766889333725,0.17237521708011627,0.1366535872220993
1,213,36938,-109.41322287730873,47,24.09667221903801,0.03510798932208369,3,36938,403200,36.256135892868045,36.22623958587646,36.21945281028748,0.6894748775248832,0.018155371770262718,0.011266950517892838,0.01149164978414774,0.018406491726636887,0.022024905309081078,0.20218424499034882,0.04267153888940811,0.26818421483039856,0.3067680299282074,0.01797635294497013,0.1371312290430069,0.037201888859272,0.19377361238002777,0.1745600402355194
1,214,37217,-119.35453131981194,279,23.779377197336267,0.03502259124846508,3,37217,407040,35.91477452030888,35.91997270230894,35.8945942207619,0.7921650227039091,0.014974266290664673,0.012652973644435406,0.011384089477360249,0.016162162646651268,0.022312771528959274,0.21586956083774567,0.03830409795045853,0.3178708851337433,0.22053001821041107,0.025288859382271767,0.23425599932670593,0.04543660208582878,0.25135642290115356,0.2697695195674896
1,215,37277,-120.281763240695,60,25.781060632069906,0.035122189555188706,3,37277,410880,35.223072115580244,35.23758633931478,35.21480833689372,0.5901493127147357,0.017496807500720024,0.009731229394674301,0.014752207323908806,0.0189465694129467,0.018602197989821434,0.16244317591190338,0.03954610601067543,0.26201069355010986,0.16701766848564148,0.01943112164735794,0.15082947909832,0.0481724739074707,0.21491685509681702,0.13565047085285187
1,216,37358,-123.37280213087797,81,23.85289853811264,0.03502126463014504,3,37358,414720,36.45679585933685,36.442669892311095,36.41099412441254,0.5944721100874889,0.011017781682312489,0.008636119775474072,0.011484764516353607,0.01926473341882229,0.02130330540239811,0.18084439635276794,0.03967215493321419,0.2487466186285019,0.1641358584165573,0.01742369309067726,0.15220680832862854,0.04405422508716583,0.24300363659858704,0.1389862596988678
1,217,37448,-129.39173459634185,90,25.495602814356484,0.0349702305372419,3,37448,418560,36.926052220662434,36.93780259026421,36.94278369479709,0.576624922785494,0.012859020382165909,0.00896990206092596,0.00934662763029337,0.020304327830672264,0.02154603973031044,0.16255447268486023,0.04809117689728737,0.25232547521591187,0.17284394800662994,0.01660383678972721,0.13951770961284637,0.04734567925333977,0.243562251329422,0.1194816380739212
1,218,37520,-111.481620115228,72,25.04572217805045,0.03486371076831671,3,37520,422400,36.24492421831403,36.273995590209964,36.22874240875244,0.5375551869057946,0.014760972931981087,0.0103966249153018,0.013668511062860489,0.026194190606474876,0.01713438332080841,0.15294967591762543,0.03861052915453911,0.2126593142747879,0.17677482962608337,0.013841552659869194,0.13380974531173706,0.044079918414354324,0.2334526628255844,0.11455994099378586
1,219,37587,-109.92556304298341,67,26.851764265696207,0.034778282727586894,3,37587,426240,37.06169261932373,37.0505384127299,37.04465443293254,0.6095826961656114,0.011181376874446869,0.012234138324856758,0.01303820125758648,0.020989079028367996,0.019148658961057663,0.17633943259716034,0.0439700186252594,0.23522832989692688,0.1473054438829422,0.015839647501707077,0.15485893189907074,0.04946178197860718,0.2863427996635437,0.1395474523305893
1,220,37650,-114.68039371422492,63,26.31631801923116,0.03470769894296584,3,37650,430080,36.367249425252275,36.35125417709351,36.36164541244507,0.6061535614823538,0.015588631853461266,0.007870444096624851,0.011176967062056065,0.019557420164346695,0.018264003098011017,0.17547640204429626,0.0504566915333271,0.2625157833099365,0.2002732753753662,0.014910709112882614,0.11293702572584152,0.05016660690307617,0.25632426142692566,0.1040760800242424
1,221,38031,-157.03256761934608,381,25.479728654811257,0.03461112379267508,3,38031,433920,37.63446598052978,37.640263984077855,37.61270356429251,0.7218718540871863,0.01655264012515545,0.012324485927820206,0.0138729652389884,0.02160707861185074,0.01841781474649906,0.172885924577713,0.030045153573155403,0.2399735152721405,0.27738648653030396,0.01729479618370533,0.1888684630393982,0.037021901458501816,0.2647978961467743,0.25589221715927124
1,222,38188,-101.80923502426594,157,25.200612293879193,0.034639837464468706,3,38188,437760,37.96637819925944,37.95461966196696,37.923627077738445,0.6942375675318347,0.016544921323657036,0.009725657291710377,0.013480786234140396,0.018083803355693817,0.016115667298436165,0.14134475588798523,0.032893527299165726,0.2790463864803314,0.22662396728992462,0.019046137109398842,0.19289523363113403,0.03611959144473076,0.24095773696899414,0.1992911696434021
1,223,38854,-176.03030422888696,666,27.5512680144021,0.034624024950617914,3,38854,441600,39.328072024836686,39.335139618497905,39.321243942145145,0.67974636428528,0.014829462394118309,0.011555242352187634,0.013364852406084538,0.01890256069600582,0.018378494307398796,0.1843494325876236,0.03387289121747017,0.23997247219085693,0.22787246108055115,0.016896028071641922,0.1533762365579605,0.0335552953183651,0.2565280497074127,0.24618196487426758
1,224,40454,-150.92720503825694,1600,28.27717706978321,0.03470423624708952,3,40454,445440,42.63763852596283,42.648725925683976,42.60803430795669,0.5408410990564153,0.009477286599576473,0.008338110521435738,0.007931040599942207,0.022782443091273308,0.011831196956336498,0.15368784964084625,0.04114575311541557,0.20761409401893616,0.17668944597244263,0.021385433152318,0.12472756206989288,0.016565658152103424,0.11441584676504135,0.30504411458969116
1,225,40688,-139.47730261133984,234,26.032482090203658,0.03386626400147812,3,40688,449280,44.53197109388268,44.55432533595873,44.536468456102455,0.5872863316510477,0.013379683718085289,0.011402337811887264,0.014136180281639099,0.01927960477769375,0.01776614785194397,0.155123770236969,0.028058165684342384,0.1901477724313736,0.18842856585979462,0.015447423793375492,0.1302129030227661,0.031210632994771004,0.24000521004199982,0.18578818440437317
1,226,41123,-155.45359561243095,435,28.86330223970635,0.033725842510503305,3,41123,453120,45.25861930847168,45.25928750149039,45.21454959248388,0.5804131310904163,0.010762977413833141,0.008536097593605518,0.013893078081309795,0.016363581642508507,0.016598636284470558,0.15062439441680908,0.02593301422894001,0.1835452914237976,0.19506779313087463,0.015691453590989113,0.14007441699504852,0.02940271981060505,0.23878854513168335,0.19246812164783478
1,227,42723,-119.16362135543022,1600,28.316073031127452,0.03357790559530258,3,42723,456960,46.886607367992404,46.893195052146915,46.852720055580136,0.8465174800902605,0.018305141478776932,0.012452884577214718,0.011382706463336945,0.014706926420331001,0.027448659762740135,0.23025169968605042,0.04898250475525856,0.3380478024482727,0.2525012493133545,0.026484131813049316,0.25311195850372314,0.053443241864442825,0.2839697003364563,0.32107001543045044
1,228,43655,-196.88429867383093,932,28.770131254196166,0.0343378897307508,3,43655,460800,48.653558948475826,48.65957739224998,48.61733688436529,0.7949424153553569,0.014223199337720871,0.0123981274664402,0.01229888666421175,0.01665777899324894,0.019124986603856087,0.21489933133125305,0.03722372651100159,0.3243797719478607,0.24941450357437134,0.023360205814242363,0.21320556104183197,0.03538179025053978,0.2666532099246979,0.31206175684928894
1,229,45255,-117.41820381043362,1600,29.303419939130546,0.03453402734854642,3,45255,464640,49.979571039676664,49.98022913455963,49.94850327014923,0.5282557698572055,0.007335825357586145,0.007995997555553913,0.010132833383977413,0.011740355752408504,0.012657258659601212,0.11865166574716568,0.013939445838332176,0.14253318309783936,0.16436567902565002,0.015209874138236046,0.1341545730829239,0.029485521838068962,0.25759780406951904,0.22235320508480072
1,230,46855,-118.38655229494907,1600,28.69530855804682,0.03392114175102589,3,46855,468480,50.663608922958375,50.66909853696823,50.63547683000564,0.6838146683340892,0.0162925086915493,0.015502989292144775,0.009292757138609886,0.012146187014877796,0.0224345400929451,0.18753071129322052,0.03785447031259537,0.3164301812648773,0.18563060462474823,0.01918063685297966,0.19605308771133423,0.03962339833378792,0.22350744903087616,0.23073633015155792
1,231,48455,-145.31703790463507,1600,28.025557208359242,0.03377639828402488,3,48455,472320,51.77465723752975,51.780117020606994,51.750606005191806,0.5638988576363773,0.015045481733977795,0.0074883694760501385,0.00915621593594551,0.00923127681016922,0.003949161618947983,0.04935331270098686,0.031005771830677986,0.3233386278152466,0.24104098975658417,0.01764126494526863,0.09567733108997345,0.010010886006057262,0.12012522667646408,0.332917183637619
1,232,50055,-120.4948244811967,1600,28.601190380603075,0.032698045290572936,3,50055,476160,52.867051401138305,52.87699223995209,52.8442047047615,0.6383814127929509,0.010684885084629059,0.011251019313931465,0.009211711585521698,0.010417924262583256,0.015501410700380802,0.19831356406211853,0.03719603270292282,0.36556869745254517,0.17330428957939148,0.024905264377593994,0.17223216593265533,0.03163938596844673,0.13092537224292755,0.17260447144508362
1,233,51655,-116.11474004911724,1600,27.456010749936105,0.03224598138760298,3,51655,480000,53.4309761929512,53.43490938425064,53.40921059846878,0.5340334366075694,0.00840085931122303,0.00873071514070034,0.009540539234876633,0.009565279819071293,0.014782380312681198,0.14078901708126068,0.02607233263552189,0.24763347208499908,0.18577823042869568,0.0211492870002985,0.14548419415950775,0.02711327001452446,0.14021830260753632,0.16910649836063385
1,234,53255,-123.52480052155443,1600,27.891970775574446,0.0318693717839706,3,53255,483840,54.677959296703335,54.67687148332596,54.657630550861356,0.5945637198025361,0.009700976312160492,0.010604703798890114,0.011083820834755898,0.012540212832391262,0.013559019193053246,0.14230847358703613,0.0323241651058197,0.2625594735145569,0.20695915818214417,0.01889226958155632,0.16438089311122894,0.025362713262438774,0.15568530559539795,0.2001127451658249
1,235,54609,-233.28248607134447,1354,27.327651190581147,0.031634799068650375,3,54609,487680,55.609573906792534,55.62036986174407,55.590426259923866,0.645797989464625,0.01090489886701107,0.011684651486575603,0.012334478087723255,0.015298577025532722,0.014361882582306862,0.1456623524427414,0.036194153130054474,0.27891919016838074,0.22047020494937897,0.01672651246190071,0.16522279381752014,0.02703006938099861,0.1876157969236374,0.23140057921409607
